%
(body_drills)
(T3  D=1.6 CR=0 TAPER=118deg - ZMIN=-38.2 - drill)
G90
G17
G21
G28 G91 Z0
G90

(Drill1)
T3 M6
S5000 M3
G54
M7
G0 X-51 Y-18
Z2
Z0.4
G1 Z-3.6 F1000
G0 Z0.4
Z-1.6
G1 Z-5.6 F1000
G0 Z0.4
Z-3.6
G1 Z-7.6 F1000
G0 Z0.4
Z-5.6
G1 Z-9.6 F1000
G0 Z0.4
Z-7.6
G1 Z-11.6 F1000
G0 Z2
X-26.75 Y-17.5
Z-26.2
G1 Z-30.2 F1000
G0 Z-26.2
Z-28.2
G1 Z-32.2 F1000
G0 Z-26.2
Z-30.2
G1 Z-34.2 F1000
G0 Z-26.2
Z-32.2
G1 Z-36.2 F1000
G0 Z-26.2
Z-34.2
G1 Z-38.2 F1000
G0 Z2
X0 Y-18
Z0.4
G1 Z-3.6 F1000
G0 Z0.4
Z-1.6
G1 Z-5.6 F1000
G0 Z0.4
Z-3.6
G1 Z-7.6 F1000
G0 Z0.4
Z-5.6
G1 Z-9.6 F1000
G0 Z0.4
Z-7.6
G1 Z-11.6 F1000
G0 Z2
X26.75 Y-17.5
Z-26.2
G1 Z-30.2 F1000
G0 Z-26.2
Z-28.2
G1 Z-32.2 F1000
G0 Z-26.2
Z-30.2
G1 Z-34.2 F1000
G0 Z-26.2
Z-32.2
G1 Z-36.2 F1000
G0 Z-26.2
Z-34.2
G1 Z-38.2 F1000
G0 Z2
X51 Y-18
Z0.4
G1 Z-3.6 F1000
G0 Z0.4
Z-1.6
G1 Z-5.6 F1000
G0 Z0.4
Z-3.6
G1 Z-7.6 F1000
G0 Z0.4
Z-5.6
G1 Z-9.6 F1000
G0 Z0.4
Z-7.6
G1 Z-11.6 F1000
G0 Z2
Y18
Z0.4
G1 Z-3.6 F1000
G0 Z0.4
Z-1.6
G1 Z-5.6 F1000
G0 Z0.4
Z-3.6
G1 Z-7.6 F1000
G0 Z0.4
Z-5.6
G1 Z-9.6 F1000
G0 Z0.4
Z-7.6
G1 Z-11.6 F1000
G0 Z2
X26.75 Y17.5
Z-26.2
G1 Z-30.2 F1000
G0 Z-26.2
Z-28.2
G1 Z-32.2 F1000
G0 Z-26.2
Z-30.2
G1 Z-34.2 F1000
G0 Z-26.2
Z-32.2
G1 Z-36.2 F1000
G0 Z-26.2
Z-34.2
G1 Z-38.2 F1000
G0 Z2
X0 Y18
Z0.4
G1 Z-3.6 F1000
G0 Z0.4
Z-1.6
G1 Z-5.6 F1000
G0 Z0.4
Z-3.6
G1 Z-7.6 F1000
G0 Z0.4
Z-5.6
G1 Z-9.6 F1000
G0 Z0.4
Z-7.6
G1 Z-11.6 F1000
G0 Z2
X-26.75 Y17.5
Z-26.2
G1 Z-30.2 F1000
G0 Z-26.2
Z-28.2
G1 Z-32.2 F1000
G0 Z-26.2
Z-30.2
G1 Z-34.2 F1000
G0 Z-26.2
Z-32.2
G1 Z-36.2 F1000
G0 Z-26.2
Z-34.2
G1 Z-38.2 F1000
G0 Z2
X-51 Y18
Z0.4
G1 Z-3.6 F1000
G0 Z0.4
Z-1.6
G1 Z-5.6 F1000
G0 Z0.4
Z-3.6
G1 Z-7.6 F1000
G0 Z0.4
Z-5.6
G1 Z-9.6 F1000
G0 Z0.4
Z-7.6
G1 Z-11.6 F1000
G0 Z2
M9
G28 G91 Z0
G90
G28 G91 X0 Y0
G90
M30
%
