%
(cavity_rough_and_finish)
(T2  D=6.35 CR=0 - ZMIN=-51 - flat end mill)
G90
G17
G21
G28 G91 Z0
G90

(Rough Cavity)
T2 M6
S20000 M3
G54
M7
G0 X29.653 Y0.74
Z5
Z2.5
G3 X23.839 Y-0.74 Z-0.025 I-2.907 J-0.74 F800.33
X29.746 Y0 Z-2.35 I2.907 J0.74
X23.746 I-3 J0
X29.746 I3 J0
G1 X29.75 Y0.231 F1650
X29.909 Y1.144
X29.961 Y1.285
X29.996 Y1.43
X30.017 Y1.579
X30.024 Y1.729
X30.019 Y1.888
X29.999 Y2.058
X29.964 Y2.237
X29.912 Y2.424
X29.841 Y2.617
X29.749 Y2.814
X29.637 Y3.012
X29.503 Y3.21
X29.346 Y3.406
X29.167 Y3.595
X28.967 Y3.776
X28.744 Y3.947
X28.501 Y4.104
X28.239 Y4.245
X27.958 Y4.368
X27.661 Y4.471
X27.35 Y4.551
X27.027 Y4.607
X26.695 Y4.638
X26.355 Y4.642
X26.012 Y4.618
X25.666 Y4.566
X25.322 Y4.486
X24.982 Y4.377
X24.648 Y4.24
X24.324 Y4.075
X24.012 Y3.883
X23.715 Y3.665
X23.434 Y3.423
X23.172 Y3.158
X22.931 Y2.871
X22.713 Y2.565
X22.52 Y2.241
X22.353 Y1.902
X22.213 Y1.549
X22.102 Y1.185
X22.02 Y0.813
X21.969 Y0.435
X21.947 Y0.053
X21.957 Y-0.329
X21.997 Y-0.71
X22.068 Y-1.088
X22.168 Y-1.458
X22.299 Y-1.82
X22.458 Y-2.17
X22.645 Y-2.506
X22.858 Y-2.827
X23.096 Y-3.129
X23.358 Y-3.412
X23.642 Y-3.673
X23.946 Y-3.91
X24.268 Y-4.122
X24.607 Y-4.308
X24.959 Y-4.465
X25.323 Y-4.594
X25.696 Y-4.694
X26.075 Y-4.763
X26.46 Y-4.802
X26.846 Y-4.809
X27.231 Y-4.786
X27.614 Y-4.732
X27.99 Y-4.647
X28.359 Y-4.532
X28.718 Y-4.388
X29.063 Y-4.216
X29.394 Y-4.016
X29.708 Y-3.791
X30.003 Y-3.541
X30.276 Y-3.268
X30.527 Y-2.974
X30.754 Y-2.661
X31.014 Y-2.234
X31.412 Y-1.442
X31.654 Y-0.843
X31.82 Y-0.316
X31.93 Y0.164
X31.997 Y0.625
X32.025 Y1.071
X32.018 Y1.504
X31.977 Y1.925
X31.904 Y2.337
X31.798 Y2.74
X31.659 Y3.133
X31.49 Y3.515
X31.289 Y3.885
X31.057 Y4.239
X30.795 Y4.578
X30.504 Y4.897
X30.184 Y5.195
X29.838 Y5.47
X29.465 Y5.72
X29.067 Y5.942
X28.647 Y6.135
X28.208 Y6.295
X27.751 Y6.421
X27.279 Y6.511
X26.797 Y6.563
X26.306 Y6.577
X25.811 Y6.551
X25.315 Y6.484
X24.821 Y6.378
X24.334 Y6.231
X23.857 Y6.043
X23.394 Y5.817
X22.947 Y5.553
X22.521 Y5.252
X22.118 Y4.916
X21.741 Y4.546
X21.394 Y4.146
X21.079 Y3.718
X20.798 Y3.264
X20.554 Y2.788
X20.348 Y2.292
X20.182 Y1.78
X20.057 Y1.255
X19.975 Y0.721
X19.936 Y0.18
X19.94 Y-0.362
X19.988 Y-0.904
X20.08 Y-1.44
X20.214 Y-1.968
X20.391 Y-2.484
X20.608 Y-2.984
X20.865 Y-3.466
X21.16 Y-3.926
X21.492 Y-4.361
X21.857 Y-4.768
X22.254 Y-5.145
X22.68 Y-5.488
X23.132 Y-5.797
X23.608 Y-6.068
X24.105 Y-6.301
X24.618 Y-6.492
X25.145 Y-6.642
X25.683 Y-6.75
X26.228 Y-6.813
X26.776 Y-6.833
X27.324 Y-6.809
X27.868 Y-6.741
X28.405 Y-6.629
X28.932 Y-6.475
X29.444 Y-6.279
X29.939 Y-6.042
X30.414 Y-5.766
X30.865 Y-5.453
X31.307 Y-5.091
X31.784 Y-4.631
X32.233 Y-4.122
X32.653 Y-3.561
X33.029 Y-2.964
X33.35 Y-2.351
X33.615 Y-1.728
X33.823 Y-1.103
X33.977 Y-0.478
X34.078 Y0.146
X34.128 Y0.767
Y1.382
X34.079 Y1.99
X33.982 Y2.587
X33.839 Y3.171
X33.649 Y3.741
X33.415 Y4.293
X33.136 Y4.825
X32.815 Y5.335
X32.453 Y5.819
X32.05 Y6.275
X31.61 Y6.7
X31.133 Y7.091
X30.622 Y7.445
X30.081 Y7.76
X29.511 Y8.033
X28.915 Y8.261
X28.299 Y8.442
X27.664 Y8.574
X27.017 Y8.655
X26.36 Y8.684
X25.698 Y8.66
X25.036 Y8.583
X24.378 Y8.452
X23.728 Y8.267
X23.092 Y8.029
X22.474 Y7.74
X21.877 Y7.4
X21.307 Y7.012
X20.768 Y6.577
X20.263 Y6.098
X19.797 Y5.578
X19.372 Y5.02
X18.992 Y4.428
X18.66 Y3.806
X18.378 Y3.157
X18.148 Y2.486
X17.973 Y1.798
X17.853 Y1.096
X17.79 Y0.386
X17.784 Y-0.329
X17.836 Y-1.042
X17.944 Y-1.75
X18.11 Y-2.447
X18.331 Y-3.13
X18.606 Y-3.793
X18.934 Y-4.432
X19.312 Y-5.044
X19.739 Y-5.623
X20.211 Y-6.167
X20.725 Y-6.671
X21.278 Y-7.133
X21.866 Y-7.549
X22.487 Y-7.916
X23.135 Y-8.232
X23.806 Y-8.496
X24.497 Y-8.704
X25.202 Y-8.857
X25.917 Y-8.953
X26.638 Y-8.991
X27.359 Y-8.971
X28.077 Y-8.893
X28.786 Y-8.758
X29.482 Y-8.566
X30.16 Y-8.319
X30.822 Y-8.016
X31.48 Y-7.648
X32.126 Y-7.215
X32.755 Y-6.717
X33.355 Y-6.156
X33.917 Y-5.541
X34.43 Y-4.878
X34.889 Y-4.177
X35.288 Y-3.444
X35.624 Y-2.687
X35.896 Y-1.911
X36.104 Y-1.124
X36.246 Y-0.328
X36.324 Y0.47
X36.337 Y1.266
X36.287 Y2.056
X36.173 Y2.835
X35.999 Y3.601
X35.763 Y4.348
X35.469 Y5.073
X35.118 Y5.773
X34.711 Y6.444
X34.25 Y7.081
X33.737 Y7.681
X33.176 Y8.24
X32.569 Y8.756
X31.919 Y9.223
X31.23 Y9.639
X30.505 Y10
X29.749 Y10.304
X28.966 Y10.548
X28.162 Y10.729
X27.341 Y10.845
X26.508 Y10.896
X25.669 Y10.88
X24.83 Y10.796
X23.996 Y10.644
X23.173 Y10.424
X22.366 Y10.138
X21.582 Y9.786
X20.824 Y9.371
X20.1 Y8.895
X19.414 Y8.359
X18.77 Y7.769
X18.174 Y7.126
X17.63 Y6.436
X17.142 Y5.702
X16.713 Y4.93
X16.347 Y4.123
X16.046 Y3.288
X15.812 Y2.43
X15.648 Y1.555
X15.554 Y0.667
X15.532 Y-0.226
X15.582 Y-1.119
X15.703 Y-2.007
X15.896 Y-2.882
X16.158 Y-3.741
X16.489 Y-4.576
X16.885 Y-5.382
X17.346 Y-6.155
X17.867 Y-6.888
X18.446 Y-7.578
X19.079 Y-8.219
X19.761 Y-8.807
X20.489 Y-9.339
X21.257 Y-9.811
X22.061 Y-10.221
X22.895 Y-10.564
X23.754 Y-10.839
X24.633 Y-11.045
X25.525 Y-11.179
X26.426 Y-11.241
X27.328 Y-11.231
X28.227 Y-11.148
X29.118 Y-10.994
X29.998 Y-10.767
X30.866 Y-10.467
X31.714 Y-10.095
X32.53 Y-9.656
X33.309 Y-9.155
X34.047 Y-8.595
X34.74 Y-7.981
X35.386 Y-7.317
X35.98 Y-6.607
X36.522 Y-5.855
X37.006 Y-5.066
X37.432 Y-4.244
X37.796 Y-3.392
X38.096 Y-2.516
X38.33 Y-1.62
X38.496 Y-0.708
X38.592 Y0.213
X38.618 Y1.139
X38.573 Y2.064
X38.457 Y2.983
X38.272 Y3.89
X38.017 Y4.78
X37.695 Y5.649
X37.307 Y6.49
X36.855 Y7.299
X36.344 Y8.07
X35.774 Y8.801
X35.151 Y9.486
X34.477 Y10.122
X33.758 Y10.705
X32.996 Y11.232
X32.197 Y11.7
X31.366 Y12.108
X30.506 Y12.453
X29.623 Y12.732
X28.721 Y12.944
X27.807 Y13.089
X26.884 Y13.166
X25.958 Y13.175
X25.033 Y13.117
X24.115 Y12.993
X23.209 Y12.803
X22.318 Y12.55
X21.447 Y12.234
X20.602 Y11.856
X19.786 Y11.417
X19.004 Y10.921
X18.259 Y10.371
X17.554 Y9.77
X16.893 Y9.122
X16.278 Y8.429
X15.712 Y7.696
X15.2 Y6.924
X14.745 Y6.118
X14.347 Y5.281
X14.008 Y4.419
X13.729 Y3.536
X13.51 Y2.636
X13.354 Y1.723
X13.262 Y0.802
X13.235 Y-0.124
X13.273 Y-1.049
X13.374 Y-1.97
X13.538 Y-2.882
X13.763 Y-3.78
X14.048 Y-4.661
X14.394 Y-5.52
X14.799 Y-6.353
X15.262 Y-7.156
X15.778 Y-7.925
X16.345 Y-8.657
X16.959 Y-9.35
X17.62 Y-9.999
X18.324 Y-10.601
X19.068 Y-11.152
X19.849 Y-11.65
X20.662 Y-12.094
X21.503 Y-12.483
X22.14 Y-12.726
X22.232 Y-12.758
X22.326 Y-12.784
X22.421 Y-12.803
X22.608 Y-12.835
X22.818 Y-12.874
X23.029 Y-12.916
X23.108 Y-12.939
X24.01 Y-13.15
X24.916 Y-13.34
X25.835 Y-13.458
X26.76 Y-13.506
X27.686 Y-13.486
X28.608 Y-13.399
X29.412 Y-13.264
X29.53 Y-13.24
X29.646 Y-13.206
X29.758 Y-13.164
X29.969 Y-13.075
X30.179 Y-12.999
X30.389 Y-12.937
X30.6 Y-12.89
X30.994 Y-12.791
X31.871 Y-12.493
X32.723 Y-12.129
X33.546 Y-11.704
X34.338 Y-11.224
X35.096 Y-10.691
X35.818 Y-10.111
X36.502 Y-9.486
X37.144 Y-8.819
X37.741 Y-8.111
X38.293 Y-7.367
X38.796 Y-6.59
X39.251 Y-5.783
X39.656 Y-4.95
X40.009 Y-4.094
X40.305 Y-3.216
X40.545 Y-2.322
X40.727 Y-1.414
X40.852 Y-0.496
X40.919 Y0.428
X40.928 Y1.354
X40.876 Y2.279
X40.764 Y3.198
X40.593 Y4.108
X40.364 Y5.006
X40.079 Y5.887
X39.739 Y6.748
X39.343 Y7.586
X38.893 Y8.395
X38.392 Y9.174
X37.842 Y9.919
X37.246 Y10.628
X36.607 Y11.299
X35.927 Y11.927
X35.349 Y12.395
X35.14 Y12.536
X34.911 Y12.64
X34.668 Y12.704
X34.417 Y12.725
X31.861
X31.651 Y12.731
X31.441 Y12.741
X31.231 Y12.77
X31.02 Y12.806
X30.6 Y12.89
X30.384 Y12.939
X30.179 Y12.999
X29.969 Y13.075
X29.758 Y13.164
X29.548 Y13.289
X29.093 Y13.57
X28.917 Y13.688
X28.707 Y13.834
X28.527 Y13.991
X28.41 Y14.085
X28.141 Y14.266
X27.838 Y14.436
X27.452 Y14.614
X27.036 Y14.766
X26.857 Y14.816
X26.529 Y14.868
X26.197 Y14.847
X25.879 Y14.752
X25.589 Y14.59
X25.342 Y14.367
G3 X24.915 Y13.709 I2.661 J-2.194
X24.578 Y12.578 I3.088 J-1.536 F5000
X29.23 Y12.029 I2.326 J-0.275
X28.993 Y13.363 I-2.326 J0.274
X28.528 Y13.992 I-2.089 J-1.06 F1650
G1 X28.497 Y14.018
X28.3 Y14.201
X28.286 Y14.216
X28.129 Y14.412
X27.831 Y14.832
X27.684 Y15.043
X27.655 Y15.085
X27.625 Y15.136
X27.541 Y15.26
X27.331 Y15.443
X27.08 Y15.563
X26.807 Y15.614
X26.53 Y15.591
X26.268 Y15.496
X26.041 Y15.336
X25.864 Y15.122
G3 X25.768 Y14.363 I0.855 J-0.494
X25.916 Y14.054 I0.951 J0.265 F5000
X27.717 Y14.376 I0.824 J0.589
X27.625 Y15.136 I-0.977 J0.267 F1650
G1 X27.554 Y15.253
X27.445 Y15.446
X27.339 Y15.674
X27.327 Y15.709
X27.27 Y15.848
X27.106 Y15.996
X26.902 Y16.081
X26.681 Y16.091
X26.471 Y16.025
X26.294 Y15.892
X26.174 Y15.706
G3 X26.18 Y15.29 I0.523 J-0.201
X26.404 Y15.017 I0.564 J0.235
X27.085 Y15.018 I0.34 J0.508 F5000
X27.327 Y15.709 I-0.341 J0.507 F1650
G1 X27.265 Y15.884
X27.235 Y15.973
X27.199 Y16.095
X27.191 Y16.13
X27.15 Y16.274
X27.016 Y16.394
X26.847 Y16.458
X26.667 Y16.455
X26.5 Y16.388
X26.37 Y16.264
X26.293 Y16.101
X26.284 Y16.038
X26.286 Y15.975
X26.299 Y15.913
G3 X26.746 Y15.585 I0.44 J0.131
G1 X26.762 F5000
G3 X27.191 Y16.13 I-0.023 J0.459 F1650
G1 X27.151 Y16.305
X27.121 Y16.449
X27.084 Y16.595
X26.977 Y16.701
X26.838 Y16.759
X26.688 Y16.76
X26.548 Y16.703
X26.44 Y16.599
X26.38 Y16.461
X26.373 Y16.392
G3 X26.779 Y16.011 I0.377 J-0.005
X27.122 Y16.45 I-0.029 J0.376
G1 X27.108 Y16.515
X27.061 Y16.761
X27.026 Y16.907
X26.908 Y17.001
X26.761 Y17.033
X26.615 Y16.997
X26.5 Y16.9
X26.439 Y16.762
X26.435 Y16.714
Y16.713
G3 X26.774 Y16.399 I0.315 J0
X27.061 Y16.761 I-0.024 J0.314
G1 X27.014 Y17.014
X27.007 Y17.054
X26.99 Y17.127
X26.893 Y17.215
X26.768 Y17.248
X26.64 Y17.221
X26.539 Y17.139
X26.487 Y17.02
X26.485 Y16.982
X26.492 Y16.944
G3 X27.008 Y17.054 I0.254 J0.073
G1 X26.99 Y17.147
X26.973 Y17.255
X26.958 Y17.328
X26.875 Y17.405
X26.766 Y17.436
X26.655 Y17.412
X26.568 Y17.34
X26.524 Y17.235
X26.523 Y17.208
X26.526 Y17.18
G3 X26.973 Y17.255 I0.222 J0.047
G1 X26.94 Y17.462
X26.936 Y17.491
X26.932 Y17.515
X26.923 Y17.549
X26.913 Y17.577
X26.901 Y17.604
X26.861 Y17.637
X26.813 Y17.657
X26.761 Y17.662
X26.71 Y17.652
G3 X26.822 Y17.336 I0.056 J-0.158
X26.932 Y17.515 I-0.056 J0.158
G1 X26.928 Y17.541
X26.925 Y17.554
X26.92 Y17.567
X26.901 Y17.604
X26.885 Y17.622
X26.867 Y17.64
X26.854 Y17.65
X26.818 Y17.667
X26.79 Y17.676
X26.761 Y17.682
G3 X26.847 Y17.292 I0.053 J-0.193
G1 X26.801 Y17.279
G3 X26.854 Y17.651 I-0.086 J0.202
G1 X26.84 Y17.658
X26.814 Y17.671
X26.801 Y17.676
X26.761 Y17.682
X26.748 Y17.683
X26.709 Y17.678
X26.696 Y17.675
X26.683 Y17.67
X26.643 Y17.65
X26.63 Y17.637
X26.604 Y17.609
X26.596 Y17.599
X26.58 Y17.567
X26.576 Y17.554
X26.572 Y17.541
X26.56 Y17.462
X26.448 Y16.685
X22.36 Y-11.736 F5000
G3 X22.506 Y-12.46 I1.089 J-0.157
X23.108 Y-12.939 I0.943 J0.567 F1650
G1 X23.239 Y-12.977
X23.449 Y-13.04
X23.707 Y-13.149
X23.87 Y-13.232
X24.091 Y-13.36
X24.29 Y-13.489
X24.501 Y-13.631
X24.715 Y-13.78
X24.921 Y-13.94
X24.981 Y-13.991
X25.132 Y-14.134
X25.24 Y-14.237
X25.446 Y-14.401
X25.686 Y-14.562
X25.968 Y-14.72
X26.322 Y-14.883
X26.458 Y-14.932
X26.762 Y-15.007
X27.075 Y-15.015
X27.382 Y-14.955
X27.669 Y-14.83
X27.922 Y-14.646
X28.129 Y-14.412
G3 X28.507 Y-13.726 I-2.282 J1.706
X28.684 Y-12.969 I-2.66 J1.02 F5000
X24.626 Y-12.593 I-2.029 J0.188
X24.734 Y-13.462 I2.029 J-0.188
X25.131 Y-14.134 I1.921 J0.681 F1650
G1 X25.196 Y-14.201
X25.342 Y-14.367
X25.535 Y-14.622
X25.763 Y-14.962
X25.815 Y-15.043
X25.946 Y-15.253
X26.032 Y-15.376
X26.222 Y-15.545
X26.45 Y-15.657
X26.699 Y-15.704
X26.952 Y-15.683
X27.19 Y-15.595
X27.397 Y-15.447
X27.556 Y-15.249
G3 X27.675 Y-14.788 I-0.824 J0.459
X27.625 Y-14.49 I-0.926 J-0.002
X25.871 Y-14.495 I-0.876 J-0.3 F5000
X25.947 Y-15.253 I0.878 J-0.295 F1650
G1 X25.973 Y-15.296
X26.061 Y-15.464
X26.16 Y-15.674
X26.183 Y-15.728
X26.192 Y-15.754
X26.247 Y-15.893
X26.377 Y-16.029
X26.543 Y-16.119
X26.729 Y-16.152
X26.915 Y-16.127
X27.086 Y-16.046
X27.222 Y-15.916
X27.312 Y-15.751
G3 X27.309 Y-15.399 I-0.54 J0.171
X27.042 Y-15.076 I-0.555 J-0.187
X26.462 Y-15.078 I-0.288 J-0.51 F5000
X26.192 Y-15.753 I0.292 J-0.508 F1650
G1 X26.236 Y-15.884
X26.307 Y-16.158
X26.353 Y-16.301
X26.479 Y-16.427
X26.643 Y-16.496
X26.822 Y-16.497
X26.987 Y-16.431
X27.115 Y-16.307
X27.187 Y-16.144
X27.194 Y-16.099
X27.195 Y-16.053
G3 X26.751 Y-15.611 I-0.449 J-0.007
G1 X26.726 F5000
G3 X26.307 Y-16.158 I0.02 J-0.449 F1650
G1 X26.346 Y-16.305
X26.392 Y-16.515
X26.427 Y-16.661
X26.537 Y-16.757
X26.675 Y-16.806
X26.82 Y-16.8
X26.954 Y-16.74
X27.055 Y-16.636
X27.111 Y-16.501
X27.115 Y-16.442
X27.108 Y-16.384
G3 X26.392 Y-16.515 I-0.356 J-0.076
G1 X26.452 Y-16.834
X26.488 Y-16.98
X26.607 Y-17.06
X26.749 Y-17.083
X26.887 Y-17.042
X26.994 Y-16.947
X27.051 Y-16.815
X27.054 Y-16.769
X27.048 Y-16.723
G3 X26.452 Y-16.834 I-0.296 J-0.065
G1 X26.498 Y-17.081
X26.532 Y-17.227
X26.631 Y-17.295
X26.749 Y-17.314
X26.864 Y-17.281
X26.954 Y-17.201
X27 Y-17.091
X27.004 Y-17.049
G3 X26.734 Y-16.789 I-0.255 J0.005
X26.496 Y-17.081 I0.015 J-0.255
G1 X26.51 Y-17.147
X26.536 Y-17.314
X26.552 Y-17.388
X26.631 Y-17.461
X26.736 Y-17.49
X26.841 Y-17.467
X26.924 Y-17.398
X26.966 Y-17.298
X26.967 Y-17.271
X26.964 Y-17.245
G3 X26.537 Y-17.314 I-0.212 J-0.043
G1 X26.564 Y-17.491
X26.568 Y-17.515
X26.572 Y-17.541
X26.581 Y-17.569
X26.604 Y-17.595
X26.637 Y-17.608
X26.671 Y-17.605
X26.701 Y-17.588
X26.721 Y-17.559
X26.725 Y-17.525
X26.715 Y-17.492
X26.69 Y-17.467
X26.658 Y-17.455
X26.624 Y-17.459
X26.594 Y-17.477
X26.576 Y-17.507
X26.572 Y-17.541
X26.576 Y-17.554
X26.58 Y-17.567
X26.591 Y-17.588
X26.596 Y-17.599
X26.604 Y-17.609
X26.63 Y-17.637
X26.643 Y-17.65
X26.666 Y-17.66
X26.692 Y-17.671
X26.72 Y-17.678
X26.748 Y-17.683
G3 X26.719 Y-17.431 I-0.014 J0.126
X26.661 Y-17.453 I0.015 J-0.126
G1 X26.629 Y-17.484
X26.61 Y-17.525
X26.606 Y-17.569
X26.618 Y-17.613
X26.643 Y-17.65
X26.683 Y-17.67
X26.696 Y-17.675
X26.709 Y-17.678
X26.748 Y-17.683
X26.761 Y-17.682
X26.801 Y-17.676
X26.814 Y-17.671
X26.84 Y-17.658
X26.854 Y-17.65
X26.867 Y-17.64
X26.885 Y-17.622
X26.901 Y-17.604
X26.92 Y-17.567
X26.925 Y-17.554
X26.928 Y-17.541
X26.932 Y-17.515
X26.94 Y-17.391
X26.946 Y-16.73
X27.24 Y13.599 F5000
G3 X26.033 Y14.704 I-1.1 J0.01
X25.342 Y14.367 I0.107 J-1.095 F1650
G1 X25.196 Y14.201
X25.132 Y14.134
X24.981 Y13.991
X24.921 Y13.94
X24.711 Y13.777
X24.501 Y13.631
X24.29 Y13.489
X24.091 Y13.36
X23.87 Y13.232
X23.707 Y13.149
X23.449 Y13.04
X23.239 Y12.977
X23.029 Y12.916
X22.818 Y12.874
X22.608 Y12.835
X22.187 Y12.764
X21.977 Y12.736
X21.346 Y12.725
X19.874
X19.552 Y12.709
X19.192 Y12.662
X18.776 Y12.573
X18.319 Y12.436
X17.808 Y12.237
X17.267 Y11.974
X16.657 Y11.615
X16.028 Y11.174
X15.386 Y10.64
X14.723 Y9.993
X14.114 Y9.295
X13.558 Y8.555
X13.054 Y7.778
X12.601 Y6.97
X12.201 Y6.134
X11.855 Y5.275
X11.562 Y4.397
X11.323 Y3.502
X11.138 Y2.594
X11.007 Y1.678
X10.929 Y0.755
X10.907 Y-0.171
X10.942 Y-1.097
X11.031 Y-2.019
X11.173 Y-2.934
X11.368 Y-3.839
X11.615 Y-4.732
X11.914 Y-5.609
X12.264 Y-6.466
X12.666 Y-7.3
X13.116 Y-8.11
X13.612 Y-8.892
X14.153 Y-9.644
X14.735 Y-10.364
X15.358 Y-11.05
X16.021 Y-11.696
X16.722 Y-12.302
X16.875 Y-12.42
X17.151 Y-12.587
X17.456 Y-12.69
X17.776 Y-12.725
X21.346
X21.977 Y-12.736
X22.187 Y-12.764
X22.421 Y-12.803
X22.542 Y-12.816
X22.662 Y-12.821
X23.206 Y-12.828
X29.816 Y-12.911 F5000
X30.251 Y-12.916 F1650
G3 X30.6 Y-12.89 I0.025 J1.999
G1 X31.02 Y-12.806
X31.231 Y-12.77
X31.441 Y-12.741
X31.651 Y-12.731
X31.861 Y-12.725
X33.754
X34.215 Y-12.702
X34.585 Y-12.653
X34.985 Y-12.568
X35.446 Y-12.43
X35.943 Y-12.236
X36.514 Y-11.959
X37.1 Y-11.614
X37.743 Y-11.163
X38.429 Y-10.593
X39.092 Y-9.947
X39.705 Y-9.252
X40.27 Y-8.518
X40.787 Y-7.75
X41.256 Y-6.951
X41.676 Y-6.126
X42.048 Y-5.278
X42.372 Y-4.41
X42.647 Y-3.526
X42.873 Y-2.628
X43.05 Y-1.719
X43.176 Y-0.801
X43.25 Y0.122
X43.273 Y1.048
X43.244 Y1.974
X43.164 Y2.897
X43.035 Y3.814
X42.856 Y4.722
X42.626 Y5.62
X42.346 Y6.503
X42.018 Y7.368
X41.642 Y8.215
X41.219 Y9.039
X40.753 Y9.839
X40.244 Y10.613
X39.693 Y11.358
X39.101 Y12.07
X38.932 Y12.252
X38.703 Y12.452
X38.438 Y12.602
X38.149 Y12.694
X37.847 Y12.725
X34.417
G3 X33.657 Y12.546 I0.07 J-1.999
X32.488 Y10.788 I0.83 J-1.82 F5000
G1 X31.825 Y-10.664
G3 X32.995 Y-12.546 I1.999 J-0.062
X33.754 Y-12.725 I0.829 J1.82 F1650
G1 X37.119
X37.405 Y-12.711
X37.7 Y-12.672
X38.051 Y-12.597
X38.433 Y-12.482
X38.85 Y-12.32
X39.314 Y-12.095
X39.817 Y-11.799
X40.35 Y-11.424
X40.935 Y-10.939
X41.552 Y-10.336
X42.161 Y-9.639
X42.714 Y-8.896
X43.214 Y-8.116
X43.663 Y-7.306
X44.064 Y-6.471
X44.419 Y-5.615
X44.728 Y-4.742
X44.992 Y-3.855
X45.212 Y-2.955
X45.386 Y-2.045
X45.515 Y-1.128
X45.597 Y-0.206
X45.633 Y0.72
X45.624 Y1.646
X45.571 Y2.571
X45.473 Y3.492
X45.332 Y4.407
X45.147 Y5.315
X44.917 Y6.212
X44.643 Y7.096
X44.325 Y7.967
X43.966 Y8.82
X43.567 Y9.656
X43.128 Y10.472
X42.651 Y11.265
X42.136 Y12.036
X42.05 Y12.148
X41.866 Y12.346
X41.649 Y12.508
X41.406 Y12.627
X41.146 Y12.7
X40.876 Y12.725
X37.847
G3 X37.087 Y12.546 I0.069 J-1.999
X35.917 Y10.794 I0.829 J-1.82 F5000
G1 X35.19 Y-10.658
G3 X36.36 Y-12.546 I1.999 J-0.068
X37.119 Y-12.725 I0.829 J1.82 F1650
G1 X40.063
X40.263 Y-12.715
X40.556 Y-12.677
X40.868 Y-12.61
X41.212 Y-12.507
X41.608 Y-12.352
X42.008 Y-12.159
X42.471 Y-11.886
X42.941 Y-11.556
X43.457 Y-11.128
X44.011 Y-10.587
X44.583 Y-9.931
X45.134 Y-9.187
X45.498 Y-8.608
X45.623 Y-8.361
X45.699 Y-8.095
X45.725 Y-7.819
G3 X42.486 Y-6.319 I-1.999 J-0.07
G1 X40.507 Y-7.883
X38.894 Y-9.157
G3 X40.063 Y-12.724 I1.239 J-1.569
G1 X42.797 Y-12.725
X42.978 Y-12.716
X43.249 Y-12.68
X43.538 Y-12.619
X43.881 Y-12.516
X44.226 Y-12.382
X44.622 Y-12.189
X45.038 Y-11.945
X45.095 Y-11.904
X45.309 Y-11.721
X45.485 Y-11.5
X45.616 Y-11.25
X45.697 Y-10.979
X45.725 Y-10.699
G3 X45.622 Y-9.921 I-3.857 J-0.117
X45.041 Y-8.62 I-3.754 J-0.895 F5000
X40.737 Y-11.599 I-2.152 J-1.49
X42.028 Y-12.581 I2.152 J1.489
X42.797 Y-12.725 I0.861 J2.471 F1650
G1 X43.639
X43.849 Y-12.722
X44.269 Y-12.711
X44.48 Y-12.699
X44.795 Y-12.658
X44.808 Y-12.656
X44.822 Y-12.651
X45.098 Y-12.536
X45.337 Y-12.353
X45.354 Y-12.337
X45.531 Y-12.105
X45.536 Y-12.097
X45.646 Y-11.834
X45.656 Y-11.808
X45.673 Y-11.677
X45.697 Y-11.466
X45.724 Y-10.835
X45.725 Y-10.414
Y8.1
X45.689 Y8.828
X45.618 Y9.367
X45.481 Y10.009
X45.258 Y10.75
X45.004 Y11.404
X44.754 Y11.919
X44.709 Y11.995
X44.527 Y12.242
X44.297 Y12.446
X44.03 Y12.599
X43.738 Y12.693
X43.432 Y12.725
G3 X42.673 Y12.546 I0.07 J-1.999
X41.51 Y10.552 I0.829 J-1.82 F5000
G1 X41.734 Y7.995
G3 X45.546 Y7.341 I1.992 J0.175
X45.725 Y8.1 I-1.82 J0.829 F1650
G1 Y10.625
X45.724 Y10.835
X45.697 Y11.466
X45.673 Y11.677
X45.656 Y11.808
X45.624 Y11.887
X45.536 Y12.097
X45.531 Y12.105
X45.354 Y12.337
X45.337 Y12.353
X45.098 Y12.536
X44.822 Y12.651
X44.808 Y12.656
X44.795 Y12.658
X44.48 Y12.699
X44.269 Y12.711
X43.849 Y12.722
X43.639 Y12.725
X40.876
G3 X40.117 Y12.546 I0.07 J-1.999
X39.23 Y11.753 I0.829 J-1.82 F5000
G1 X25.14 Y-11.792
G3 X27.643 Y-14.658 I1.716 J-1.027
X28.287 Y-14.217 I-0.787 J1.839 F1650
G1 X28.3 Y-14.201
X28.497 Y-14.018
X28.527 Y-13.991
X28.707 Y-13.834
X28.917 Y-13.688
X29.093 Y-13.57
X29.548 Y-13.289
X29.758 Y-13.164
G3 X30.32 Y-12.622 I-1.081 J1.683
X30.535 Y-10.739 I-1.643 J1.141 F5000
G1 X21.661 Y11.468
G3 X20.633 Y12.546 I-1.857 J-0.742
X19.874 Y12.725 I-0.829 J-1.82 F1650
G1 X16.719
X16.355 Y12.707
X16.062 Y12.668
X15.712 Y12.593
X15.341 Y12.482
X14.931 Y12.323
X14.482 Y12.104
X13.996 Y11.819
X13.485 Y11.46
X12.924 Y10.994
X12.343 Y10.427
X11.761 Y9.76
X11.21 Y9.016
X10.717 Y8.232
X10.277 Y7.417
X9.89 Y6.576
X9.553 Y5.713
X9.265 Y4.833
X9.025 Y3.938
X8.835 Y3.031
X8.695 Y2.116
X8.604 Y1.194
X8.562 Y0.269
X8.568 Y-0.657
X8.621 Y-1.582
X8.72 Y-2.503
X8.866 Y-3.417
X9.06 Y-4.323
X9.3 Y-5.217
X9.586 Y-6.098
X9.918 Y-6.963
X10.293 Y-7.81
X10.71 Y-8.637
X11.168 Y-9.442
X11.665 Y-10.223
X12.203 Y-10.977
X12.779 Y-11.703
X13.237 Y-12.223
X13.468 Y-12.435
X13.739 Y-12.594
X14.037 Y-12.692
X14.349 Y-12.725
X17.776
G3 X18.536 Y-12.546 I-0.069 J1.999
X19.704 Y-10.628 I-0.829 J1.82 F5000
G1 X18.647 Y10.825
G3 X17.479 Y12.546 I-1.997 J-0.099
X16.719 Y12.725 I-0.829 J-1.82 F1650
G1 X13.775
X13.537 Y12.713
X13.246 Y12.675
X12.949 Y12.611
X12.606 Y12.509
X12.231 Y12.363
X11.835 Y12.17
X11.392 Y11.91
X10.933 Y11.587
X10.443 Y11.18
X9.913 Y10.663
X9.377 Y10.048
X8.832 Y9.313
X8.343 Y8.526
X7.911 Y7.707
X7.531 Y6.862
X7.202 Y5.997
X6.921 Y5.114
X6.687 Y4.218
X6.498 Y3.311
X6.354 Y2.396
X6.256 Y1.476
X6.202 Y0.551
X6.192 Y-0.375
X6.224 Y-1.301
X6.298 Y-2.224
X6.415 Y-3.143
X6.572 Y-4.055
X6.771 Y-4.96
X7.011 Y-5.855
X7.293 Y-6.737
X7.615 Y-7.605
X7.975 Y-8.458
X8.373 Y-9.295
X8.809 Y-10.112
X9.28 Y-10.91
X9.786 Y-11.685
X10.099 Y-12.115
X10.284 Y-12.324
X10.504 Y-12.495
X10.752 Y-12.621
X11.02 Y-12.699
X11.297 Y-12.725
X14.349
G3 X15.108 Y-12.546 I-0.07 J1.999
X16.278 Y-10.673 I-0.829 J1.82 F5000
G1 X15.705 Y10.78
G3 X14.535 Y12.547 I-2 J-0.054
X13.775 Y12.726 I-0.83 J-1.821 F1650
G1 X11.041 Y12.725
X10.869 Y12.716
X10.61 Y12.682
X10.321 Y12.621
X9.989 Y12.521
X9.654 Y12.391
X9.259 Y12.199
X8.866 Y11.968
X8.416 Y11.651
X7.971 Y11.282
X7.478 Y10.801
X6.964 Y10.212
X6.451 Y9.518
X5.961 Y8.732
X5.532 Y7.911
X5.158 Y7.064
X4.834 Y6.196
X4.558 Y5.312
X4.327 Y4.415
X4.14 Y3.508
X3.995 Y2.593
X3.892 Y1.673
X3.83 Y0.749
X3.808 Y-0.177
X3.826 Y-1.103
X3.883 Y-2.027
X3.978 Y-2.949
X4.111 Y-3.865
X4.28 Y-4.776
X4.487 Y-5.679
X4.731 Y-6.572
X5.011 Y-7.455
X5.327 Y-8.325
X5.679 Y-9.182
X6.065 Y-10.024
X6.485 Y-10.85
X6.938 Y-11.658
X7.187 Y-12.045
X7.371 Y-12.277
X7.597 Y-12.467
X7.857 Y-12.608
X8.139 Y-12.696
X8.433 Y-12.725
X11.297
G3 X12.057 Y-12.546 I-0.069 J1.999
X13.228 Y-10.702 I-0.829 J1.82 F5000
G1 X12.971 Y10.75
G3 X11.801 Y12.546 I-2 J-0.024
X11.041 Y12.725 I-0.83 J-1.82 F1650
G1 X8.517
X8.298 Y12.714
X8.054 Y12.682
X7.766 Y12.62
X7.46 Y12.529
X7.126 Y12.399
X6.752 Y12.217
X6.373 Y11.994
X5.942 Y11.691
X5.51 Y11.333
X5.044 Y10.878
X4.549 Y10.311
X4.052 Y9.64
X3.563 Y8.853
X3.136 Y8.031
X2.766 Y7.182
X2.447 Y6.313
X2.176 Y5.427
X1.949 Y4.529
X1.764 Y3.622
X1.619 Y2.707
X1.514 Y1.787
X1.447 Y0.863
X1.418 Y-0.063
X1.426 Y-0.989
X1.47 Y-1.914
X1.55 Y-2.837
X1.664 Y-3.756
X1.813 Y-4.67
X1.996 Y-5.578
X2.212 Y-6.479
X2.461 Y-7.371
X2.743 Y-8.253
X3.057 Y-9.124
X3.404 Y-9.983
X3.782 Y-10.828
X4.197 Y-11.656
X4.529 Y-12.207
X4.619 Y-12.333
X4.7 Y-12.435
X4.788 Y-12.529
X4.885 Y-12.616
X4.942 Y-12.662
X4.995 Y-12.711
X5.008 Y-12.721
X5.021 Y-12.725
X8.433
G3 X9.193 Y-12.546 I-0.07 J1.999
X10.363 Y-10.734 I-0.83 J1.82 F5000
G1 X10.448 Y10.718
G3 X9.277 Y12.546 I-2 J0.008
X8.517 Y12.725 I-0.829 J-1.82 F1650
G1 X5.994
X5.797 Y12.715
X5.554 Y12.683
X5.267 Y12.622
X4.977 Y12.535
X4.771 Y12.455
X4.668 Y12.41
X4.569 Y12.358
X4.474 Y12.298
G3 X3.549 Y9.613 I1.476 J-2.01
X8.267 Y10.938 I2.359 J0.663
X5.994 Y12.725 I-2.359 J-0.662
G1 X5.021
X5.008 Y12.721
X4.995 Y12.711
X4.942 Y12.662
X4.766 Y12.518
X4.522 Y12.331
X3.871 Y11.887
X3.346 Y11.508
X2.911 Y11.137
X2.483 Y10.708
X2.02 Y10.163
X1.537 Y9.492
X1.058 Y8.699
X0.643 Y7.871
X0.286 Y7.017
X-0.02 Y6.143
X-0.278 Y5.253
X-0.492 Y4.352
X-0.665 Y3.442
X-0.798 Y2.526
X-0.895 Y1.605
X-0.955 Y0.68
X-0.98 Y-0.245
X-0.971 Y-1.172
X-0.928 Y-2.097
X-0.853 Y-3.02
X-0.745 Y-3.94
X-0.605 Y-4.855
X-0.433 Y-5.765
X-0.23 Y-6.669
X0.003 Y-7.565
X0.267 Y-8.453
X0.561 Y-9.331
X0.843 Y-10.088
X0.96 Y-10.331
X1.12 Y-10.55
X1.317 Y-10.736
X1.544 Y-10.883
X1.794 Y-10.986
X2.419 Y-11.178
X2.637 Y-11.256
X3.049 Y-11.405
X3.196 Y-11.466
X3.26 Y-11.498
X3.47 Y-11.628
X3.871 Y-11.887
X4.522 Y-12.331
X4.766 Y-12.518
X4.885 Y-12.616
G3 X5.579 Y-12.505 I0.294 J0.387
X5.665 Y-12.208 I-0.4 J0.276 F5000
G1 X4.605 Y11.493
X4.597 Y11.565
X4.577 Y11.634
X4.548 Y11.701
G3 X3.871 Y11.887 I-0.427 J-0.23 F1650
G1 X3.47 Y11.628
X3.26 Y11.498
X3.196 Y11.466
X3.049 Y11.405
X2.629 Y11.253
X2.419 Y11.178
X1.788 Y10.984
X1.577 Y10.926
X1.432 Y10.88
X1.195 Y10.784
X0.929 Y10.649
X0.626 Y10.464
X0.323 Y10.244
X-0.026 Y9.945
X-0.373 Y9.595
X-0.758 Y9.138
X-1.15 Y8.59
X-1.553 Y7.918
X-1.964 Y7.088
X-2.308 Y6.228
X-2.593 Y5.347
X-2.827 Y4.451
X-3.015 Y3.544
X-3.162 Y2.629
X-3.269 Y1.709
X-3.34 Y0.786
X-3.377 Y-0.14
X-3.379 Y-1.066
X-3.349 Y-1.991
X-3.287 Y-2.916
X-3.194 Y-3.837
X-3.07 Y-4.755
X-2.917 Y-5.668
X-2.736 Y-6.577
X-2.525 Y-7.478
X-2.286 Y-8.373
X-2.016 Y-9.259
X-1.783 Y-9.852
X-1.74 Y-9.94
X-1.591 Y-10.182
X-1.398 Y-10.392
X-1.169 Y-10.561
X-0.912 Y-10.683
X-0.635 Y-10.754
X-0.351 Y-10.77
X-0.315 Y-10.768
X0.315
X0.526 Y-10.777
X0.946 Y-10.796
X1.157 Y-10.818
X1.23 Y-10.835
X1.577 Y-10.926
X1.794 Y-10.986
G3 X2.573 Y-11.039 I0.523 J1.931
X4.317 Y-9.022 I-0.256 J1.984 F5000
G1 X4.018 Y9.009
G3 X2.357 Y10.947 I-2 J-0.033
X1.577 Y10.927 I-0.339 J-1.971 F1650
G1 X1.23 Y10.835
X1.157 Y10.818
X0.946 Y10.796
X0.526 Y10.777
X0.315 Y10.768
X0.105
X-0.178 Y10.754
X-0.37 Y10.729
X-0.599 Y10.68
X-0.834 Y10.61
X-1.099 Y10.507
X-1.393 Y10.364
X-1.689 Y10.189
X-2.034 Y9.948
X-2.368 Y9.67
X-2.745 Y9.302
X-3.113 Y8.88
X-3.512 Y8.341
X-3.918 Y7.688
X-4.318 Y6.914
X-4.675 Y6.06
X-4.97 Y5.182
X-5.211 Y4.287
X-5.403 Y3.381
X-5.553 Y2.467
X-5.663 Y1.548
X-5.736 Y0.624
X-5.774 Y-0.301
X-5.78 Y-1.227
X-5.754 Y-2.153
X-5.698 Y-3.077
X-5.612 Y-4
X-5.497 Y-4.919
X-5.353 Y-5.834
X-5.182 Y-6.744
X-4.983 Y-7.648
X-4.75 Y-8.545
X-4.522 Y-9.241
X-4.3 Y-9.772
X-4.08 Y-10.198
X-3.854 Y-10.561
X-3.839 Y-10.581
X-3.634 Y-10.805
X-3.388 Y-10.983
X-3.11 Y-11.106
X-2.813 Y-11.171
X-2.509 Y-11.174
X-2.212 Y-11.114
X-1.788 Y-10.984
X-1.577 Y-10.926
X-1.23 Y-10.835
X-1.157 Y-10.818
X-0.946 Y-10.796
X-0.526 Y-10.777
X-0.351 Y-10.77
G3 X0.401 Y-10.562 I-0.148 J1.995
X1.501 Y-8.836 I-0.9 J1.787 F5000
G1 X2.034 Y8.709
G3 X0.865 Y10.59 I-1.999 J0.061
X0.105 Y10.769 I-0.83 J-1.82 F1650
G1 X-0.315 Y10.768
X-0.526 Y10.777
X-0.946 Y10.796
X-1.157 Y10.818
X-1.23 Y10.835
X-1.367 Y10.871
X-1.582 Y10.916
X-1.74 Y10.936
X-1.929 Y10.945
X-2.126 Y10.939
X-2.359 Y10.912
X-2.6 Y10.865
X-2.874 Y10.787
X-3.167 Y10.679
X-3.479 Y10.534
X-3.823 Y10.339
X-4.172 Y10.102
X-4.558 Y9.791
X-4.941 Y9.43
X-5.349 Y8.977
X-5.772 Y8.425
X-6.183 Y7.788
X-6.602 Y7.006
X-6.973 Y6.158
X-7.283 Y5.285
X-7.538 Y4.395
X-7.745 Y3.492
X-7.908 Y2.58
X-8.031 Y1.662
X-8.117 Y0.74
X-8.168 Y-0.185
X-8.187 Y-1.111
X-8.174 Y-2.037
X-8.131 Y-2.962
X-8.06 Y-3.885
X-7.96 Y-4.806
X-7.833 Y-5.724
X-7.678 Y-6.637
X-7.492 Y-7.544
X-7.266 Y-8.442
X-6.985 Y-9.325
X-6.728 Y-9.962
X-6.485 Y-10.445
X-6.229 Y-10.868
X-5.986 Y-11.205
X-5.721 Y-11.516
X-5.615 Y-11.622
X-5.353 Y-11.83
X-5.05 Y-11.974
X-4.723 Y-12.047
X-4.387 Y-12.044
X-4.061 Y-11.966
X-3.761 Y-11.816
X-3.47 Y-11.628
X-3.26 Y-11.498
X-3.196 Y-11.466
X-3.049 Y-11.405
X-2.629 Y-11.253
X-2.419 Y-11.178
X-2.212 Y-11.114
G3 X-1.539 Y-10.719 I-0.655 J1.889
X-0.871 Y-9.327 I-1.328 J1.494 F5000
G1 X0.054 Y8.854
G3 X-0.678 Y10.505 I-1.997 J0.102
X-1.367 Y10.871 I-1.265 J-1.549 F1650
G1 X-1.577 Y10.926
X-1.788 Y10.984
X-2.419 Y11.178
X-2.637 Y11.256
X-2.955 Y11.371
X-3.098 Y11.415
X-3.265 Y11.451
X-3.462 Y11.477
X-3.676 Y11.489
X-3.917 Y11.482
X-4.178 Y11.454
X-4.464 Y11.4
X-4.775 Y11.314
X-5.107 Y11.193
X-5.466 Y11.029
X-5.844 Y10.818
X-6.24 Y10.553
X-6.664 Y10.217
X-7.087 Y9.822
X-7.546 Y9.319
X-7.989 Y8.749
X-8.441 Y8.058
X-8.884 Y7.245
X-9.262 Y6.399
X-9.582 Y5.53
X-9.85 Y4.644
X-10.071 Y3.744
X-10.249 Y2.835
X-10.388 Y1.92
X-10.49 Y0.999
X-10.557 Y0.076
X-10.592 Y-0.85
X-10.595 Y-1.776
X-10.569 Y-2.702
X-10.515 Y-3.627
X-10.434 Y-4.549
X-10.325 Y-5.469
X-10.187 Y-6.385
X-10.018 Y-7.295
X-9.812 Y-8.198
X-9.56 Y-9.09
X-9.249 Y-9.962
X-8.914 Y-10.713
X-8.599 Y-11.29
X-8.284 Y-11.77
X-7.996 Y-12.141
X-7.902 Y-12.244
X-7.672 Y-12.447
X-7.406 Y-12.599
X-7.114 Y-12.693
X-6.809 Y-12.725
X-5.021
X-5.008 Y-12.721
X-4.995 Y-12.711
X-4.942 Y-12.662
X-4.766 Y-12.518
X-4.522 Y-12.331
X-3.871 Y-11.887
X-3.761 Y-11.816
G3 X-3.221 Y-11.253 I-1.147 J1.639
X-2.911 Y-10.3 I-1.687 J1.076 F5000
G1 X-1.704 Y9.393
G3 X-2.301 Y10.945 I-1.997 J0.122
X-2.954 Y11.372 I-1.4 J-1.43 F1650
G1 X-3.049 Y11.405
X-3.196 Y11.466
X-3.26 Y11.498
X-3.47 Y11.628
X-3.871 Y11.887
X-4.006 Y11.979
X-4.134 Y12.058
X-4.28 Y12.127
X-4.44 Y12.188
X-4.631 Y12.244
X-4.834 Y12.286
X-5.074 Y12.316
X-5.325 Y12.327
X-5.617 Y12.316
X-5.918 Y12.281
X-6.26 Y12.212
X-6.613 Y12.112
X-7.005 Y11.965
X-7.414 Y11.773
X-7.842 Y11.529
X-8.31 Y11.209
X-8.764 Y10.843
X-9.263 Y10.368
X-9.76 Y9.813
X-10.252 Y9.167
X-10.751 Y8.387
X-11.187 Y7.57
X-11.565 Y6.724
X-11.889 Y5.856
X-12.166 Y4.973
X-12.398 Y4.076
X-12.589 Y3.17
X-12.742 Y2.256
X-12.859 Y1.338
X-12.942 Y0.415
X-12.993 Y-0.51
X-13.014 Y-1.436
X-13.005 Y-2.362
X-12.969 Y-3.287
X-12.906 Y-4.211
X-12.815 Y-5.133
X-12.696 Y-6.051
X-12.547 Y-6.966
X-12.364 Y-7.874
X-12.142 Y-8.773
X-11.873 Y-9.659
X-11.553 Y-10.528
X-11.181 Y-11.356
X-10.843 Y-11.972
X-10.787 Y-12.058
X-10.603 Y-12.285
X-10.378 Y-12.472
X-10.12 Y-12.611
X-9.841 Y-12.696
X-9.55 Y-12.725
X-6.809
G3 X-6.049 Y-12.546 I-0.069 J1.999
X-4.884 Y-10.886 I-0.829 J1.82 F5000
G1 X-3.196 Y10.208
G3 X-3.479 Y11.404 I-1.994 J0.159
X-4.006 Y11.98 I-1.711 J-1.037 F1650
G1 X-4.522 Y12.331
X-4.766 Y12.518
X-4.942 Y12.662
X-4.995 Y12.711
X-5.008 Y12.721
X-5.021 Y12.725
X-7.676
X-8.005 Y12.709
X-8.306 Y12.669
X-8.616 Y12.603
X-8.971 Y12.497
X-9.34 Y12.353
X-9.75 Y12.154
X-10.169 Y11.907
X-10.638 Y11.577
X-11.097 Y11.196
X-11.601 Y10.705
X-12.113 Y10.118
X-12.622 Y9.43
X-13.111 Y8.644
X-13.54 Y7.823
X-13.914 Y6.976
X-14.239 Y6.108
X-14.518 Y5.225
X-14.754 Y4.33
X-14.952 Y3.425
X-15.113 Y2.513
X-15.24 Y1.596
X-15.334 Y0.674
X-15.398 Y-0.25
X-15.431 Y-1.175
X-15.436 Y-2.102
X-15.414 Y-3.027
X-15.365 Y-3.952
X-15.289 Y-4.875
X-15.185 Y-5.796
X-15.051 Y-6.712
X-14.886 Y-7.624
X-14.687 Y-8.528
X-14.45 Y-9.423
X-14.169 Y-10.306
X-13.841 Y-11.172
X-13.561 Y-11.766
X-13.439 Y-11.979
X-13.257 Y-12.232
X-13.027 Y-12.44
X-12.758 Y-12.596
X-12.462 Y-12.692
X-12.153 Y-12.725
X-9.55
G3 X-8.79 Y-12.546 I-0.069 J1.999
X-7.627 Y-10.9 I-0.829 J1.82 F5000
G1 X-5.754 Y10.552
G3 X-6.917 Y12.546 I-1.992 J0.174
X-7.676 Y12.725 I-0.829 J-1.82 F1650
G1 X-10.41
X-10.693 Y12.711
X-10.944 Y12.678
X-11.233 Y12.616
X-11.554 Y12.52
X-11.888 Y12.39
X-12.274 Y12.203
X-12.655 Y11.978
X-13.096 Y11.668
X-13.528 Y11.31
X-14.003 Y10.846
X-14.504 Y10.273
X-15.003 Y9.598
X-15.492 Y8.811
X-15.92 Y7.99
X-16.294 Y7.142
X-16.618 Y6.275
X-16.898 Y5.392
X-17.137 Y4.497
X-17.338 Y3.593
X-17.503 Y2.682
X-17.636 Y1.765
X-17.737 Y0.844
X-17.808 Y-0.079
X-17.851 Y-1.004
X-17.866 Y-1.93
X-17.854 Y-2.856
X-17.815 Y-3.782
X-17.749 Y-4.706
X-17.657 Y-5.627
X-17.535 Y-6.545
X-17.385 Y-7.459
X-17.203 Y-8.367
X-16.987 Y-9.268
X-16.736 Y-10.159
X-16.438 Y-11.036
X-16.183 Y-11.629
X-16.02 Y-11.937
X-15.84 Y-12.202
X-15.608 Y-12.423
X-15.333 Y-12.588
X-15.029 Y-12.69
X-14.71 Y-12.725
X-12.153
G3 X-11.394 Y-12.546 I-0.07 J1.999
X-10.23 Y-10.888 I-0.829 J1.82 F5000
G1 X-8.487 Y10.564
G3 X-9.651 Y12.546 I-1.993 J0.162
X-10.41 Y12.725 I-0.829 J-1.82 F1650
G1 X-12.934
X-13.227 Y12.71
X-13.469 Y12.679
X-13.757 Y12.617
X-14.052 Y12.529
X-14.386 Y12.398
X-14.747 Y12.223
X-15.127 Y12
X-15.546 Y11.706
X-15.976 Y11.349
X-16.431 Y10.904
X-16.919 Y10.345
X-17.417 Y9.672
X-17.906 Y8.886
X-18.333 Y8.064
X-18.705 Y7.216
X-19.027 Y6.348
X-19.306 Y5.464
X-19.544 Y4.569
X-19.746 Y3.665
X-19.913 Y2.754
X-20.047 Y1.838
X-20.152 Y0.918
X-20.228 Y-0.005
X-20.275 Y-0.93
X-20.296 Y-1.856
X-20.291 Y-2.782
X-20.259 Y-3.708
X-20.201 Y-4.632
X-20.116 Y-5.555
X-20.004 Y-6.474
X-19.864 Y-7.389
X-19.695 Y-8.3
X-19.495 Y-9.204
X-19.26 Y-10.1
X-18.977 Y-10.982
X-18.737 Y-11.565
X-18.561 Y-11.913
X-18.383 Y-12.186
X-18.149 Y-12.413
X-17.871 Y-12.583
X-17.563 Y-12.689
X-17.24 Y-12.725
X-14.71
G3 X-13.951 Y-12.546 I-0.07 J1.999
X-12.787 Y-10.891 I-0.829 J1.82 F5000
G1 X-11.01 Y10.561
G3 X-12.174 Y12.547 I-1.994 J0.165
X-12.934 Y12.726 I-0.83 J-1.821 F1650
G1 X-15.458 Y12.725
X-15.703 Y12.713
X-15.946 Y12.681
X-16.23 Y12.62
X-16.517 Y12.534
X-16.851 Y12.404
X-17.201 Y12.235
X-17.58 Y12.011
X-17.989 Y11.724
X-18.416 Y11.369
X-18.863 Y10.933
X-19.343 Y10.383
X-19.836 Y9.716
X-20.326 Y8.93
X-20.752 Y8.107
X-21.123 Y7.259
X-21.444 Y6.39
X-21.722 Y5.507
X-21.96 Y4.612
X-22.162 Y3.708
X-22.33 Y2.797
X-22.466 Y1.881
X-22.573 Y0.961
X-22.652 Y0.038
X-22.703 Y-0.887
X-22.729 Y-1.813
X-22.728 Y-2.739
X-22.702 Y-3.665
X-22.651 Y-4.589
X-22.573 Y-5.512
X-22.469 Y-6.433
X-22.338 Y-7.35
X-22.18 Y-8.262
X-21.99 Y-9.169
X-21.765 Y-10.067
X-21.492 Y-10.952
X-21.262 Y-11.53
X-21.08 Y-11.9
X-20.902 Y-12.176
X-20.668 Y-12.407
X-20.389 Y-12.581
X-20.078 Y-12.689
X-19.752 Y-12.725
X-17.24
G3 X-16.48 Y-12.546 I-0.069 J1.999
X-15.316 Y-10.892 I-0.829 J1.82 F5000
G1 X-13.534 Y10.561
G3 X-14.698 Y12.546 I-1.993 J0.165
X-15.458 Y12.725 I-0.829 J-1.82 F1650
G1 X-17.981
X-18.158 Y12.716
X-18.4 Y12.684
X-18.681 Y12.624
X-18.966 Y12.539
X-19.3 Y12.409
X-19.642 Y12.243
X-20.022 Y12.019
X-20.424 Y11.736
X-20.851 Y11.382
X-21.292 Y10.952
X-21.768 Y10.406
X-22.259 Y9.743
X-22.748 Y8.957
X-23.174 Y8.134
X-23.544 Y7.285
X-23.865 Y6.416
X-24.143 Y5.533
X-24.381 Y4.638
X-24.583 Y3.734
X-24.751 Y2.823
X-24.889 Y1.907
X-24.998 Y0.988
X-25.079 Y0.065
X-25.134 Y-0.86
X-25.163 Y-1.785
X-25.167 Y-2.711
X-25.146 Y-3.637
X-25.1 Y-4.562
X-25.029 Y-5.486
X-24.932 Y-6.407
X-24.809 Y-7.325
X-24.659 Y-8.239
X-24.478 Y-9.147
X-24.26 Y-10.047
X-23.994 Y-10.934
X-23.77 Y-11.508
X-23.533 Y-11.997
X-23.515 Y-12.028
X-23.345 Y-12.261
X-23.134 Y-12.456
X-22.889 Y-12.607
X-22.619 Y-12.708
X-22.335 Y-12.755
X-22.048 Y-12.745
X-21.977 Y-12.736
X-21.346 Y-12.725
X-19.752
G3 X-18.992 Y-12.546 I-0.069 J1.999
X-17.828 Y-10.891 I-0.829 J1.82 F5000
G1 X-16.058 Y10.562
G3 X-17.222 Y12.546 I-1.993 J0.164
X-17.981 Y12.725 I-0.829 J-1.82 F1650
G1 X-20.295
X-20.609 Y12.709
X-20.851 Y12.677
X-21.129 Y12.618
X-21.412 Y12.533
X-21.746 Y12.403
X-22.084 Y12.239
X-22.463 Y12.016
X-22.861 Y11.737
X-23.287 Y11.383
X-23.724 Y10.957
X-24.196 Y10.415
X-24.685 Y9.754
X-25.175 Y8.968
X-25.6 Y8.145
X-25.97 Y7.296
X-26.291 Y6.427
X-26.568 Y5.544
X-26.806 Y4.649
X-27.008 Y3.745
X-27.178 Y2.834
X-27.317 Y1.919
X-27.427 Y0.999
X-27.51 Y0.077
X-27.568 Y-0.848
X-27.6 Y-1.773
X-27.607 Y-2.7
X-27.591 Y-3.626
X-27.549 Y-4.551
X-27.484 Y-5.475
X-27.393 Y-6.396
X-27.277 Y-7.315
X-27.133 Y-8.23
X-26.958 Y-9.14
X-26.746 Y-10.041
X-26.484 Y-10.93
X-26.253 Y-11.53
X-26.022 Y-12.014
X-25.795 Y-12.402
X-25.555 Y-12.748
X-25.533 Y-12.775
X-25.294 Y-13.007
X-25.008 Y-13.18
X-24.691 Y-13.284
X-24.359 Y-13.315
X-24.028 Y-13.271
X-23.716 Y-13.154
G3 X-23.12 Y-12.65 I-0.969 J1.749
X-22.722 Y-11.788 I-1.565 J1.245 F5000
G1 X-18.401 Y10.343
G3 X-19.535 Y12.546 I-1.963 J0.383
X-20.295 Y12.725 I-0.829 J-1.82 F1650
G1 X-21.346
X-21.977 Y12.736
X-22.187 Y12.764
X-22.398 Y12.799
X-22.547 Y12.817
X-22.752 Y12.822
X-22.98 Y12.808
X-23.226 Y12.774
X-23.515 Y12.709
X-23.807 Y12.62
X-24.147 Y12.484
X-24.497 Y12.31
X-24.883 Y12.079
X-25.291 Y11.787
X-25.725 Y11.421
X-26.169 Y10.98
X-26.649 Y10.421
X-27.144 Y9.74
X-27.627 Y8.949
X-28.048 Y8.124
X-28.414 Y7.273
X-28.731 Y6.403
X-29.006 Y5.519
X-29.242 Y4.623
X-29.444 Y3.719
X-29.612 Y2.808
X-29.751 Y1.893
X-29.862 Y0.973
X-29.946 Y0.051
X-30.005 Y-0.873
X-30.039 Y-1.799
X-30.049 Y-2.725
X-30.035 Y-3.651
X-29.998 Y-4.577
X-29.937 Y-5.501
X-29.851 Y-6.423
X-29.739 Y-7.342
X-29.599 Y-8.258
X-29.427 Y-9.168
X-29.218 Y-10.07
X-28.959 Y-10.959
X-28.663 Y-11.763
X-28.394 Y-12.344
X-28.138 Y-12.798
X-27.87 Y-13.195
X-27.617 Y-13.511
X-27.34 Y-13.806
X-27.077 Y-14.045
X-26.954 Y-14.139
X-26.7 Y-14.296
X-26.42 Y-14.399
X-26.124 Y-14.444
X-25.826 Y-14.428
X-25.536 Y-14.353
X-25.268 Y-14.222
X-25.031 Y-14.039
X-24.981 Y-13.991
X-24.921 Y-13.94
X-24.711 Y-13.777
X-24.501 Y-13.631
X-24.29 Y-13.489
X-24.091 Y-13.36
X-23.87 Y-13.232
X-23.716 Y-13.154
G3 X-23.12 Y-12.65 I-0.969 J1.749
X-22.692 Y-11.573 I-1.565 J1.245 F5000
G1 X-20.809 Y10.672
G3 X-21.679 Y12.495 I-1.992 J0.168
X-22.398 Y12.798 I-1.122 J-1.655 F1650
G1 X-22.608 Y12.835
X-22.818 Y12.874
X-23.029 Y12.916
X-23.239 Y12.977
X-23.449 Y13.04
X-23.707 Y13.149
X-23.845 Y13.208
X-23.992 Y13.253
X-24.173 Y13.293
X-24.366 Y13.32
X-24.591 Y13.333
X-24.839 Y13.327
X-25.109 Y13.299
X-25.414 Y13.242
X-25.732 Y13.156
X-26.096 Y13.026
X-26.462 Y12.86
X-26.885 Y12.626
X-27.3 Y12.351
X-27.768 Y11.983
X-28.24 Y11.547
X-28.729 Y11.015
X-29.244 Y10.357
X-29.754 Y9.584
X-30.203 Y8.774
X-30.598 Y7.936
X-30.943 Y7.077
X-31.245 Y6.201
X-31.506 Y5.312
X-31.731 Y4.414
X-31.923 Y3.508
X-32.084 Y2.596
X-32.216 Y1.679
X-32.321 Y0.759
X-32.4 Y-0.164
X-32.455 Y-1.088
X-32.485 Y-2.014
X-32.492 Y-2.94
X-32.476 Y-3.866
X-32.437 Y-4.792
X-32.374 Y-5.716
X-32.287 Y-6.638
X-32.174 Y-7.557
X-32.032 Y-8.472
X-31.856 Y-9.382
X-31.642 Y-10.283
X-31.383 Y-11.172
X-31.07 Y-12.043
X-30.988 Y-12.225
X-30.84 Y-12.483
X-30.644 Y-12.705
X-30.408 Y-12.885
X-30.14 Y-13.013
X-29.969 Y-13.075
X-29.758 Y-13.164
X-29.548 Y-13.289
X-29.093 Y-13.57
X-28.917 Y-13.688
X-28.707 Y-13.834
X-28.527 Y-13.991
X-28.497 Y-14.018
X-28.3 Y-14.201
X-28.286 Y-14.216
X-28.129 Y-14.412
X-27.866 Y-14.784
X-27.77 Y-14.905
X-27.652 Y-15.033
X-27.422 Y-15.203
X-27.161 Y-15.319
X-26.881 Y-15.377
X-26.596 Y-15.374
X-26.317 Y-15.31
X-26.059 Y-15.187
X-25.833 Y-15.012
X-25.65 Y-14.793
G3 X-25.441 Y-14.064 I-1.188 J0.735
G1 X-25.44 Y-14.047
G3 X-28.084 Y-14.041 I-1.322 J-0.011 F5000
X-27.867 Y-14.785 I1.322 J-0.017 F1650
G1 X-27.684 Y-15.043
X-27.655 Y-15.085
X-27.554 Y-15.253
X-27.445 Y-15.446
X-27.437 Y-15.464
X-27.367 Y-15.596
X-27.213 Y-15.759
X-27.019 Y-15.868
X-26.801 Y-15.916
X-26.578 Y-15.898
X-26.371 Y-15.814
X-26.197 Y-15.674
X-26.072 Y-15.488
G3 X-26.007 Y-15.189 I-0.728 J0.314
X-26.147 Y-14.741 I-0.744 J0.014
X-27.34 Y-14.72 I-0.604 J-0.434 F5000
X-27.437 Y-15.464 I0.589 J-0.455 F1650
G1 X-27.339 Y-15.674
X-27.265 Y-15.884
X-27.235 Y-15.973
X-27.185 Y-16.114
X-27.039 Y-16.247
X-26.855 Y-16.317
X-26.658 Y-16.315
X-26.475 Y-16.242
X-26.332 Y-16.107
X-26.248 Y-15.929
X-26.237 Y-15.848
X-26.241 Y-15.767
X-26.259 Y-15.687
G3 X-26.646 Y-15.346 I-0.483 J-0.158
G1 X-26.725 Y-15.337 F5000
X-26.804 Y-15.341
X-26.882 Y-15.357
G3 X-27.233 Y-15.972 I0.14 J-0.488 F1650
G1 X-27.199 Y-16.095
X-27.151 Y-16.305
X-27.144 Y-16.34
X-27.106 Y-16.485
X-26.988 Y-16.594
X-26.837 Y-16.651
X-26.676 Y-16.647
X-26.528 Y-16.584
X-26.414 Y-16.471
X-26.35 Y-16.323
X-26.344 Y-16.252
X-26.353 Y-16.182
G3 X-27.144 Y-16.34 I-0.393 J-0.091
G1 X-27.108 Y-16.515
X-27.081 Y-16.66
X-27.045 Y-16.806
X-26.919 Y-16.906
X-26.762 Y-16.94
X-26.606 Y-16.902
X-26.483 Y-16.799
X-26.418 Y-16.651
X-26.414 Y-16.6
X-26.419 Y-16.549
G3 X-27.081 Y-16.66 I-0.33 J-0.06
G1 X-27.028 Y-16.936
X-26.993 Y-17.082
X-26.886 Y-17.162
X-26.755 Y-17.187
X-26.626 Y-17.152
X-26.525 Y-17.065
X-26.473 Y-16.942
X-26.469 Y-16.897
G3 X-26.77 Y-16.614 I-0.281 J0.003
X-27.028 Y-16.936 I0.02 J-0.28
G1 X-26.99 Y-17.147
X-26.985 Y-17.182
X-26.969 Y-17.255
X-26.884 Y-17.339
X-26.77 Y-17.374
X-26.652 Y-17.351
X-26.56 Y-17.276
X-26.513 Y-17.166
X-26.512 Y-17.136
X-26.515 Y-17.107
G3 X-26.984 Y-17.182 I-0.233 J-0.046
G1 X-26.952 Y-17.389
X-26.936 Y-17.462
X-26.836 Y-17.539
X-26.71 Y-17.547
X-26.6 Y-17.483
X-26.545 Y-17.37
X-26.544 Y-17.344
X-26.548 Y-17.319
G3 X-26.951 Y-17.389 I-0.2 J-0.045
G1 X-26.928 Y-17.541
X-26.925 Y-17.554
X-26.92 Y-17.567
X-26.901 Y-17.604
X-26.885 Y-17.622
X-26.867 Y-17.64
X-26.854 Y-17.65
X-26.84 Y-17.658
X-26.814 Y-17.671
X-26.801 Y-17.676
X-26.761 Y-17.682
X-26.748 Y-17.683
X-26.709 Y-17.678
X-26.696 Y-17.675
X-26.683 Y-17.67
X-26.643 Y-17.65
X-26.63 Y-17.637
X-26.604 Y-17.609
X-26.596 Y-17.599
X-26.58 Y-17.567
X-26.576 Y-17.554
X-26.572 Y-17.541
X-26.568 Y-17.515
X-26.463 Y-16.737
X-22.694 Y11.132 F5000
G3 X-23.111 Y12.645 I-1.982 J0.268
X-23.707 Y13.149 I-1.565 J-1.245 F1650
G1 X-23.87 Y13.232
X-24.091 Y13.36
X-24.29 Y13.489
X-24.501 Y13.631
X-24.715 Y13.78
X-24.778 Y13.829
X-24.901 Y13.914
X-25.035 Y13.987
X-25.199 Y14.058
X-25.375 Y14.119
X-25.589 Y14.174
X-25.814 Y14.213
X-26.079 Y14.238
X-26.353 Y14.241
X-26.676 Y14.219
X-27.004 Y14.169
X-27.383 Y14.08
X-27.767 Y13.957
X-28.198 Y13.78
X-28.643 Y13.554
X-29.12 Y13.26
X-29.634 Y12.885
X-30.141 Y12.447
X-30.687 Y11.894
X-31.249 Y11.224
X-31.786 Y10.469
X-32.265 Y9.676
X-32.69 Y8.853
X-33.066 Y8.007
X-33.399 Y7.142
X-33.69 Y6.263
X-33.946 Y5.373
X-34.167 Y4.474
X-34.356 Y3.567
X-34.517 Y2.655
X-34.649 Y1.738
X-34.756 Y0.818
X-34.837 Y-0.104
X-34.894 Y-1.029
X-34.929 Y-1.954
X-34.94 Y-2.88
X-34.928 Y-3.807
X-34.894 Y-4.732
X-34.836 Y-5.656
X-34.754 Y-6.579
X-34.645 Y-7.499
X-34.509 Y-8.415
X-34.34 Y-9.326
X-34.138 Y-10.229
X-33.897 Y-11.124
X-33.683 Y-11.733
X-33.633 Y-11.845
X-33.493 Y-12.092
X-33.309 Y-12.309
X-33.087 Y-12.486
X-32.835 Y-12.617
X-32.562 Y-12.698
X-32.279 Y-12.725
X-31.861
X-31.651 Y-12.731
X-31.441 Y-12.741
X-31.231 Y-12.77
X-31.02 Y-12.806
X-30.6 Y-12.89
X-30.384 Y-12.939
X-30.179 Y-12.999
X-30.14 Y-13.013
G3 X-29.365 Y-13.103 I0.614 J1.903
X-27.548 Y-11.403 I-0.161 J1.993 F5000
G1 X-24.077 Y11.997
G3 X-24.286 Y13.223 I-1.979 J0.293
X-24.777 Y13.829 I-1.77 J-0.933 F1650
G1 X-24.921 Y13.94
X-24.981 Y13.991
X-25.132 Y14.134
X-25.196 Y14.201
X-25.342 Y14.367
X-25.464 Y14.527
X-25.583 Y14.67
X-25.689 Y14.777
X-25.803 Y14.875
X-25.942 Y14.975
X-26.096 Y15.068
X-26.118 Y15.079
X-26.398 Y15.185
X-26.694 Y15.233
X-26.993 Y15.22
X-27.284 Y15.147
X-27.553 Y15.017
X-27.792 Y14.836
X-27.989 Y14.61
G3 X-28.265 Y13.882 I1.492 J-0.981
G1 X-28.275 Y13.785 F5000
X-28.281 Y13.688
G3 X-26.676 Y12.088 I1.549 J-0.051
X-25.191 Y13.8 I-0.056 J1.549
X-25.464 Y14.527 I-1.541 J-0.163 F1650
G1 X-25.535 Y14.622
X-25.763 Y14.962
X-25.815 Y15.043
X-25.973 Y15.296
X-26.021 Y15.388
X-26.097 Y15.517
X-26.264 Y15.676
X-26.469 Y15.782
X-26.694 Y15.828
X-26.924 Y15.81
X-27.14 Y15.73
X-27.325 Y15.593
X-27.465 Y15.41
G3 X-27.459 Y14.655 I0.715 J-0.372
G1 X-27.455 Y14.647 F5000
G3 X-26.05 Y14.634 I0.706 J0.391
X-26.021 Y15.388 I-0.699 J0.404 F1650
G1 X-26.061 Y15.464
X-26.16 Y15.674
X-26.183 Y15.728
X-26.236 Y15.884
X-26.284 Y16.027
X-26.43 Y16.165
X-26.617 Y16.243
X-26.818 Y16.25
X-27.009 Y16.185
X-27.165 Y16.057
X-27.266 Y15.882
G3 X-27.264 Y15.599 I0.438 J-0.138
X-26.924 Y15.26 I0.507 J0.168
X-26.589 I0.167 J0.507 F5000
X-26.236 Y15.884 I-0.168 J0.507 F1650
G1 X-26.335 Y16.263
X-26.38 Y16.406
X-26.501 Y16.521
X-26.656 Y16.583
X-26.823 Y16.582
X-26.977 Y16.518
X-27.096 Y16.402
X-27.164 Y16.249
X-27.17 Y16.206
X-27.171 Y16.163
G3 X-26.698 Y15.75 I0.423 J0.007
X-26.335 Y16.262 I-0.05 J0.42
G1 X-26.346 Y16.305
X-26.393 Y16.522
X-26.405 Y16.584
X-26.44 Y16.73
X-26.544 Y16.825
X-26.676 Y16.874
X-26.817 Y16.87
X-26.946 Y16.812
X-27.043 Y16.711
X-27.096 Y16.58
X-27.099 Y16.527
X-27.095 Y16.474
G3 X-26.404 Y16.584 I0.345 J0.057
G1 X-26.459 Y16.87
X-26.494 Y17.016
X-26.605 Y17.102
X-26.741 Y17.13
X-26.877 Y17.096
X-26.983 Y17.006
X-27.039 Y16.878
X-27.043 Y16.83
G3 X-26.729 Y16.534 I0.293 J-0.004
X-26.461 Y16.87 I-0.021 J0.292
G1 X-26.51 Y17.147
X-26.525 Y17.22
X-26.615 Y17.302
X-26.733 Y17.333
X-26.852 Y17.308
X-26.946 Y17.231
X-26.995 Y17.12
X-26.996 Y17.087
X-26.991 Y17.054
G3 X-26.511 Y17.147 I0.237 J0.063
G1 X-26.538 Y17.322
X-26.553 Y17.395
X-26.629 Y17.472
X-26.732 Y17.503
X-26.837 Y17.483
X-26.921 Y17.416
X-26.963 Y17.317
Y17.264
G3 X-26.536 Y17.322 I0.213 J0.031
G1 X-26.568 Y17.515
X-26.572 Y17.541
X-26.576 Y17.554
X-26.584 Y17.574
G0 Z5
X-26.715 Y16.781
Z1.65
G1 Z-0.35 F1650
Z-2.35
G3 X-26.576 Y17.554 I-0.861 J0.554
G1 X-26.58 Y17.567
X-26.591 Y17.588
X-26.596 Y17.599
X-26.604 Y17.609
X-26.63 Y17.637
X-26.643 Y17.65
X-26.683 Y17.67
X-26.696 Y17.675
X-26.709 Y17.678
X-26.748 Y17.683
X-26.761 Y17.682
X-26.801 Y17.676
X-26.814 Y17.671
X-26.84 Y17.658
X-26.854 Y17.65
X-26.867 Y17.64
X-26.885 Y17.622
X-26.901 Y17.604
X-26.92 Y17.567
X-26.925 Y17.554
X-26.928 Y17.541
X-26.932 Y17.515
Y17.508
G2 X-26.969 Y16.794 I-4.103 J-0.143
G1 X-26.979 Y16.732
G2 X-27.07 Y16.39 I-1.971 J0.34 F5000
G1 X-27.367 Y15.571
G2 X-27.515 Y15.253 I-1.88 J0.682
G1 X-27.549 Y15.197 F1650
G2 X-27.978 Y14.625 I-3.486 J2.168
G1 X-27.98 Y14.622
X-28.129 Y14.412
X-28.286 Y14.216
X-28.3 Y14.201
X-28.497 Y14.018
X-28.527 Y13.991
X-28.707 Y13.834
X-28.917 Y13.688
X-29.093 Y13.57
X-29.548 Y13.289
X-29.758 Y13.164
X-29.969 Y13.075
X-30.179 Y12.999
X-30.389 Y12.937
X-30.6 Y12.89
X-30.81 Y12.848
X-31.193 Y12.751
X-31.456 Y12.662
X-31.743 Y12.538
X-32.074 Y12.362
X-32.409 Y12.148
X-32.796 Y11.855
X-33.187 Y11.505
X-33.623 Y11.047
X-34.086 Y10.476
X-34.563 Y9.779
X-35.023 Y8.975
X-35.424 Y8.14
X-35.773 Y7.282
X-36.077 Y6.407
X-36.341 Y5.52
X-36.57 Y4.622
X-36.765 Y3.717
X-36.931 Y2.806
X-37.069 Y1.89
X-37.181 Y0.97
X-37.268 Y0.048
X-37.331 Y-0.876
X-37.371 Y-1.801
X-37.389 Y-2.727
X-37.383 Y-3.653
X-37.355 Y-4.579
X-37.304 Y-5.504
X-37.228 Y-6.427
X-37.127 Y-7.347
X-37 Y-8.265
X-36.843 Y-9.178
X-36.654 Y-10.084
X-36.447 Y-10.873
X-36.249 Y-11.439
X-36.05 Y-11.887
X-36.015 Y-11.951
X-35.835 Y-12.212
X-35.603 Y-12.428
X-35.33 Y-12.591
X-35.029 Y-12.691
X-34.713 Y-12.725
X-32.279
G3 X-31.52 Y-12.546 I-0.07 J1.999
X-30.357 Y-10.898 I-0.829 J1.82 F5000
G1 X-28.494 Y10.703
G3 X-30.03 Y12.821 I-1.993 J0.171
X-30.81 Y12.848 I-0.457 J-1.947 F1650
G1 X-31.02 Y12.806
X-31.231 Y12.77
X-31.441 Y12.741
X-31.651 Y12.731
X-31.861 Y12.725
X-32.703
X-33.013 Y12.709
X-33.235 Y12.68
X-33.493 Y12.625
X-33.754 Y12.547
X-34.06 Y12.428
X-34.382 Y12.272
X-34.727 Y12.069
X-35.109 Y11.8
X-35.499 Y11.476
X-35.923 Y11.063
X-36.376 Y10.543
X-36.835 Y9.923
X-37.321 Y9.142
X-37.746 Y8.319
X-38.115 Y7.469
X-38.435 Y6.6
X-38.713 Y5.716
X-38.952 Y4.822
X-39.158 Y3.919
X-39.333 Y3.009
X-39.479 Y2.095
X-39.599 Y1.176
X-39.693 Y0.255
X-39.764 Y-0.669
X-39.811 Y-1.593
X-39.836 Y-2.519
X-39.837 Y-3.446
X-39.816 Y-4.371
X-39.773 Y-5.297
X-39.705 Y-6.22
X-39.614 Y-7.142
X-39.497 Y-8.061
X-39.351 Y-8.975
X-39.17 Y-9.884
X-38.945 Y-10.754
X-38.731 Y-11.372
X-38.519 Y-11.855
X-38.469 Y-11.946
X-38.289 Y-12.209
X-38.057 Y-12.426
X-37.784 Y-12.59
X-37.482 Y-12.691
X-37.165 Y-12.725
X-34.713
G3 X-33.954 Y-12.546 I-0.07 J1.999
X-32.792 Y-10.913 I-0.829 J1.82 F5000
G1 X-30.781 Y10.54
G3 X-31.943 Y12.546 I-1.991 J0.186
X-32.703 Y12.725 I-0.829 J-1.82 F1650
G1 X-35.016
X-35.337 Y12.709
X-35.579 Y12.677
X-35.836 Y12.622
X-36.119 Y12.538
X-36.439 Y12.413
X-36.761 Y12.256
X-37.139 Y12.034
X-37.51 Y11.774
X-37.932 Y11.423
X-38.349 Y11.016
X-38.806 Y10.493
X-39.285 Y9.845
X-39.774 Y9.059
X-40.199 Y8.236
X-40.568 Y7.386
X-40.889 Y6.517
X-41.166 Y5.633
X-41.405 Y4.739
X-41.61 Y3.835
X-41.784 Y2.926
X-41.93 Y2.011
X-42.049 Y1.093
X-42.143 Y0.171
X-42.213 Y-0.752
X-42.26 Y-1.677
X-42.284 Y-2.603
X-42.286 Y-3.529
X-42.266 Y-4.455
X-42.223 Y-5.38
X-42.158 Y-6.304
X-42.068 Y-7.226
X-41.952 Y-8.145
X-41.803 Y-9.059
X-41.614 Y-9.966
X-41.39 Y-10.805
X-41.175 Y-11.408
X-40.958 Y-11.892
X-40.923 Y-11.957
X-40.742 Y-12.216
X-40.51 Y-12.431
X-40.238 Y-12.592
X-39.938 Y-12.691
X-39.624 Y-12.725
X-37.165
G3 X-36.405 Y-12.546 I-0.07 J1.999
X-35.245 Y-10.926 I-0.83 J1.82 F5000
G1 X-33.096 Y10.527
G3 X-34.257 Y12.546 I-1.99 J0.199
X-35.016 Y12.725 I-0.829 J-1.82 F1650
G1 X-37.54
X-37.716 Y12.716
X-37.958 Y12.684
X-38.224 Y12.628
X-38.507 Y12.543
X-38.836 Y12.415
X-39.163 Y12.256
X-39.542 Y12.033
X-39.925 Y11.764
X-40.35 Y11.411
X-40.775 Y10.996
X-41.24 Y10.464
X-41.724 Y9.81
X-42.213 Y9.024
X-42.638 Y8.201
X-43.007 Y7.351
X-43.328 Y6.483
X-43.606 Y5.599
X-43.846 Y4.705
X-44.052 Y3.802
X-44.227 Y2.892
X-44.374 Y1.978
X-44.493 Y1.059
X-44.588 Y0.138
X-44.659 Y-0.786
X-44.707 Y-1.71
X-44.733 Y-2.636
X-44.737 Y-3.562
X-44.719 Y-4.488
X-44.679 Y-5.414
X-44.615 Y-6.338
X-44.526 Y-7.26
X-44.409 Y-8.178
X-44.258 Y-9.092
X-44.068 Y-9.999
X-43.841 Y-10.833
X-43.627 Y-11.43
X-43.409 Y-11.911
X-43.381 Y-11.962
X-43.199 Y-12.219
X-42.968 Y-12.433
X-42.697 Y-12.593
X-42.398 Y-12.692
X-42.085 Y-12.725
X-39.624
G3 X-38.864 Y-12.546 I-0.07 J1.999
X-37.703 Y-10.92 I-0.83 J1.82 F5000
G1 X-35.619 Y10.533
G3 X-36.78 Y12.546 I-1.99 J0.193
X-37.54 Y12.725 I-0.829 J-1.82 F1650
G1 X-39.853
X-40.129 Y12.711
X-40.371 Y12.679
X-40.641 Y12.622
X-40.924 Y12.537
X-41.255 Y12.408
X-41.584 Y12.248
X-41.964 Y12.025
X-42.351 Y11.752
X-42.777 Y11.399
X-43.206 Y10.981
X-43.673 Y10.446
X-44.159 Y9.789
X-44.648 Y9.002
X-45.074 Y8.18
X-45.444 Y7.331
X-45.633 Y6.819
X-45.684 Y6.652
X-45.715 Y6.48
X-45.725 Y6.305
G3 X-42.22 Y5.058 I1.999 J0.07
G1 X-40.407 Y7.133
X-38.417 Y9.41
G3 X-39.853 Y12.725 I-1.506 J1.316
G1 X-42.377
X-42.541 Y12.717
X-42.784 Y12.685
X-43.057 Y12.627
X-43.34 Y12.542
X-43.672 Y12.412
X-44.005 Y12.251
X-44.384 Y12.028
X-44.776 Y11.752
X-45.202 Y11.399
X-45.278 Y11.324
X-45.468 Y11.098
X-45.609 Y10.839
X-45.696 Y10.557
X-45.725 Y10.264
G3 X-44.912 Y7.924 I4.195 J0.146
X-40.051 Y11.497 I2.43 J1.787
X-42.377 Y12.726 I-2.431 J-1.786
G1 X-43.639 Y12.725
X-43.849 Y12.722
X-44.269 Y12.711
X-44.48 Y12.699
X-44.795 Y12.658
X-44.808 Y12.656
X-44.822 Y12.651
X-45.098 Y12.536
X-45.337 Y12.353
X-45.354 Y12.337
X-45.531 Y12.105
X-45.536 Y12.097
X-45.646 Y11.834
X-45.656 Y11.808
X-45.673 Y11.677
X-45.697 Y11.466
X-45.724 Y10.835
X-45.725 Y10.414
Y-9.993
X-45.689 Y-10.711
X-45.636 Y-11.115
X-45.563 Y-11.459
X-45.503 Y-11.659
X-45.383 Y-11.944
X-45.208 Y-12.199
X-44.983 Y-12.411
X-44.719 Y-12.572
X-44.427 Y-12.675
X-44.12 Y-12.715
G3 X-43.34 Y-12.632 I-0.041 J4.066
X-42.095 Y-12.152 I-0.821 J3.983 F5000
X-44.543 Y-8.002 I-1.224 J2.075
X-45.573 Y-9.226 I1.224 J-2.075
X-45.727 Y-9.993 I2.254 J-0.851 F1650
G1 X-45.725 Y-10.625
X-45.724 Y-10.835
X-45.697 Y-11.466
X-45.673 Y-11.677
X-45.656 Y-11.808
X-45.624 Y-11.887
X-45.536 Y-12.097
X-45.531 Y-12.105
X-45.354 Y-12.337
X-45.337 Y-12.353
X-45.098 Y-12.536
X-44.822 Y-12.651
X-44.808 Y-12.656
X-44.795 Y-12.658
X-44.48 Y-12.699
X-44.269 Y-12.711
X-43.849 Y-12.722
X-43.639 Y-12.725
X-42.085
X-41.981 Y-12.711 Z-2.343
X-41.88 Y-12.697 Z-2.322
X-41.782 Y-12.684 Z-2.288
X-41.689 Y-12.671 Z-2.241
X-41.61 Y-12.644 Z-2.183
X-41.538 Y-12.619 Z-2.116
X-41.475 Y-12.598 Z-2.039
X-41.422 Y-12.58 Z-1.954
X-41.38 Y-12.565 Z-1.862
X-41.35 Y-12.555 Z-1.766
X-41.331 Y-12.548 Z-1.666
X-41.325 Y-12.546 Z-1.565
G0 Z5
X10.415 Y11.732
Z1.9
G1 Z-0.1 F1650
X10.408 Y11.733 Z-0.274
X10.386 Y11.739 Z-0.447
X10.349 Y11.748 Z-0.618
X10.299 Y11.761 Z-0.784
X10.234 Y11.778 Z-0.945
X10.156 Y11.798 Z-1.1
X10.065 Y11.821 Z-1.247
X9.962 Y11.848 Z-1.386
X9.848 Y11.877 Z-1.514
X9.723 Y11.909 Z-1.632
X9.589 Y11.943 Z-1.738
X9.447 Y11.98 Z-1.832
X9.297 Y12.018 Z-1.913
X9.141 Y12.058 Z-1.979
X8.979 Y12.099 Z-2.032
X8.814 Y12.142 Z-2.07
X8.647 Y12.185 Z-2.092
X8.478 Y12.228 Z-2.1
G3 X5.021 Y12.725 I-4.023 J-15.705
G1 X5.008 Y12.721
X4.995 Y12.711
X4.966 Y12.684
X4.957 Y12.671
X4.954 Y12.655
G2 X4.896 Y11.905 I-4.957 J0.004
X3.791 Y9.47 I-4.899 J0.754 F5000
X2.259 Y8.757 I-1.531 J1.287
G1 X-2.269 Y8.759
G2 X-3.8 Y9.473 I0.001 J2
X-4.903 Y11.91 I3.797 J3.186
X-4.96 Y12.66 I4.9 J0.749 F1650
G1 X-4.959
X-4.962 Y12.676
X-4.971 Y12.689
X-4.995 Y12.711
X-5.008 Y12.721
X-5.021 Y12.725
G3 X-5.781 Y12.546 I0.07 J-1.999
X-6.951 Y10.726 I0.83 J-1.82 F5000
G1 Y-10.726
G3 X-5.781 Y-12.546 I2 J0
X-5.021 Y-12.725 I0.83 J1.82 F1650
G1 X-5.008 Y-12.721
X-4.995 Y-12.711
X-4.966 Y-12.684
X-4.957 Y-12.671
X-4.954 Y-12.655
G2 X-4.896 Y-11.905 I4.957 J-0.004
X-3.791 Y-9.47 I4.899 J-0.754 F5000
X-2.259 Y-8.757 I1.531 J-1.287
G1 X2.269 Y-8.759
G2 X3.8 Y-9.473 I-0.001 J-2
X4.903 Y-11.91 I-3.797 J-3.186
X4.96 Y-12.66 I-4.9 J-0.749 F1650
G1 X4.959
X4.962 Y-12.676
X4.971 Y-12.689
X4.995 Y-12.711
X5.008 Y-12.721
X5.021 Y-12.725
X5.124 Y-12.711 Z-2.093
X5.226 Y-12.697 Z-2.072
X5.324 Y-12.684 Z-2.038
X5.416 Y-12.671 Z-1.991
X5.496 Y-12.644 Z-1.933
X5.567 Y-12.619 Z-1.866
X5.63 Y-12.598 Z-1.789
X5.683 Y-12.58 Z-1.704
X5.725 Y-12.565 Z-1.612
X5.756 Y-12.555 Z-1.516
X5.774 Y-12.548 Z-1.416
X5.781 Y-12.546 Z-1.315
G0 Z5
X10.415 Y11.732
Z2.15
G1 Z0.15 F1650
X10.408 Y11.733 Z-0.024
X10.386 Y11.739 Z-0.197
X10.349 Y11.748 Z-0.368
X10.299 Y11.761 Z-0.534
X10.234 Y11.778 Z-0.695
X10.156 Y11.798 Z-0.85
X10.065 Y11.821 Z-0.997
X9.962 Y11.848 Z-1.136
X9.848 Y11.877 Z-1.264
X9.723 Y11.909 Z-1.382
X9.589 Y11.943 Z-1.488
X9.447 Y11.98 Z-1.582
X9.297 Y12.018 Z-1.663
X9.141 Y12.058 Z-1.729
X8.979 Y12.099 Z-1.782
X8.814 Y12.142 Z-1.82
X8.647 Y12.185 Z-1.842
X8.478 Y12.228 Z-1.85
G3 X5.021 Y12.725 I-4.023 J-15.705
G1 X5.008 Y12.721
X4.995 Y12.711
X4.966 Y12.684
X4.957 Y12.671
X4.954 Y12.655
G2 X4.896 Y11.905 I-4.957 J0.004
X3.792 Y9.47 I-4.899 J0.754 F5000
X2.26 Y8.757 I-1.531 J1.287
G1 X-2.269 Y8.759
G2 X-3.8 Y9.473 I0.001 J2
X-4.903 Y11.91 I3.797 J3.186
X-4.96 Y12.66 I4.9 J0.749 F1650
G1 X-4.959
X-4.962 Y12.676
X-4.971 Y12.689
X-4.995 Y12.711
X-5.008 Y12.721
X-5.021 Y12.725
G3 X-5.781 Y12.546 I0.07 J-1.999
X-6.951 Y10.726 I0.83 J-1.82 F5000
G1 Y-10.726
G3 X-5.781 Y-12.546 I2 J0
X-5.021 Y-12.725 I0.83 J1.82 F1650
G1 X-5.008 Y-12.721
X-4.995 Y-12.711
X-4.966 Y-12.684
X-4.957 Y-12.671
X-4.954 Y-12.655
G2 X-4.896 Y-11.905 I4.957 J-0.004
X-3.792 Y-9.47 I4.899 J-0.754 F5000
X-2.26 Y-8.757 I1.531 J-1.287
G1 X2.269 Y-8.759
G2 X3.8 Y-9.473 I-0.001 J-2
X4.903 Y-11.91 I-3.797 J-3.186
X4.96 Y-12.66 I-4.9 J-0.749 F1650
G1 X4.959
X4.962 Y-12.676
X4.971 Y-12.689
X4.995 Y-12.711
X5.008 Y-12.721
X5.021 Y-12.725
X5.124 Y-12.711 Z-1.843
X5.226 Y-12.697 Z-1.822
X5.324 Y-12.684 Z-1.788
X5.416 Y-12.671 Z-1.741
X5.496 Y-12.644 Z-1.683
X5.567 Y-12.619 Z-1.616
X5.63 Y-12.598 Z-1.539
X5.683 Y-12.58 Z-1.454
X5.725 Y-12.565 Z-1.362
X5.756 Y-12.555 Z-1.266
X5.774 Y-12.548 Z-1.166
X5.781 Y-12.546 Z-1.065
G0 Z5
X31.92 Y7.273
Z2.4
G1 Z0.4 F1650
X31.921 Y7.281 Z0.226
X31.927 Y7.303 Z0.053
X31.936 Y7.339 Z-0.117
X31.949 Y7.39 Z-0.284
X31.966 Y7.455 Z-0.445
X31.986 Y7.533 Z-0.6
X32.009 Y7.624 Z-0.747
X32.036 Y7.727 Z-0.885
X32.065 Y7.841 Z-1.014
X32.097 Y7.966 Z-1.132
X32.131 Y8.1 Z-1.238
X32.168 Y8.242 Z-1.332
X32.206 Y8.392 Z-1.412
X32.246 Y8.548 Z-1.479
X32.287 Y8.709 Z-1.532
X32.33 Y8.874 Z-1.569
X32.373 Y9.042 Z-1.592
X32.416 Y9.211 Z-1.6
G3 X32.913 Y12.668 I-15.705 J4.023
G1 Y12.818
X32.849 Y12.953
X32.741 Y13.121
X32.469 Y13.475
X31.849 Y14.163
X31.237 Y14.858
X30.738 Y15.639
X30.316 Y16.463
X29.947 Y17.169
X29.678 Y17.596
X29.436 Y17.919
X29.344 Y18.024
X29.112 Y18.236
X28.842 Y18.394
X28.544 Y18.492
X28.233 Y18.525
X26.909
X26.759 Y18.517
X26.611 Y18.492
X26.468 Y18.446
X26.332 Y18.383
X26.178 Y18.293
X25.859 Y18.072
X25.143 Y17.485
X24.424 Y16.902
X23.621 Y16.44
X22.758 Y16.103
X21.864 Y15.86
X20.955 Y15.686
X20.037 Y15.563
X19.115 Y15.475
X18.191 Y15.413
X17.265 Y15.369
X16.34 Y15.338
X15.414 Y15.316
X14.488 Y15.301
X13.562 Y15.29
X12.636 Y15.283
X11.709 Y15.278
X10.783 Y15.274
X8.931 Y15.269
X7.079 Y15.266
X6.505 Y15.231
X6.084 Y15.171
X5.57 Y15.055
X4.686 Y14.779
X3.823 Y14.443
X2.953 Y14.126
X2.057 Y13.889
X1.14 Y13.764
X0.214 Y13.774
X-0.697 Y13.941
X-1.579 Y14.224
X-2.457 Y14.521
X-3.354 Y14.748
X-4.267 Y14.905
X-5.187 Y15.013
X-6.11 Y15.089
X-7.035 Y15.142
X-7.96 Y15.179
X-8.886 Y15.204
X-9.812 Y15.222
X-10.738 Y15.235
X-11.664 Y15.244
X-12.59 Y15.25
X-13.517 Y15.255
X-15.369 Y15.26
X-18.147 Y15.263
X-19.074 Y15.264
X-19.999 Y15.289
X-20.911 Y15.453
X-21.726 Y15.893
X-22.397 Y16.531
X-22.996 Y17.238
X-23.538 Y17.874
X-23.755 Y18.091
X-23.979 Y18.275
X-24.236 Y18.412
X-24.513 Y18.497
X-24.802 Y18.525
X-26.604
X-26.754 Y18.517
X-26.901 Y18.491
X-27.043 Y18.443
X-27.179 Y18.378
X-27.337 Y18.284
X-27.749 Y17.994
X-28.461 Y17.402
X-29.191 Y16.832
X-30.004 Y16.388
X-30.872 Y16.066
X-31.769 Y15.833
X-32.68 Y15.667
X-33.598 Y15.549
X-34.521 Y15.465
X-35.445 Y15.406
X-36.37 Y15.364
X-37.296 Y15.335
X-38.222 Y15.314
X-39.148 Y15.299
X-40.074 Y15.289
X-41.926 Y15.274
X-42.852 Y15.25
X-43.522 Y15.188
X-44.011 Y15.103
X-44.464 Y14.986
X-44.829 Y14.86
X-45.183 Y14.704
X-45.48 Y14.544
X-45.753 Y14.368
X-46.007 Y14.173
X-46.218 Y13.982
X-46.42 Y13.767
X-46.612 Y13.528
X-46.815 Y13.228
X-47.015 Y12.874
X-47.226 Y12.419
X-47.448 Y11.819
X-47.679 Y10.994
X-47.857 Y10.085
X-47.98 Y9.167
X-48.066 Y8.245
X-48.126 Y7.321
X-48.167 Y6.396
X-48.196 Y5.47
X-48.217 Y4.544
X-48.231 Y3.618
X-48.241 Y2.692
X-48.248 Y1.766
X-48.253 Y0.84
X-48.257 Y-0.087
X-48.261 Y-1.939
X-48.264 Y-4.717
X-48.265 Y-8.422
X-48.256 Y-9.348
X-48.223 Y-10.142
X-48.149 Y-10.735
X-48.052 Y-11.207
X-47.932 Y-11.617
X-47.797 Y-11.972
X-47.638 Y-12.307
X-47.477 Y-12.584
X-47.288 Y-12.858
X-47.096 Y-13.093
X-46.9 Y-13.297
X-46.673 Y-13.498
X-46.416 Y-13.691
X-46.1 Y-13.891
X-45.712 Y-14.095
X-45.207 Y-14.31
X-44.533 Y-14.536
X-43.634 Y-14.759
X-42.72 Y-14.912
X-41.8 Y-15.018
X-40.877 Y-15.092
X-39.952 Y-15.144
X-39.027 Y-15.18
X-38.101 Y-15.206
X-37.175 Y-15.223
X-36.249 Y-15.236
X-35.323 Y-15.244
X-34.397 Y-15.251
X-33.471 Y-15.281
X-32.562 Y-15.459
X-31.752 Y-15.907
X-31.084 Y-16.549
X-30.487 Y-17.257
X-29.954 Y-17.881
X-29.742 Y-18.092
X-29.518 Y-18.276
X-29.262 Y-18.413
X-28.984 Y-18.497
X-28.696 Y-18.525
X-26.909
X-26.759 Y-18.517
X-26.611 Y-18.492
X-26.468 Y-18.446
X-26.332 Y-18.383
X-26.172 Y-18.289
X-25.817 Y-18.042
X-25.101 Y-17.454
X-24.382 Y-16.871
X-23.574 Y-16.417
X-22.709 Y-16.087
X-21.814 Y-15.848
X-20.904 Y-15.678
X-19.986 Y-15.557
X-19.064 Y-15.471
X-18.139 Y-15.41
X-17.214 Y-15.367
X-16.289 Y-15.337
X-15.363 Y-15.315
X-14.437 Y-15.3
X-13.511 Y-15.29
X-12.584 Y-15.282
X-11.658 Y-15.277
X-10.732 Y-15.274
X-8.88 Y-15.269
X-7.954 Y-15.268
X-7.027 Y-15.266
X-6.471 Y-15.228
X-6.056 Y-15.166
X-5.521 Y-15.042
X-4.638 Y-14.761
X-3.775 Y-14.425
X-2.905 Y-14.109
X-2.008 Y-13.877
X-1.089 Y-13.759
X-0.163 Y-13.78
X0.746 Y-13.954
X1.627 Y-14.241
X2.497 Y-14.533
X3.396 Y-14.756
X4.309 Y-14.911
X5.229 Y-15.017
X6.152 Y-15.092
X7.077 Y-15.144
X8.002 Y-15.18
X8.928 Y-15.205
X9.854 Y-15.223
X10.78 Y-15.236
X11.706 Y-15.244
X12.633 Y-15.251
X13.559 Y-15.255
X15.411 Y-15.26
X18.19 Y-15.263
X19.116 Y-15.264
X20.042 Y-15.291
X20.951 Y-15.467
X21.759 Y-15.92
X22.425 Y-16.563
X23.023 Y-17.27
X23.55 Y-17.887
X23.758 Y-18.094
X23.982 Y-18.277
X24.238 Y-18.413
X24.515 Y-18.497
X24.803 Y-18.525
X26.604
X26.754 Y-18.517
X26.901 Y-18.491
X27.043 Y-18.443
X27.179 Y-18.378
X27.333 Y-18.287
X27.686 Y-18.039
X28.399 Y-17.447
X29.123 Y-16.87
X29.93 Y-16.416
X30.796 Y-16.086
X31.691 Y-15.848
X32.601 Y-15.678
X33.519 Y-15.556
X34.441 Y-15.47
X35.366 Y-15.41
X36.291 Y-15.367
X37.216 Y-15.337
X38.142 Y-15.315
X39.068 Y-15.3
X39.995 Y-15.29
X41.847 Y-15.275
X42.773 Y-15.253
X43.458 Y-15.196
X43.958 Y-15.114
X44.419 Y-14.999
X44.79 Y-14.875
X45.146 Y-14.722
X45.449 Y-14.562
X45.722 Y-14.389
X45.981 Y-14.194
X46.195 Y-14.004
X46.398 Y-13.793
X46.591 Y-13.557
X46.793 Y-13.263
X46.992 Y-12.918
X47.202 Y-12.476
X47.423 Y-11.895
X47.653 Y-11.101
X47.839 Y-10.194
X47.968 Y-9.277
X48.057 Y-8.355
X48.119 Y-7.431
X48.163 Y-6.506
X48.193 Y-5.58
X48.215 Y-4.654
X48.23 Y-3.728
X48.24 Y-2.802
X48.248 Y-1.876
X48.253 Y-0.949
X48.256 Y-0.023
X48.261 Y1.829
X48.264 Y4.608
X48.265 Y8.312
X48.258 Y9.238
X48.228 Y10.081
X48.156 Y10.694
X48.062 Y11.167
X47.943 Y11.586
X47.81 Y11.941
X47.651 Y12.282
X47.491 Y12.562
X47.304 Y12.836
X47.112 Y13.075
X46.918 Y13.279
X46.692 Y13.482
X46.439 Y13.675
X46.128 Y13.874
X45.748 Y14.077
X45.255 Y14.292
X44.598 Y14.517
X43.7 Y14.745
X42.788 Y14.903
X41.868 Y15.012
X40.945 Y15.088
X40.02 Y15.141
X39.095 Y15.178
X38.169 Y15.204
X37.243 Y15.222
X36.324 Y15.342
X35.456 Y15.663
X34.673 Y16.158
X33.974 Y16.765
X33.329 Y17.43
X32.768 Y18.043
X32.538 Y18.247
X32.272 Y18.399
X31.98 Y18.493
X31.674 Y18.525
X28.233
X28.226 Y18.524
G2 X27.93 Y18.48 I-0.655 J3.373
G1 X27.825 Y18.472
X27.721 Y18.469
X27.69
X27.421
X27.316 Y18.472
X27.212 Y18.48
G2 X26.915 Y18.524 I0.359 J3.417
G1 X26.909 Y18.525
X24.921
X23.996 Y18.479
X23.072 Y18.415
X22.15 Y18.327
X21.229 Y18.236
X20.306 Y18.152
X19.383 Y18.08
X18.459 Y18.02
X17.534 Y17.971
X16.608 Y17.932
X15.683 Y17.902
X14.757 Y17.878
X13.831 Y17.86
X12.905 Y17.846
X11.979 Y17.836
X11.053 Y17.828
X10.126 Y17.822
X9.2 Y17.817
X8.274 Y17.795
X7.35 Y17.73
X6.432 Y17.607
X5.524 Y17.429
X4.625 Y17.203
X3.731 Y16.964
X2.824 Y16.773
X1.901 Y16.699
X0.975 Y16.732
X0.055 Y16.83
X-0.862 Y16.961
X-1.778 Y17.098
X-2.695 Y17.228
X-3.614 Y17.342
X-4.536 Y17.439
X-5.458 Y17.519
X-6.382 Y17.584
X-7.307 Y17.635
X-8.232 Y17.676
X-9.158 Y17.707
X-10.084 Y17.731
X-11.01 Y17.75
X-11.936 Y17.764
X-12.862 Y17.774
X-13.788 Y17.782
X-14.714 Y17.788
X-15.64 Y17.793
X-16.566 Y17.796
X-17.493 Y17.803
X-18.398 Y18
X-19.25 Y18.363
X-19.465 Y18.452
X-19.692 Y18.507
X-19.924 Y18.525
X-24.802
X-24.809 Y18.524
G2 X-25.213 Y18.464 I-0.894 J4.6
G1 X-25.318 Y18.456
X-25.422 Y18.453
X-25.583
X-25.823 F5000
X-25.984 F1650
X-26.089 Y18.456
X-26.193 Y18.464
G2 X-26.597 Y18.524 I0.49 J4.66
G1 X-26.604 Y18.525
X-28.707
X-29.632 Y18.479
X-30.555 Y18.408
X-32.399 Y18.226
X-33.321 Y18.143
X-34.245 Y18.072
X-35.169 Y18.014
X-36.094 Y17.966
X-37.019 Y17.928
X-37.945 Y17.899
X-38.871 Y17.876
X-39.797 Y17.857
X-40.723 Y17.837
X-41.648 Y17.799
X-42.571 Y17.724
X-43.484 Y17.591
X-44.233 Y17.419
X-44.9 Y17.209
X-45.48 Y16.973
X-46.003 Y16.71
X-46.485 Y16.417
X-46.936 Y16.091
X-47.361 Y15.728
X-47.77 Y15.317
X-48.172 Y14.842
X-48.552 Y14.314
X-48.919 Y13.705
X-49.28 Y12.979
X-49.623 Y12.124
X-49.898 Y11.24
X-50.114 Y10.339
X-50.281 Y9.428
X-50.41 Y8.511
X-50.508 Y7.59
X-50.583 Y6.667
X-50.64 Y5.742
X-50.682 Y4.817
X-50.714 Y3.891
X-50.738 Y2.966
X-50.755 Y2.04
X-50.768 Y1.113
X-50.778 Y0.187
X-50.785 Y-0.739
X-50.791 Y-1.665
X-50.794 Y-2.591
X-50.799 Y-4.443
X-50.802 Y-6.296
X-50.8 Y-7.222
X-50.787 Y-8.148
X-50.744 Y-9.073
X-50.65 Y-9.995
X-50.508 Y-10.803
X-50.325 Y-11.51
X-50.107 Y-12.136
X-49.865 Y-12.686
X-49.593 Y-13.191
X-49.29 Y-13.658
X-48.953 Y-14.096
X-48.576 Y-14.513
X-48.145 Y-14.918
X-47.646 Y-15.317
X-47.103 Y-15.683
X-46.447 Y-16.053
X-45.681 Y-16.407
X-44.812 Y-16.727
X-43.921 Y-16.98
X-43.016 Y-17.178
X-42.103 Y-17.331
X-41.184 Y-17.448
X-40.262 Y-17.537
X-39.338 Y-17.605
X-38.414 Y-17.656
X-37.488 Y-17.695
X-36.563 Y-17.724
X-35.64 Y-17.801
X-34.758 Y-18.083
X-34.2 Y-18.365
X-33.986 Y-18.453
X-33.762 Y-18.507
X-33.531 Y-18.525
X-28.696
X-28.689 Y-18.524
G2 X-28.288 Y-18.464 I0.887 J-4.564
G1 X-28.184 Y-18.456
X-28.079 Y-18.453
X-27.915
X-27.689 F5000
X-27.525 F1650
X-27.421 Y-18.456
X-27.316 Y-18.464
G2 X-26.915 Y-18.524 I-0.486 J-4.624
G1 X-26.909 Y-18.525
X-24.921
X-23.996 Y-18.479
X-23.072 Y-18.415
X-22.15 Y-18.326
X-21.229 Y-18.235
X-20.306 Y-18.152
X-19.383 Y-18.08
X-18.459 Y-18.02
X-17.534 Y-17.971
X-16.608 Y-17.932
X-15.683 Y-17.902
X-14.757 Y-17.878
X-13.831 Y-17.86
X-12.905 Y-17.846
X-11.979 Y-17.836
X-11.053 Y-17.828
X-10.126 Y-17.822
X-9.2 Y-17.817
X-8.274 Y-17.795
X-7.35 Y-17.73
X-6.432 Y-17.608
X-5.524 Y-17.429
X-4.625 Y-17.203
X-3.731 Y-16.964
X-2.824 Y-16.774
X-1.901 Y-16.699
X-0.975 Y-16.732
X-0.054 Y-16.83
X0.862 Y-16.961
X1.778 Y-17.099
X2.695 Y-17.228
X3.615 Y-17.342
X4.536 Y-17.439
X5.458 Y-17.519
X6.382 Y-17.584
X7.307 Y-17.635
X8.232 Y-17.676
X9.158 Y-17.707
X10.084 Y-17.731
X11.01 Y-17.75
X11.936 Y-17.764
X12.862 Y-17.774
X13.788 Y-17.782
X14.714 Y-17.788
X15.64 Y-17.793
X16.567 Y-17.796
X17.493 Y-17.803
X18.398 Y-18
X19.25 Y-18.363
X19.465 Y-18.452
X19.692 Y-18.507
X19.924 Y-18.525
X24.803
X24.809 Y-18.524
G2 X25.214 Y-18.464 I0.894 J-4.599
G1 X25.318 Y-18.456
X25.423 Y-18.453
X25.583
X25.823 F5000
X25.984 F1650
X26.089 Y-18.456
X26.193 Y-18.464
G2 X26.597 Y-18.524 I-0.49 J-4.659
G1 X26.604 Y-18.525
X28.707
X29.632 Y-18.479
X30.555 Y-18.408
X32.399 Y-18.225
X33.321 Y-18.142
X34.245 Y-18.071
X35.169 Y-18.013
X36.094 Y-17.966
X37.019 Y-17.928
X37.945 Y-17.899
X38.871 Y-17.876
X39.797 Y-17.857
X40.723 Y-17.837
X41.648 Y-17.8
X42.571 Y-17.723
X43.477 Y-17.592
X44.233 Y-17.419
X44.898 Y-17.21
X45.476 Y-16.975
X46.002 Y-16.711
X46.485 Y-16.417
X46.936 Y-16.091
X47.36 Y-15.729
X47.766 Y-15.321
X48.166 Y-14.85
X48.556 Y-14.307
X48.916 Y-13.71
X49.276 Y-12.988
X49.62 Y-12.133
X49.895 Y-11.248
X50.111 Y-10.348
X50.279 Y-9.437
X50.408 Y-8.52
X50.507 Y-7.599
X50.582 Y-6.676
X50.639 Y-5.751
X50.681 Y-4.826
X50.713 Y-3.9
X50.737 Y-2.975
X50.755 Y-2.049
X50.768 Y-1.122
X50.778 Y-0.196
X50.785 Y0.73
X50.791 Y1.656
X50.794 Y2.582
X50.799 Y4.434
X50.802 Y6.287
X50.799 Y7.213
X50.787 Y8.139
X50.744 Y9.064
X50.651 Y9.986
X50.51 Y10.793
X50.326 Y11.505
X50.11 Y12.128
X49.869 Y12.679
X49.596 Y13.186
X49.293 Y13.654
X48.957 Y14.092
X48.581 Y14.508
X48.153 Y14.911
X47.653 Y15.311
X47.107 Y15.681
X46.457 Y16.048
X45.693 Y16.402
X44.824 Y16.723
X43.934 Y16.977
X43.029 Y17.175
X42.116 Y17.329
X41.197 Y17.446
X40.275 Y17.536
X39.352 Y17.613
X38.444 Y17.793
X37.577 Y18.12
X37.155 Y18.348
X36.931 Y18.445
X36.695 Y18.505
X36.452 Y18.525
X31.674
G3 X30.915 Y18.346 I0.07 J-1.999
X29.752 Y16.705 I0.829 J-1.82 F5000
G1 X26.785 Y-16.347
G3 X27.947 Y-18.346 I1.992 J-0.179
X28.707 Y-18.525 I0.83 J1.82 F1650
G1 X45.111
X45.54 Y-18.504
X45.918 Y-18.454
X46.33 Y-18.366
X46.745 Y-18.242
X47.192 Y-18.068
X47.662 Y-17.839
X48.124 Y-17.567
X48.606 Y-17.229
X49.101 Y-16.818
X49.589 Y-16.342
X50.059 Y-15.803
X50.54 Y-15.153
X51.006 Y-14.405
X51.36 Y-13.718
X51.451 Y-13.501
X51.506 Y-13.273
X51.525 Y-13.038
G3 X48.289 Y-11.536 I-1.999 J-0.07
G1 X45.93 Y-13.392
X43.944 Y-14.954
G3 X45.111 Y-18.525 I1.237 J-1.572
G1 X48.265
X48.513 Y-18.513
X48.791 Y-18.476
X49.08 Y-18.414
X49.417 Y-18.313
X49.754 Y-18.182
X50.147 Y-17.991
X50.534 Y-17.764
X50.978 Y-17.452
X50.989 Y-17.443
X51.207 Y-17.219
X51.373 Y-16.955
X51.48 Y-16.661
X51.523 Y-16.352
G3 X50.801 Y-13.977 I-4.292 J-0.007
X45.933 Y-17.224 I-2.434 J-1.623
X48.265 Y-18.524 I2.434 J1.624
G1 X49.317 Y-18.525
X49.948 Y-18.499
X50.158 Y-18.476
X50.382 Y-18.446
X50.395 Y-18.442
X50.736 Y-18.301
X50.75 Y-18.295
X51.051 Y-18.064
X51.068 Y-18.046
X51.294 Y-17.752
X51.3 Y-17.738
X51.439 Y-17.403
X51.447 Y-17.38
X51.477 Y-17.147
X51.494 Y-16.936
X51.518 Y-16.515
X51.525 Y-16.305
Y12.097
X51.503 Y12.528
X51.452 Y12.917
X51.368 Y13.311
X51.239 Y13.743
X51.062 Y14.196
X50.844 Y14.646
X50.563 Y15.124
X50.216 Y15.617
X49.819 Y16.096
X49.35 Y16.576
X48.787 Y17.067
X48.13 Y17.554
X47.41 Y18.002
X46.715 Y18.36
X46.499 Y18.451
X46.27 Y18.506
X46.036 Y18.525
G3 X44.532 Y15.292 I0.07 J-1.999
G1 X46.391 Y12.923
X47.953 Y10.932
G3 X51.525 Y12.097 I1.573 J1.235
G1 Y15.253
X51.512 Y15.509
X51.476 Y15.786
X51.414 Y16.075
X51.313 Y16.413
X51.181 Y16.752
X50.99 Y17.146
X50.761 Y17.535
X50.449 Y17.978
X50.44 Y17.989
X50.219 Y18.205
X49.958 Y18.37
X49.668 Y18.478
X49.362 Y18.523
G3 X46.962 Y17.809 I-0.028 J-4.299
X50.208 Y12.903 I1.623 J-2.453
X51.525 Y15.253 I-1.623 J2.453
G1 Y16.305
X51.518 Y16.515
X51.494 Y16.936
X51.477 Y17.147
X51.447 Y17.38
X51.439 Y17.403
X51.3 Y17.738
X51.294 Y17.752
X51.068 Y18.046
X51.051 Y18.064
X50.75 Y18.295
X50.684 Y18.323
X50.395 Y18.442
X50.382 Y18.446
X50.158 Y18.476
X49.948 Y18.499
X49.317 Y18.525
X36.452
G3 X35.693 Y18.346 I0.07 J-1.999
G1 X35.534 Y18.274 Z-1.592
X35.377 Y18.202 Z-1.569
X35.222 Y18.131 Z-1.532
X35.07 Y18.062 Z-1.479
X34.923 Y17.996 Z-1.412
X34.783 Y17.931 Z-1.332
X34.649 Y17.87 Z-1.238
X34.523 Y17.813 Z-1.132
X34.406 Y17.76 Z-1.014
X34.298 Y17.711 Z-0.885
X34.202 Y17.667 Z-0.747
X34.117 Y17.628 Z-0.6
X34.043 Y17.594 Z-0.445
X33.982 Y17.567 Z-0.284
X33.935 Y17.545 Z-0.117
X33.9 Y17.529 Z0.053
X33.88 Y17.52 Z0.226
X33.873 Y17.517 Z0.4
G0 Z5
X-27.394 Y-17.282
Z2.4
G1 Z0.4 F1650
X-27.387 Y-17.285 Z0.226
X-27.368 Y-17.297 Z0.053
X-27.335 Y-17.316 Z-0.117
X-27.29 Y-17.343 Z-0.284
X-27.233 Y-17.377 Z-0.445
X-27.164 Y-17.418 Z-0.6
X-27.083 Y-17.466 Z-0.747
X-26.992 Y-17.521 Z-0.885
X-26.89 Y-17.581 Z-1.014
X-26.78 Y-17.647 Z-1.132
X-26.661 Y-17.717 Z-1.238
X-26.534 Y-17.793 Z-1.332
X-26.401 Y-17.872 Z-1.412
X-26.263 Y-17.954 Z-1.479
X-26.12 Y-18.039 Z-1.532
X-25.973 Y-18.126 Z-1.569
X-25.825 Y-18.215 Z-1.592
X-25.675 Y-18.304 Z-1.6
G3 X-24.921 Y-18.525 I0.809 J1.361
G1 X19.924
G3 X20.684 Y-18.346 I-0.07 J1.999
X21.832 Y-16.825 I-0.83 J1.82 F5000
G1 X26.829 Y16.227
G3 X25.681 Y18.346 I-1.977 J0.299
X24.921 Y18.525 I-0.829 J-1.82 F1650
G1 X-19.924
X-19.943 Y18.52
X-19.957 Y18.507
G2 X-20.417 Y17.92 I-4.358 J2.939
X-22.011 Y16.722 I-3.898 J3.526 F5000
X-22.888 Y16.519 I-0.877 J1.797
G1 X-25.743
G2 X-26.62 Y16.721 I0 J2
X-28.214 Y17.92 I2.305 J4.725
X-28.673 Y18.507 I3.899 J3.526 F1650
G1 X-28.688 Y18.52
X-28.707 Y18.525
X-45.111
X-45.539 Y18.504
X-45.918 Y18.454
X-46.329 Y18.366
X-46.744 Y18.242
X-47.191 Y18.067
X-47.663 Y17.839
X-48.125 Y17.566
X-48.605 Y17.229
X-49.101 Y16.818
X-49.588 Y16.343
X-50.06 Y15.802
X-50.541 Y15.151
X-51.007 Y14.402
X-51.36 Y13.718
X-51.451 Y13.501
X-51.506 Y13.273
X-51.525 Y13.039
G3 X-48.29 Y11.536 I1.999 J0.07
G1 X-45.93 Y13.392
X-43.944 Y14.954
G3 X-45.111 Y18.525 I-1.237 J1.572
G1 X-48.265
X-48.512 Y18.513
X-48.791 Y18.476
X-49.08 Y18.414
X-49.417 Y18.313
X-49.754 Y18.182
X-50.147 Y17.991
X-50.534 Y17.764
X-50.978 Y17.452
X-50.989 Y17.443
X-51.207 Y17.219
X-51.373 Y16.955
X-51.48 Y16.661
X-51.523 Y16.352
G3 X-50.802 Y13.977 I4.292 J0.006
X-45.933 Y17.224 I2.435 J1.623
X-48.265 Y18.524 I-2.434 J-1.624
G1 X-49.317 Y18.525
X-49.948 Y18.499
X-50.158 Y18.476
X-50.382 Y18.446
X-50.395 Y18.442
X-50.736 Y18.301
X-50.75 Y18.295
X-51.051 Y18.064
X-51.068 Y18.046
X-51.294 Y17.752
X-51.3 Y17.738
X-51.439 Y17.403
X-51.447 Y17.38
X-51.477 Y17.147
X-51.494 Y16.936
X-51.518 Y16.515
X-51.525 Y16.305
Y-12.097
X-51.503 Y-12.528
X-51.453 Y-12.917
X-51.368 Y-13.311
X-51.239 Y-13.743
X-51.063 Y-14.196
X-50.844 Y-14.646
X-50.562 Y-15.125
X-50.216 Y-15.618
X-49.82 Y-16.095
X-49.35 Y-16.576
X-48.786 Y-17.068
X-48.13 Y-17.554
X-47.41 Y-18.002
X-46.715 Y-18.36
X-46.499 Y-18.451
X-46.27 Y-18.506
X-46.036 Y-18.525
G3 X-44.532 Y-15.291 I-0.07 J1.999
G1 X-46.391 Y-12.923
X-47.953 Y-10.933
G3 X-51.524 Y-12.097 I-1.573 J-1.234
G1 X-51.525 Y-15.253
X-51.512 Y-15.509
X-51.476 Y-15.786
X-51.414 Y-16.075
X-51.313 Y-16.414
X-51.181 Y-16.752
X-50.989 Y-17.146
X-50.761 Y-17.535
X-50.449 Y-17.978
X-50.44 Y-17.989
X-50.219 Y-18.205
X-49.958 Y-18.37
X-49.668 Y-18.478
X-49.362 Y-18.523
G3 X-46.962 Y-17.809 I0.028 J4.299
X-50.208 Y-12.903 I-1.623 J2.453
X-51.525 Y-15.253 I1.623 J-2.453
G1 Y-16.305
X-51.518 Y-16.515
X-51.494 Y-16.936
X-51.477 Y-17.147
X-51.447 Y-17.38
X-51.439 Y-17.403
X-51.3 Y-17.738
X-51.294 Y-17.752
X-51.068 Y-18.046
X-51.051 Y-18.064
X-50.75 Y-18.295
X-50.684 Y-18.323
X-50.395 Y-18.442
X-50.382 Y-18.446
X-50.158 Y-18.476
X-49.948 Y-18.499
X-49.317 Y-18.525
X-33.531
X-33.428 Y-18.511 Z-1.593
X-33.326 Y-18.497 Z-1.572
X-33.229 Y-18.484 Z-1.538
X-33.136 Y-18.471 Z-1.491
X-33.057 Y-18.444 Z-1.433
X-32.985 Y-18.419 Z-1.365
X-32.922 Y-18.398 Z-1.288
X-32.869 Y-18.38 Z-1.204
X-32.827 Y-18.365 Z-1.112
X-32.796 Y-18.355 Z-1.016
X-32.778 Y-18.348 Z-0.916
X-32.772 Y-18.346 Z-0.815
G0 Z5
X29.741 Y0.189
Z0.15
G3 X23.753 Y-0.189 Z-2.375 I-2.994 J-0.189 F800.33
X29.747 Y0 Z-4.85 I2.994 J0.189
X23.747 I-3 J0
X29.747 I3 J0
G1 X29.751 Y0.232 F1650
X29.91 Y1.144
X29.962 Y1.285
X29.997 Y1.43
X30.018 Y1.579
X30.025 Y1.729
X30.02 Y1.888
X30 Y2.058
X29.965 Y2.237
X29.913 Y2.424
X29.842 Y2.617
X29.75 Y2.814
X29.638 Y3.012
X29.504 Y3.21
X29.347 Y3.406
X29.168 Y3.595
X28.968 Y3.777
X28.745 Y3.947
X28.502 Y4.104
X28.24 Y4.245
X27.959 Y4.368
X27.662 Y4.471
X27.351 Y4.551
X27.028 Y4.607
X26.696 Y4.638
X26.356 Y4.642
X26.013 Y4.618
X25.667 Y4.566
X25.323 Y4.486
X24.983 Y4.377
X24.649 Y4.24
X24.325 Y4.075
X24.013 Y3.883
X23.716 Y3.666
X23.435 Y3.423
X23.173 Y3.158
X22.932 Y2.871
X22.714 Y2.565
X22.521 Y2.241
X22.354 Y1.902
X22.215 Y1.549
X22.103 Y1.185
X22.022 Y0.813
X21.97 Y0.435
X21.948 Y0.053
X21.958 Y-0.329
X21.998 Y-0.71
X22.069 Y-1.087
X22.169 Y-1.458
X22.3 Y-1.82
X22.459 Y-2.17
X22.646 Y-2.506
X22.859 Y-2.827
X23.097 Y-3.129
X23.359 Y-3.412
X23.643 Y-3.673
X23.947 Y-3.91
X24.27 Y-4.122
X24.608 Y-4.307
X24.96 Y-4.465
X25.324 Y-4.594
X25.697 Y-4.694
X26.076 Y-4.763
X26.461 Y-4.802
X26.847 Y-4.809
X27.232 Y-4.786
X27.615 Y-4.732
X27.991 Y-4.647
X28.36 Y-4.532
X28.719 Y-4.388
X29.064 Y-4.216
X29.395 Y-4.016
X29.709 Y-3.791
X30.004 Y-3.541
X30.277 Y-3.268
X30.528 Y-2.974
X30.755 Y-2.661
X31.015 Y-2.234
X31.413 Y-1.442
X31.655 Y-0.843
X31.821 Y-0.316
X31.931 Y0.164
X31.998 Y0.625
X32.026 Y1.071
X32.019 Y1.504
X31.978 Y1.925
X31.905 Y2.338
X31.799 Y2.74
X31.66 Y3.133
X31.491 Y3.515
X31.29 Y3.885
X31.058 Y4.239
X30.796 Y4.578
X30.505 Y4.897
X30.185 Y5.195
X29.839 Y5.47
X29.466 Y5.72
X29.068 Y5.942
X28.648 Y6.135
X28.209 Y6.295
X27.752 Y6.421
X27.28 Y6.511
X26.798 Y6.563
X26.307 Y6.577
X25.812 Y6.551
X25.316 Y6.485
X24.822 Y6.378
X24.335 Y6.231
X23.858 Y6.044
X23.395 Y5.817
X22.948 Y5.553
X22.522 Y5.252
X22.119 Y4.916
X21.742 Y4.546
X21.395 Y4.147
X21.08 Y3.718
X20.799 Y3.265
X20.555 Y2.788
X20.349 Y2.292
X20.183 Y1.78
X20.058 Y1.255
X19.976 Y0.721
X19.937 Y0.18
X19.941 Y-0.362
X19.989 Y-0.903
X20.081 Y-1.44
X20.215 Y-1.968
X20.392 Y-2.483
X20.609 Y-2.984
X20.866 Y-3.466
X21.161 Y-3.926
X21.493 Y-4.361
X21.858 Y-4.768
X22.255 Y-5.144
X22.681 Y-5.488
X23.133 Y-5.797
X23.609 Y-6.068
X24.106 Y-6.3
X24.619 Y-6.492
X25.146 Y-6.642
X25.684 Y-6.749
X26.229 Y-6.813
X26.777 Y-6.833
X27.325 Y-6.809
X27.869 Y-6.741
X28.406 Y-6.629
X28.933 Y-6.475
X29.445 Y-6.278
X29.94 Y-6.042
X30.415 Y-5.766
X30.866 Y-5.453
X31.308 Y-5.091
X31.785 Y-4.631
X32.234 Y-4.122
X32.654 Y-3.561
X33.03 Y-2.964
X33.351 Y-2.351
X33.616 Y-1.728
X33.824 Y-1.103
X33.978 Y-0.477
X34.079 Y0.146
X34.129 Y0.767
Y1.382
X34.08 Y1.99
X33.983 Y2.587
X33.84 Y3.171
X33.65 Y3.741
X33.416 Y4.293
X33.137 Y4.825
X32.816 Y5.335
X32.454 Y5.819
X32.051 Y6.275
X31.611 Y6.7
X31.134 Y7.091
X30.623 Y7.445
X30.082 Y7.76
X29.512 Y8.033
X28.916 Y8.261
X28.3 Y8.442
X27.665 Y8.574
X27.018 Y8.655
X26.361 Y8.684
X25.699 Y8.66
X25.037 Y8.583
X24.379 Y8.452
X23.729 Y8.267
X23.093 Y8.03
X22.475 Y7.74
X21.878 Y7.4
X21.308 Y7.012
X20.769 Y6.577
X20.264 Y6.098
X19.798 Y5.578
X19.373 Y5.02
X18.993 Y4.428
X18.661 Y3.806
X18.379 Y3.157
X18.149 Y2.487
X17.974 Y1.798
X17.854 Y1.096
X17.791 Y0.386
X17.785 Y-0.328
X17.837 Y-1.042
X17.945 Y-1.75
X18.111 Y-2.447
X18.332 Y-3.13
X18.607 Y-3.793
X18.935 Y-4.432
X19.313 Y-5.044
X19.74 Y-5.623
X20.212 Y-6.167
X20.726 Y-6.671
X21.279 Y-7.133
X21.867 Y-7.548
X22.488 Y-7.916
X23.136 Y-8.232
X23.807 Y-8.496
X24.498 Y-8.704
X25.203 Y-8.857
X25.918 Y-8.953
X26.639 Y-8.991
X27.36 Y-8.971
X28.078 Y-8.893
X28.787 Y-8.757
X29.483 Y-8.566
X30.161 Y-8.319
X30.823 Y-8.016
X31.481 Y-7.648
X32.127 Y-7.215
X32.756 Y-6.717
X33.356 Y-6.156
X33.918 Y-5.541
X34.431 Y-4.878
X34.89 Y-4.177
X35.289 Y-3.444
X35.625 Y-2.687
X35.898 Y-1.911
X36.105 Y-1.123
X36.247 Y-0.328
X36.325 Y0.47
X36.338 Y1.266
X36.288 Y2.056
X36.174 Y2.835
X36 Y3.601
X35.764 Y4.348
X35.47 Y5.074
X35.119 Y5.773
X34.712 Y6.444
X34.251 Y7.081
X33.738 Y7.681
X33.177 Y8.241
X32.57 Y8.756
X31.92 Y9.223
X31.231 Y9.639
X30.506 Y10
X29.75 Y10.304
X28.967 Y10.548
X28.163 Y10.729
X27.342 Y10.846
X26.509 Y10.896
X25.67 Y10.88
X24.831 Y10.796
X23.997 Y10.644
X23.174 Y10.424
X22.367 Y10.138
X21.583 Y9.787
X20.825 Y9.371
X20.101 Y8.895
X19.415 Y8.359
X18.771 Y7.769
X18.175 Y7.126
X17.631 Y6.436
X17.143 Y5.702
X16.714 Y4.93
X16.348 Y4.123
X16.047 Y3.289
X15.813 Y2.43
X15.649 Y1.555
X15.555 Y0.667
X15.533 Y-0.226
X15.583 Y-1.119
X15.704 Y-2.007
X15.897 Y-2.882
X16.159 Y-3.741
X16.49 Y-4.576
X16.887 Y-5.382
X17.347 Y-6.155
X17.868 Y-6.888
X18.447 Y-7.578
X19.08 Y-8.219
X19.762 Y-8.807
X20.49 Y-9.339
X21.258 Y-9.811
X22.062 Y-10.22
X22.896 Y-10.564
X23.755 Y-10.839
X24.634 Y-11.044
X25.526 Y-11.179
X26.427 Y-11.241
X27.329 Y-11.231
X28.228 Y-11.148
X29.119 Y-10.993
X29.999 Y-10.766
X30.867 Y-10.467
X31.715 Y-10.095
X32.531 Y-9.656
X33.31 Y-9.155
X34.048 Y-8.595
X34.741 Y-7.981
X35.387 Y-7.317
X35.981 Y-6.607
X36.523 Y-5.855
X37.007 Y-5.066
X37.433 Y-4.244
X37.797 Y-3.392
X38.097 Y-2.516
X38.331 Y-1.62
X38.497 Y-0.708
X38.593 Y0.213
X38.619 Y1.139
X38.574 Y2.064
X38.458 Y2.983
X38.273 Y3.89
X38.018 Y4.781
X37.696 Y5.649
X37.308 Y6.49
X36.857 Y7.299
X36.345 Y8.071
X35.775 Y8.801
X35.152 Y9.486
X34.478 Y10.122
X33.759 Y10.705
X32.997 Y11.232
X32.198 Y11.701
X31.367 Y12.108
X30.507 Y12.453
X29.624 Y12.732
X28.723 Y12.944
X27.808 Y13.089
X26.885 Y13.166
X25.959 Y13.175
X25.034 Y13.117
X24.116 Y12.993
X23.21 Y12.803
X22.319 Y12.55
X21.448 Y12.234
X20.603 Y11.856
X19.787 Y11.417
X19.005 Y10.921
X18.26 Y10.371
X17.555 Y9.77
X16.894 Y9.122
X16.279 Y8.43
X15.713 Y7.696
X15.201 Y6.924
X14.746 Y6.118
X14.348 Y5.281
X14.009 Y4.419
X13.73 Y3.536
X13.511 Y2.636
X13.355 Y1.723
X13.263 Y0.802
X13.236 Y-0.124
X13.274 Y-1.049
X13.375 Y-1.97
X13.539 Y-2.882
X13.764 Y-3.78
X14.049 Y-4.661
X14.395 Y-5.52
X14.801 Y-6.353
X15.263 Y-7.155
X15.779 Y-7.925
X16.346 Y-8.657
X16.96 Y-9.35
X17.621 Y-9.999
X18.325 Y-10.601
X19.069 Y-11.152
X19.85 Y-11.65
X20.663 Y-12.094
X21.504 Y-12.482
X22.142 Y-12.727
X22.234 Y-12.759
X22.328 Y-12.784
X22.424 Y-12.804
X22.608 Y-12.835
X22.818 Y-12.874
X23.029 Y-12.916
X23.108 Y-12.939
X24.01 Y-13.15
X24.916 Y-13.34
X25.835 Y-13.458
X26.76 Y-13.506
X27.686 Y-13.486
X28.608 Y-13.4
X29.411 Y-13.265
X29.529 Y-13.24
X29.645 Y-13.206
X29.758 Y-13.164
X29.969 Y-13.075
X30.179 Y-12.999
X30.389 Y-12.937
X30.6 Y-12.89
X30.996 Y-12.79
X31.873 Y-12.492
X32.725 Y-12.128
X33.548 Y-11.704
X34.339 Y-11.223
X35.097 Y-10.691
X35.819 Y-10.111
X36.503 Y-9.486
X37.145 Y-8.819
X37.743 Y-8.111
X38.294 Y-7.367
X38.798 Y-6.589
X39.253 Y-5.783
X39.658 Y-4.95
X40.01 Y-4.093
X40.306 Y-3.216
X40.546 Y-2.321
X40.728 Y-1.413
X40.853 Y-0.495
X40.92 Y0.429
X40.929 Y1.355
X40.877 Y2.279
X40.765 Y3.199
X40.594 Y4.109
X40.365 Y5.006
X40.079 Y5.888
X39.739 Y6.749
X39.344 Y7.587
X38.894 Y8.396
X38.393 Y9.175
X37.843 Y9.92
X37.247 Y10.629
X36.608 Y11.299
X35.927 Y11.928
X35.35 Y12.395
X35.142 Y12.536
X34.912 Y12.64
X34.669 Y12.704
X34.418 Y12.725
X31.861
X31.651 Y12.731
X31.441 Y12.741
X31.231 Y12.77
X31.02 Y12.806
X30.6 Y12.89
X30.384 Y12.939
X30.179 Y12.999
X29.969 Y13.075
X29.758 Y13.164
X29.548 Y13.289
X29.093 Y13.57
X28.917 Y13.688
X28.707 Y13.834
X28.527 Y13.991
X28.41 Y14.085
X28.141 Y14.266
X27.838 Y14.436
X27.452 Y14.614
X27.036 Y14.766
X26.857 Y14.816
X26.529 Y14.868
X26.197 Y14.847
X25.879 Y14.752
X25.589 Y14.59
X25.342 Y14.367
G3 X24.915 Y13.709 I2.661 J-2.194
X24.578 Y12.578 I3.088 J-1.536 F5000
X29.23 Y12.029 I2.326 J-0.275
X28.993 Y13.363 I-2.326 J0.274
X28.528 Y13.992 I-2.089 J-1.06 F1650
G1 X28.497 Y14.018
X28.3 Y14.201
X28.286 Y14.216
X28.129 Y14.412
X27.831 Y14.832
X27.684 Y15.043
X27.655 Y15.085
X27.625 Y15.136
X27.541 Y15.26
X27.331 Y15.443
X27.08 Y15.563
X26.807 Y15.614
X26.53 Y15.591
X26.268 Y15.496
X26.041 Y15.336
X25.864 Y15.122
G3 X25.768 Y14.363 I0.855 J-0.494
X25.916 Y14.054 I0.951 J0.265 F5000
X27.717 Y14.376 I0.824 J0.589
X27.625 Y15.136 I-0.977 J0.267 F1650
G1 X27.554 Y15.253
X27.445 Y15.446
X27.339 Y15.674
X27.327 Y15.709
X27.27 Y15.848
X27.106 Y15.996
X26.902 Y16.081
X26.681 Y16.091
X26.471 Y16.025
X26.294 Y15.892
X26.174 Y15.706
G3 X26.18 Y15.29 I0.523 J-0.201
X26.404 Y15.017 I0.564 J0.235
X27.085 Y15.018 I0.34 J0.508 F5000
X27.327 Y15.709 I-0.341 J0.507 F1650
G1 X27.265 Y15.884
X27.235 Y15.973
X27.199 Y16.095
X27.191 Y16.13
X27.15 Y16.274
X27.016 Y16.394
X26.847 Y16.458
X26.667 Y16.455
X26.5 Y16.388
X26.37 Y16.264
X26.293 Y16.101
X26.284 Y16.038
X26.286 Y15.975
X26.299 Y15.913
G3 X26.746 Y15.585 I0.44 J0.131
G1 X26.762 F5000
G3 X27.191 Y16.13 I-0.023 J0.459 F1650
G1 X27.151 Y16.305
X27.121 Y16.449
X27.084 Y16.595
X26.977 Y16.701
X26.838 Y16.759
X26.688 Y16.76
X26.548 Y16.703
X26.44 Y16.599
X26.38 Y16.461
X26.373 Y16.392
G3 X26.779 Y16.011 I0.377 J-0.005
X27.122 Y16.45 I-0.029 J0.376
G1 X27.108 Y16.515
X27.061 Y16.761
X27.026 Y16.907
X26.908 Y17.001
X26.761 Y17.033
X26.615 Y16.997
X26.5 Y16.9
X26.439 Y16.762
X26.435 Y16.714
Y16.713
G3 X26.774 Y16.399 I0.315 J0
X27.061 Y16.761 I-0.024 J0.314
G1 X27.014 Y17.014
X27.007 Y17.054
X26.99 Y17.127
X26.893 Y17.215
X26.768 Y17.248
X26.64 Y17.221
X26.539 Y17.139
X26.487 Y17.02
X26.485 Y16.982
X26.492 Y16.944
G3 X27.008 Y17.054 I0.254 J0.073
G1 X26.99 Y17.147
X26.973 Y17.255
X26.958 Y17.328
X26.875 Y17.405
X26.766 Y17.436
X26.655 Y17.412
X26.568 Y17.34
X26.524 Y17.235
X26.523 Y17.208
X26.526 Y17.18
G3 X26.973 Y17.255 I0.222 J0.047
G1 X26.94 Y17.462
X26.936 Y17.491
X26.932 Y17.515
X26.923 Y17.549
X26.913 Y17.577
X26.901 Y17.604
X26.861 Y17.637
X26.813 Y17.657
X26.761 Y17.662
X26.71 Y17.652
G3 X26.822 Y17.336 I0.056 J-0.158
X26.932 Y17.515 I-0.056 J0.158
G1 X26.928 Y17.541
X26.925 Y17.554
X26.92 Y17.567
X26.901 Y17.604
X26.885 Y17.622
X26.867 Y17.64
X26.854 Y17.65
X26.818 Y17.667
X26.79 Y17.676
X26.761 Y17.682
G3 X26.847 Y17.292 I0.053 J-0.193
G1 X26.801 Y17.279
G3 X26.854 Y17.651 I-0.086 J0.202
G1 X26.84 Y17.658
X26.814 Y17.671
X26.801 Y17.676
X26.761 Y17.682
X26.748 Y17.683
X26.709 Y17.678
X26.696 Y17.675
X26.683 Y17.67
X26.643 Y17.65
X26.63 Y17.637
X26.604 Y17.609
X26.596 Y17.599
X26.58 Y17.567
X26.576 Y17.554
X26.572 Y17.541
X26.56 Y17.462
X26.448 Y16.685
X22.36 Y-11.736 F5000
G3 X22.506 Y-12.46 I1.089 J-0.157
X23.108 Y-12.939 I0.943 J0.567 F1650
G1 X23.239 Y-12.977
X23.449 Y-13.04
X23.707 Y-13.149
X23.87 Y-13.232
X24.091 Y-13.36
X24.29 Y-13.489
X24.501 Y-13.631
X24.715 Y-13.78
X24.921 Y-13.94
X24.981 Y-13.991
X25.132 Y-14.134
X25.24 Y-14.237
X25.446 Y-14.401
X25.686 Y-14.562
X25.968 Y-14.72
X26.322 Y-14.883
X26.458 Y-14.932
X26.762 Y-15.007
X27.074 Y-15.015
X27.382 Y-14.955
X27.669 Y-14.83
X27.922 Y-14.646
X28.129 Y-14.412
G3 X28.507 Y-13.726 I-2.282 J1.706
X28.684 Y-12.969 I-2.66 J1.02 F5000
X24.626 Y-12.593 I-2.029 J0.188
X24.734 Y-13.462 I2.029 J-0.188
X25.131 Y-14.134 I1.921 J0.681 F1650
G1 X25.196 Y-14.201
X25.342 Y-14.367
X25.535 Y-14.622
X25.763 Y-14.962
X25.815 Y-15.043
X25.946 Y-15.253
X26.032 Y-15.376
X26.222 Y-15.545
X26.45 Y-15.657
X26.699 Y-15.704
X26.952 Y-15.683
X27.19 Y-15.595
X27.397 Y-15.447
X27.556 Y-15.249
G3 X27.675 Y-14.788 I-0.824 J0.459
X27.625 Y-14.49 I-0.926 J-0.002
X25.871 Y-14.495 I-0.876 J-0.3 F5000
X25.947 Y-15.253 I0.878 J-0.295 F1650
G1 X25.973 Y-15.296
X26.061 Y-15.464
X26.16 Y-15.674
X26.183 Y-15.728
X26.192 Y-15.754
X26.247 Y-15.893
X26.377 Y-16.029
X26.543 Y-16.119
X26.729 Y-16.152
X26.915 Y-16.127
X27.086 Y-16.046
X27.222 Y-15.916
X27.312 Y-15.751
G3 X27.309 Y-15.399 I-0.54 J0.171
X27.042 Y-15.076 I-0.555 J-0.187
X26.462 Y-15.078 I-0.288 J-0.51 F5000
X26.192 Y-15.753 I0.292 J-0.508 F1650
G1 X26.236 Y-15.884
X26.307 Y-16.158
X26.353 Y-16.301
X26.479 Y-16.427
X26.643 Y-16.496
X26.822 Y-16.497
X26.987 Y-16.431
X27.115 Y-16.307
X27.187 Y-16.144
X27.194 Y-16.099
X27.195 Y-16.053
G3 X26.751 Y-15.611 I-0.449 J-0.007
G1 X26.726 F5000
G3 X26.307 Y-16.158 I0.02 J-0.449 F1650
G1 X26.346 Y-16.305
X26.392 Y-16.515
X26.427 Y-16.661
X26.537 Y-16.757
X26.675 Y-16.806
X26.82 Y-16.8
X26.954 Y-16.74
X27.055 Y-16.636
X27.111 Y-16.501
X27.115 Y-16.442
X27.108 Y-16.384
G3 X26.392 Y-16.515 I-0.356 J-0.076
G1 X26.452 Y-16.834
X26.488 Y-16.98
X26.607 Y-17.06
X26.749 Y-17.083
X26.887 Y-17.042
X26.994 Y-16.947
X27.051 Y-16.815
X27.054 Y-16.769
X27.048 Y-16.723
G3 X26.452 Y-16.834 I-0.296 J-0.065
G1 X26.498 Y-17.081
X26.532 Y-17.227
X26.631 Y-17.295
X26.749 Y-17.314
X26.864 Y-17.281
X26.954 Y-17.201
X27 Y-17.091
X27.004 Y-17.049
G3 X26.734 Y-16.789 I-0.255 J0.005
X26.496 Y-17.081 I0.015 J-0.255
G1 X26.51 Y-17.147
X26.536 Y-17.314
X26.552 Y-17.388
X26.631 Y-17.461
X26.736 Y-17.49
X26.841 Y-17.467
X26.924 Y-17.398
X26.966 Y-17.298
X26.967 Y-17.271
X26.964 Y-17.245
G3 X26.537 Y-17.314 I-0.212 J-0.043
G1 X26.564 Y-17.491
X26.568 Y-17.515
X26.572 Y-17.541
X26.581 Y-17.569
X26.604 Y-17.595
X26.637 Y-17.608
X26.671 Y-17.605
X26.701 Y-17.588
X26.721 Y-17.559
X26.725 Y-17.525
X26.715 Y-17.492
X26.69 Y-17.467
X26.658 Y-17.455
X26.624 Y-17.459
X26.594 Y-17.477
X26.576 Y-17.507
X26.572 Y-17.541
X26.576 Y-17.554
X26.58 Y-17.567
X26.591 Y-17.588
X26.596 Y-17.599
X26.604 Y-17.609
X26.63 Y-17.637
X26.643 Y-17.65
X26.666 Y-17.66
X26.692 Y-17.671
X26.72 Y-17.678
X26.748 Y-17.683
G3 X26.719 Y-17.431 I-0.014 J0.126
X26.661 Y-17.453 I0.015 J-0.126
G1 X26.629 Y-17.484
X26.61 Y-17.525
X26.606 Y-17.569
X26.618 Y-17.613
X26.643 Y-17.65
X26.683 Y-17.67
X26.696 Y-17.675
X26.709 Y-17.678
X26.748 Y-17.683
X26.761 Y-17.682
X26.801 Y-17.676
X26.814 Y-17.671
X26.84 Y-17.658
X26.854 Y-17.65
X26.867 Y-17.64
X26.885 Y-17.622
X26.901 Y-17.604
X26.92 Y-17.567
X26.925 Y-17.554
X26.928 Y-17.541
X26.932 Y-17.515
X26.94 Y-17.391
X26.946 Y-16.73
X27.24 Y13.599 F5000
G3 X26.033 Y14.704 I-1.1 J0.01
X25.342 Y14.367 I0.107 J-1.095 F1650
G1 X25.196 Y14.201
X25.132 Y14.134
X24.981 Y13.991
X24.921 Y13.94
X24.711 Y13.777
X24.501 Y13.631
X24.29 Y13.489
X24.091 Y13.36
X23.87 Y13.232
X23.707 Y13.149
X23.449 Y13.04
X23.239 Y12.977
X23.029 Y12.916
X22.818 Y12.874
X22.608 Y12.835
X22.187 Y12.764
X21.977 Y12.736
X21.346 Y12.725
X19.874
X19.553 Y12.709
X19.193 Y12.662
X18.777 Y12.573
X18.32 Y12.436
X17.809 Y12.237
X17.268 Y11.974
X16.658 Y11.615
X16.029 Y11.174
X15.387 Y10.64
X14.724 Y9.993
X14.115 Y9.295
X13.559 Y8.555
X13.055 Y7.778
X12.602 Y6.97
X12.202 Y6.134
X11.856 Y5.275
X11.563 Y4.397
X11.324 Y3.502
X11.139 Y2.594
X11.008 Y1.678
X10.93 Y0.755
X10.908 Y-0.171
X10.943 Y-1.097
X11.032 Y-2.019
X11.174 Y-2.934
X11.369 Y-3.839
X11.616 Y-4.732
X11.915 Y-5.609
X12.265 Y-6.466
X12.667 Y-7.3
X13.117 Y-8.11
X13.613 Y-8.892
X14.154 Y-9.644
X14.736 Y-10.364
X15.359 Y-11.05
X16.022 Y-11.696
X16.723 Y-12.302
X16.877 Y-12.42
X17.152 Y-12.587
X17.457 Y-12.69
X17.778 Y-12.725
X21.346
X21.977 Y-12.736
X22.187 Y-12.764
X22.424 Y-12.804
X22.544 Y-12.816
X22.665 Y-12.821
X23.208 Y-12.828
X29.816 Y-12.911 F5000
X30.251 Y-12.916 F1650
G3 X30.6 Y-12.89 I0.025 J1.999
G1 X31.02 Y-12.806
X31.231 Y-12.77
X31.441 Y-12.741
X31.651 Y-12.731
X31.861 Y-12.725
X33.754
X34.216 Y-12.702
X34.586 Y-12.653
X34.986 Y-12.568
X35.447 Y-12.43
X35.944 Y-12.236
X36.515 Y-11.959
X37.101 Y-11.614
X37.744 Y-11.163
X38.43 Y-10.593
X39.093 Y-9.946
X39.706 Y-9.252
X40.271 Y-8.518
X40.788 Y-7.75
X41.257 Y-6.951
X41.677 Y-6.126
X42.049 Y-5.278
X42.373 Y-4.41
X42.648 Y-3.526
X42.874 Y-2.628
X43.051 Y-1.719
X43.177 Y-0.801
X43.251 Y0.122
X43.274 Y1.048
X43.245 Y1.974
X43.165 Y2.897
X43.036 Y3.814
X42.857 Y4.722
X42.627 Y5.62
X42.347 Y6.503
X42.019 Y7.369
X41.643 Y8.215
X41.22 Y9.039
X40.754 Y9.839
X40.245 Y10.613
X39.694 Y11.358
X39.102 Y12.07
X38.933 Y12.252
X38.704 Y12.452
X38.44 Y12.602
X38.15 Y12.694
X37.848 Y12.725
X34.418
G3 X33.658 Y12.546 I0.07 J-1.999
X32.489 Y10.788 I0.83 J-1.82 F5000
G1 X31.825 Y-10.664
G3 X32.995 Y-12.546 I1.999 J-0.062
X33.754 Y-12.725 I0.829 J1.82 F1650
G1 X37.119
X37.406 Y-12.711
X37.701 Y-12.672
X38.052 Y-12.597
X38.434 Y-12.482
X38.851 Y-12.32
X39.315 Y-12.095
X39.818 Y-11.799
X40.351 Y-11.424
X40.936 Y-10.939
X41.553 Y-10.336
X42.162 Y-9.638
X42.715 Y-8.895
X43.215 Y-8.116
X43.664 Y-7.306
X44.065 Y-6.471
X44.42 Y-5.615
X44.729 Y-4.742
X44.993 Y-3.855
X45.213 Y-2.955
X45.387 Y-2.045
X45.516 Y-1.128
X45.598 Y-0.205
X45.634 Y0.72
X45.625 Y1.646
X45.572 Y2.571
X45.474 Y3.492
X45.333 Y4.407
X45.148 Y5.315
X44.918 Y6.212
X44.644 Y7.096
X44.326 Y7.967
X43.967 Y8.82
X43.568 Y9.656
X43.129 Y10.472
X42.652 Y11.265
X42.138 Y12.036
X42.051 Y12.148
X41.867 Y12.346
X41.65 Y12.508
X41.407 Y12.627
X41.147 Y12.7
X40.878 Y12.725
X37.848
G3 X37.088 Y12.546 I0.069 J-1.999
X35.918 Y10.794 I0.829 J-1.82 F5000
G1 X35.19 Y-10.658
G3 X36.36 Y-12.546 I1.999 J-0.068
X37.119 Y-12.725 I0.829 J1.82 F1650
G1 X40.063
X40.264 Y-12.715
X40.557 Y-12.677
X40.869 Y-12.61
X41.213 Y-12.507
X41.609 Y-12.352
X42.009 Y-12.159
X42.472 Y-11.886
X42.942 Y-11.556
X43.458 Y-11.128
X44.012 Y-10.586
X44.584 Y-9.931
X45.135 Y-9.187
X45.498 Y-8.609
X45.623 Y-8.362
X45.699 Y-8.097
X45.725 Y-7.821
G3 X42.487 Y-6.321 I-1.999 J-0.07
G1 X40.507 Y-7.884
X38.894 Y-9.156
G3 X40.063 Y-12.725 I1.239 J-1.57
G1 X42.797
X42.979 Y-12.716
X43.25 Y-12.68
X43.539 Y-12.619
X43.882 Y-12.516
X44.227 Y-12.381
X44.623 Y-12.189
X45.039 Y-11.945
X45.095 Y-11.905
X45.309 Y-11.722
X45.485 Y-11.501
X45.616 Y-11.251
X45.697 Y-10.98
X45.725 Y-10.699
G3 X45.622 Y-9.922 I-3.858 J-0.118
X45.041 Y-8.62 I-3.755 J-0.895 F5000
X40.736 Y-11.599 I-2.152 J-1.49
X42.028 Y-12.582 I2.153 J1.489
X42.797 Y-12.726 I0.861 J2.472 F1650
G1 X43.639 Y-12.725
X43.849 Y-12.722
X44.269 Y-12.711
X44.48 Y-12.699
X44.795 Y-12.658
X44.808 Y-12.656
X44.822 Y-12.651
X45.098 Y-12.536
X45.337 Y-12.353
X45.354 Y-12.337
X45.531 Y-12.105
X45.536 Y-12.097
X45.646 Y-11.834
X45.656 Y-11.808
X45.673 Y-11.677
X45.697 Y-11.466
X45.724 Y-10.835
X45.725 Y-10.414
Y8.1
X45.688 Y8.83
X45.618 Y9.369
X45.481 Y10.01
X45.258 Y10.752
X45.004 Y11.405
X44.755 Y11.919
X44.71 Y11.995
X44.527 Y12.242
X44.298 Y12.446
X44.031 Y12.599
X43.739 Y12.693
X43.433 Y12.725
G3 X42.674 Y12.546 I0.07 J-1.999
X41.511 Y10.552 I0.829 J-1.82 F5000
G1 X41.734 Y7.996
G3 X45.545 Y7.341 I1.992 J0.174
X45.724 Y8.1 I-1.819 J0.829 F1650
G1 X45.725 Y10.625
X45.724 Y10.835
X45.697 Y11.466
X45.673 Y11.677
X45.656 Y11.808
X45.624 Y11.887
X45.536 Y12.097
X45.531 Y12.105
X45.354 Y12.337
X45.337 Y12.353
X45.098 Y12.536
X44.822 Y12.651
X44.808 Y12.656
X44.795 Y12.658
X44.48 Y12.699
X44.269 Y12.711
X43.849 Y12.722
X43.639 Y12.725
X40.878
G3 X40.118 Y12.546 I0.069 J-1.999
X39.231 Y11.753 I0.829 J-1.82 F5000
G1 X25.14 Y-11.791
G3 X27.643 Y-14.658 I1.716 J-1.028
X28.287 Y-14.217 I-0.787 J1.839 F1650
G1 X28.3 Y-14.201
X28.497 Y-14.018
X28.527 Y-13.991
X28.707 Y-13.834
X28.917 Y-13.688
X29.093 Y-13.57
X29.548 Y-13.289
X29.758 Y-13.164
G3 X30.32 Y-12.622 I-1.081 J1.683
X30.535 Y-10.739 I-1.643 J1.141 F5000
G1 X21.661 Y11.468
G3 X20.633 Y12.546 I-1.857 J-0.742
X19.874 Y12.725 I-0.829 J-1.82 F1650
G1 X16.719
X16.356 Y12.707
X16.063 Y12.668
X15.713 Y12.593
X15.342 Y12.482
X14.932 Y12.323
X14.483 Y12.105
X13.997 Y11.819
X13.486 Y11.46
X12.925 Y10.994
X12.344 Y10.427
X11.762 Y9.76
X11.211 Y9.016
X10.718 Y8.232
X10.278 Y7.417
X9.891 Y6.576
X9.554 Y5.713
X9.266 Y4.833
X9.026 Y3.938
X8.836 Y3.031
X8.696 Y2.116
X8.605 Y1.194
X8.563 Y0.269
X8.569 Y-0.657
X8.622 Y-1.582
X8.721 Y-2.503
X8.867 Y-3.417
X9.061 Y-4.323
X9.301 Y-5.217
X9.587 Y-6.098
X9.919 Y-6.963
X10.294 Y-7.81
X10.711 Y-8.637
X11.169 Y-9.442
X11.666 Y-10.223
X12.204 Y-10.977
X12.78 Y-11.703
X13.238 Y-12.223
X13.469 Y-12.435
X13.74 Y-12.594
X14.038 Y-12.692
X14.35 Y-12.725
X17.778
G3 X18.537 Y-12.546 I-0.07 J1.999
X19.705 Y-10.628 I-0.829 J1.82 F5000
G1 X18.647 Y10.825
G3 X17.479 Y12.546 I-1.997 J-0.099
X16.719 Y12.725 I-0.829 J-1.82 F1650
G1 X13.775
X13.538 Y12.713
X13.247 Y12.675
X12.95 Y12.611
X12.607 Y12.509
X12.232 Y12.363
X11.836 Y12.17
X11.393 Y11.91
X10.934 Y11.587
X10.444 Y11.18
X9.914 Y10.663
X9.378 Y10.048
X8.833 Y9.313
X8.344 Y8.526
X7.912 Y7.707
X7.532 Y6.862
X7.203 Y5.997
X6.922 Y5.114
X6.688 Y4.218
X6.499 Y3.311
X6.355 Y2.397
X6.257 Y1.476
X6.203 Y0.551
X6.193 Y-0.375
X6.225 Y-1.301
X6.299 Y-2.224
X6.416 Y-3.143
X6.573 Y-4.055
X6.772 Y-4.96
X7.012 Y-5.854
X7.294 Y-6.737
X7.616 Y-7.605
X7.976 Y-8.458
X8.375 Y-9.295
X8.81 Y-10.112
X9.281 Y-10.909
X9.787 Y-11.685
X10.1 Y-12.115
X10.285 Y-12.324
X10.505 Y-12.495
X10.753 Y-12.621
X11.021 Y-12.699
X11.298 Y-12.725
X14.35
G3 X15.109 Y-12.546 I-0.07 J1.999
X16.279 Y-10.673 I-0.829 J1.82 F5000
G1 X15.705 Y10.78
G3 X14.535 Y12.547 I-2 J-0.054
X13.775 Y12.726 I-0.83 J-1.821 F1650
G1 X11.041 Y12.725
X10.87 Y12.716
X10.611 Y12.683
X10.322 Y12.621
X9.99 Y12.521
X9.655 Y12.391
X9.26 Y12.199
X8.867 Y11.968
X8.417 Y11.651
X7.972 Y11.282
X7.479 Y10.801
X6.965 Y10.212
X6.452 Y9.518
X5.962 Y8.732
X5.533 Y7.911
X5.159 Y7.064
X4.835 Y6.196
X4.559 Y5.312
X4.328 Y4.415
X4.141 Y3.508
X3.996 Y2.594
X3.893 Y1.673
X3.831 Y0.749
X3.809 Y-0.177
X3.827 Y-1.103
X3.884 Y-2.027
X3.979 Y-2.949
X4.112 Y-3.865
X4.281 Y-4.776
X4.488 Y-5.678
X4.732 Y-6.572
X5.012 Y-7.455
X5.328 Y-8.325
X5.68 Y-9.182
X6.066 Y-10.024
X6.486 Y-10.85
X6.939 Y-11.657
X7.188 Y-12.045
X7.372 Y-12.277
X7.598 Y-12.467
X7.858 Y-12.608
X8.14 Y-12.696
X8.434 Y-12.725
X11.298
G3 X12.058 Y-12.546 I-0.069 J1.999
X13.229 Y-10.702 I-0.829 J1.82 F5000
G1 X12.971 Y10.75
G3 X11.801 Y12.546 I-2 J-0.024
X11.041 Y12.725 I-0.83 J-1.82 F1650
G1 X8.517
X8.299 Y12.714
X8.055 Y12.682
X7.767 Y12.62
X7.461 Y12.529
X7.127 Y12.399
X6.753 Y12.217
X6.374 Y11.994
X5.943 Y11.691
X5.511 Y11.333
X5.045 Y10.878
X4.55 Y10.311
X4.053 Y9.64
X3.564 Y8.853
X3.138 Y8.031
X2.767 Y7.182
X2.448 Y6.313
X2.177 Y5.427
X1.95 Y4.529
X1.765 Y3.622
X1.62 Y2.707
X1.515 Y1.787
X1.448 Y0.863
X1.419 Y-0.063
X1.427 Y-0.989
X1.471 Y-1.914
X1.551 Y-2.837
X1.665 Y-3.756
X1.814 Y-4.67
X1.997 Y-5.578
X2.213 Y-6.478
X2.462 Y-7.37
X2.744 Y-8.253
X3.058 Y-9.124
X3.405 Y-9.983
X3.783 Y-10.828
X4.198 Y-11.656
X4.53 Y-12.207
X4.621 Y-12.334
X4.7 Y-12.435
X4.788 Y-12.528
X4.883 Y-12.614
X4.942 Y-12.662
X4.995 Y-12.711
X5.008 Y-12.721
X5.021 Y-12.725
X8.434
G3 X9.194 Y-12.546 I-0.07 J1.999
X10.364 Y-10.734 I-0.83 J1.82 F5000
G1 X10.448 Y10.718
G3 X9.277 Y12.546 I-2 J0.008
X8.517 Y12.725 I-0.829 J-1.82 F1650
G1 X5.994
X5.798 Y12.715
X5.555 Y12.683
X5.268 Y12.622
X4.978 Y12.535
X4.78 Y12.458
X4.676 Y12.413
X4.576 Y12.36
X4.48 Y12.299
G3 X3.567 Y9.635 I1.473 J-1.993
X8.251 Y10.952 I2.342 J0.658
X5.994 Y12.724 I-2.342 J-0.659
G1 X5.021 Y12.725
X5.008 Y12.721
X4.995 Y12.711
X4.942 Y12.662
X4.767 Y12.518
X4.522 Y12.328
X4.101 Y12.04
X3.876 Y11.887
X3.362 Y11.518
X2.928 Y11.15
X2.501 Y10.725
X2.038 Y10.183
X1.556 Y9.518
X1.074 Y8.727
X0.657 Y7.9
X0.298 Y7.046
X-0.009 Y6.172
X-0.269 Y5.283
X-0.484 Y4.382
X-0.658 Y3.473
X-0.793 Y2.557
X-0.891 Y1.636
X-0.952 Y0.711
X-0.979 Y-0.214
X-0.971 Y-1.141
X-0.929 Y-2.066
X-0.855 Y-2.989
X-0.748 Y-3.909
X-0.609 Y-4.825
X-0.438 Y-5.735
X-0.236 Y-6.639
X-0.004 Y-7.535
X0.259 Y-8.423
X0.552 Y-9.302
X0.841 Y-10.081
X0.958 Y-10.326
X1.118 Y-10.545
X1.315 Y-10.731
X1.543 Y-10.878
X1.793 Y-10.981
X2.419 Y-11.174
X2.645 Y-11.256
X3.049 Y-11.405
X3.197 Y-11.466
X3.26 Y-11.498
X3.47 Y-11.627
X3.68 Y-11.761
X3.891 Y-11.897
X4.492 Y-12.308
X4.522 Y-12.328
X4.767 Y-12.518
X4.883 Y-12.614
G3 X5.58 Y-12.509 I0.298 J0.389
X5.67 Y-12.204 I-0.399 J0.284 F5000
G1 X4.615 Y11.489
X4.606 Y11.563
X4.586 Y11.634
X4.555 Y11.702
G3 X3.877 Y11.886 I-0.428 J-0.235 F1650
G1 X3.68 Y11.761
X3.47 Y11.627
X3.26 Y11.498
X3.197 Y11.466
X3.049 Y11.405
X2.629 Y11.25
X2.419 Y11.174
X1.788 Y10.98
X1.577 Y10.924
X1.434 Y10.879
X1.199 Y10.784
X0.932 Y10.649
X0.63 Y10.465
X0.327 Y10.245
X-0.021 Y9.947
X-0.367 Y9.599
X-0.751 Y9.145
X-1.145 Y8.595
X-1.547 Y7.926
X-1.959 Y7.097
X-2.303 Y6.237
X-2.589 Y5.356
X-2.824 Y4.46
X-3.012 Y3.553
X-3.159 Y2.639
X-3.267 Y1.719
X-3.339 Y0.796
X-3.375 Y-0.13
X-3.378 Y-1.056
X-3.348 Y-1.982
X-3.287 Y-2.906
X-3.194 Y-3.827
X-3.071 Y-4.745
X-2.918 Y-5.659
X-2.736 Y-6.567
X-2.526 Y-7.469
X-2.288 Y-8.364
X-2.018 Y-9.25
X-1.785 Y-9.844
X-1.741 Y-9.935
X-1.591 Y-10.179
X-1.397 Y-10.389
X-1.166 Y-10.559
X-0.907 Y-10.681
X-0.63 Y-10.75
X-0.344 Y-10.765
X-0.315 Y-10.764
X0.315
X0.526 Y-10.774
X0.946 Y-10.796
X1.157 Y-10.818
X1.231 Y-10.835
X1.577 Y-10.924
X1.793 Y-10.981
G3 X2.572 Y-11.034 I0.523 J1.93
X4.315 Y-9.016 I-0.256 J1.983 F5000
G1 X4.005 Y9.004
G3 X2.358 Y10.939 I-2 J-0.034
X1.577 Y10.924 I-0.353 J-1.969 F1650
G1 X1.231 Y10.835
X1.157 Y10.818
X0.946 Y10.796
X0.526 Y10.774
X0.315 Y10.764
X0.105
X-0.179 Y10.75
X-0.372 Y10.725
X-0.601 Y10.676
X-0.835 Y10.606
X-1.1 Y10.502
X-1.392 Y10.36
X-1.69 Y10.185
X-2.035 Y9.943
X-2.368 Y9.666
X-2.745 Y9.298
X-3.113 Y8.877
X-3.511 Y8.338
X-3.918 Y7.685
X-4.317 Y6.911
X-4.674 Y6.057
X-4.969 Y5.179
X-5.21 Y4.284
X-5.403 Y3.378
X-5.552 Y2.464
X-5.662 Y1.545
X-5.735 Y0.621
X-5.774 Y-0.304
X-5.779 Y-1.23
X-5.753 Y-2.156
X-5.696 Y-3.08
X-5.611 Y-4.003
X-5.495 Y-4.922
X-5.352 Y-5.836
X-5.181 Y-6.747
X-4.982 Y-7.651
X-4.748 Y-8.548
X-4.52 Y-9.242
X-4.298 Y-9.772
X-4.078 Y-10.197
X-3.851 Y-10.56
X-3.838 Y-10.577
X-3.633 Y-10.801
X-3.387 Y-10.979
X-3.11 Y-11.103
X-2.813 Y-11.167
X-2.51 Y-11.17
X-2.212 Y-11.11
X-1.788 Y-10.98
X-1.577 Y-10.924
X-1.231 Y-10.835
X-1.157 Y-10.818
X-0.946 Y-10.796
X-0.526 Y-10.774
X-0.344 Y-10.765
G3 X0.407 Y-10.553 I-0.158 J1.993
X1.497 Y-8.833 I-0.909 J1.781 F5000
G1 X2.034 Y8.704
