%
(outer_profile_roughing_and_finishing)
(T2  D=6.35 CR=0 - ZMIN=-51 - flat end mill)
G90
G17
G21
G28 G91 Z0
G90

(2D Contour1)
T2 M6
S20000 M3
G54
M7
G0 X-41.731 Y-28.375
Z5
G1 Z3 F800
Z2.5
X-51 Z2.176
G2 X-61.375 Y-18 Z1.607 I0 J10.375
G1 Y18 Z0.35
G2 X-51 Y28.375 Z-0.219 I10.375 J0
G1 X0 Z-2
X51 F1600
G2 X61.375 Y18 I0 J-10.375
G1 Y-18
G2 X51 Y-28.375 I-10.375 J0
G1 X-51
G2 X-61.375 Y-18 I0 J10.375
G1 Y18
G2 X-51 Y28.375 I10.375 J0
G1 X0
X51 Z-3.781 F800
G2 X56.897 Y26.536 Z-4 I0 J-10.375
X61.375 Y18 I-5.897 J-8.536 F1600
G1 Y-18
G2 X51 Y-28.375 I-10.375 J0
G1 X-51
G2 X-61.375 Y-18 I0 J10.375
G1 Y18
G2 X-51 Y28.375 I10.375 J0
G1 X51
G2 X56.897 Y26.536 I0 J-10.375
X61.375 Y18 Z-4.35 I-5.897 J-8.536 F800
G1 Y-18 Z-5.607
G2 X55.852 Y-27.171 Z-6 I-10.375 J0
X51 Y-28.375 I-4.852 J9.171 F1600
G1 X-51
G2 X-61.375 Y-18 I0 J10.375
G1 Y18
G2 X-51 Y28.375 I10.375 J0
G1 X51
G2 X61.375 Y18 I0 J-10.375
G1 Y-18
G2 X55.852 Y-27.171 I-10.375 J0
X51 Y-28.375 Z-6.176 I-4.852 J9.171 F800
G1 X-1.223 Z-8
X-51 F1600
G2 X-61.375 Y-18 I0 J10.375
G1 Y18
G2 X-51 Y28.375 I10.375 J0
G1 X51
G2 X61.375 Y18 I0 J-10.375
G1 Y-18
G2 X51 Y-28.375 I-10.375 J0
G1 X-1.223
X-51 Z-9.738 F800
G2 X-57.861 Y-25.783 Z-10 I0 J10.375
X-61.375 Y-18 I6.861 J7.783 F1600
G1 Y18
G2 X-51 Y28.375 I10.375 J0
G1 X51
G2 X61.375 Y18 I0 J-10.375
G1 Y-18
G2 X51 Y-28.375 I-10.375 J0
G1 X-1.223
X-51
G2 X-57.861 Y-25.783 I0 J10.375
X-61.375 Y-18 Z-10.307 I6.861 J7.783 F800
G1 Y18 Z-11.564
G2 X-54.739 Y27.678 Z-12 I10.375 J0
X-51 Y28.375 I3.739 J-9.678 F1600
G1 X51
G2 X61.375 Y18 I0 J-10.375
G1 Y-18
G2 X51 Y-28.375 I-10.375 J0
G1 X-51
G2 X-61.375 Y-18 I0 J10.375
G1 Y18
G2 X-54.739 Y27.678 I10.375 J0
X-51 Y28.375 Z-12.134 I3.739 J-9.678 F800
G1 X2.447 Z-14
X51 F1600
G2 X61.375 Y18 I0 J-10.375
G1 Y-18
G2 X51 Y-28.375 I-10.375 J0
G1 X-51
G2 X-61.375 Y-18 I0 J10.375
G1 Y18
G2 X-51 Y28.375 I10.375 J0
G1 X2.447
X51 Z-15.696 F800
G2 X58.729 Y24.922 Z-16 I0 J-10.375
X61.376 Y18 I-7.729 J-6.922 F1600
G1 X61.375 Y-18
G2 X51 Y-28.375 I-10.375 J0
G1 X-51
G2 X-61.375 Y-18 I0 J10.375
G1 Y18
G2 X-51 Y28.375 I10.375 J0
G1 X2.447
X51
G2 X58.729 Y24.922 I0 J-10.375
X61.376 Y18 Z-16.265 I-7.729 J-6.922 F800
G1 X61.375 Y-18 Z-17.522
G2 X53.575 Y-28.05 Z-18 I-10.375 J0
X51 Y-28.375 I-2.575 J10.05 F1600
G1 X-51
G2 X-61.375 Y-18 I0 J10.375
G1 Y18
G2 X-51 Y28.375 I10.375 J0
G1 X51
G2 X61.375 Y18 I0 J-10.375
G1 Y-18
G2 X53.575 Y-28.05 I-10.375 J0
X51 Y-28.375 Z-18.091 I-2.575 J10.05 F800
G1 X-3.67 Z-20
X-51 F1600
G2 X-61.375 Y-18 I0 J10.375
G1 Y18
G2 X-51 Y28.375 I10.375 J0
G1 X51
G2 X61.375 Y18 I0 J-10.375
G1 Y-18
G2 X51 Y-28.375 I-10.375 J0
G1 X-3.67
X-51 Z-21.653 F800
G2 X-59.489 Y-23.964 Z-22 I0 J10.375
X-61.375 Y-18 I8.489 J5.964 F1600
G1 Y18
G2 X-51 Y28.375 I10.375 J0
G1 X51
G2 X61.375 Y18 I0 J-10.375
G1 Y-18
G2 X51 Y-28.375 I-10.375 J0
G1 X-3.67
X-51
G2 X-59.489 Y-23.964 I0 J10.375
X-61.375 Y-18 Z-22.222 I8.489 J5.964 F800
G1 Y18 Z-23.479
G2 X-52.374 Y28.284 Z-24 I10.375 J0
X-51 Y28.375 I1.374 J-10.284 F1600
G1 X51
G2 X61.375 Y18 I0 J-10.375
G1 Y-18
G2 X51 Y-28.375 I-10.375 J0
G1 X-51
G2 X-61.375 Y-18 I0 J10.375
G1 Y18
G2 X-52.374 Y28.284 I10.375 J0
X-51 Y28.375 Z-24.048 I1.374 J-10.284 F800
G1 X4.894 Z-26
X51 F1600
G2 X61.375 Y18 I0 J-10.375
G1 Y-18
G2 X51 Y-28.375 I-10.375 J0
G1 X-51
G2 X-61.375 Y-18 I0 J10.375
G1 Y18
G2 X-51 Y28.375 I10.375 J0
G1 X4.894
X51 Z-27.61 F800
G2 X60.132 Y22.924 Z-28 I0 J-10.375
X61.375 Y18 I-9.132 J-4.924 F1600
G1 Y-18
G2 X51 Y-28.375 I-10.375 J0
G1 X-51
G2 X-61.375 Y-18 I0 J10.375
G1 Y18
G2 X-51 Y28.375 I10.375 J0
G1 X4.894
X51
G2 X60.132 Y22.924 I0 J-10.375
X61.375 Y18 Z-28.179 I-9.132 J-4.924 F800
G1 Y-18 Z-29.436
G2 X51.155 Y-28.374 Z-30 I-10.375 J0
G1 X51 Y-28.375 F1600
X-51
G2 X-61.375 Y-18 I0 J10.375
G1 Y18
G2 X-51 Y28.375 I10.375 J0
G1 X51
G2 X61.375 Y18 I0 J-10.375
G1 Y-18
G2 X51.155 Y-28.374 I-10.375 J0
G1 X51 Y-28.375 Z-30.005 F800
X-6.117 Z-32
X-51 F1600
G2 X-61.375 Y-18 I0 J10.375
G1 Y18
G2 X-51 Y28.375 I10.375 J0
G1 X51
G2 X61.375 Y18 I0 J-10.375
G1 Y-18
G2 X51 Y-28.375 I-10.375 J0
G1 X-6.117
X-51 Z-33.567 F800
G2 X-60.648 Y-21.815 Z-34 I0 J10.375
X-61.375 Y-18 I9.648 J3.815 F1600
G1 Y18
G2 X-51 Y28.375 I10.375 J0
G1 X51
G2 X61.375 Y18 I0 J-10.375
G1 Y-18
G2 X51 Y-28.375 I-10.375 J0
G1 X-6.117
X-51
G2 X-60.648 Y-21.815 I0 J10.375
X-61.375 Y-18 Z-34.136 I9.648 J3.815 F800
G1 Y18 Z-35.394
G2 X-51 Y28.375 Z-35.963 I10.375 J0
G1 X-49.932 Z-36
X51 F1600
G2 X61.375 Y18 I0 J-10.375
G1 Y-18
G2 X51 Y-28.375 I-10.375 J0
G1 X-51
G2 X-61.375 Y-18 I0 J10.375
G1 Y18
G2 X-51 Y28.375 I10.375 J0
G1 X-49.932
X7.341 Z-38 F800
X51 F1600
G2 X61.375 Y18 I0 J-10.375
G1 Y-18
G2 X51 Y-28.375 I-10.375 J0
G1 X-51
G2 X-61.375 Y-18 I0 J10.375
G1 Y18
G2 X-51 Y28.375 I10.375 J0
G1 X7.341
X51 Z-39.525 F800
G2 X61.03 Y20.654 Z-40 I0 J-10.375
X61.375 Y18 I-10.03 J-2.654 F1600
G1 Y-18
G2 X51 Y-28.375 I-10.375 J0
G1 X-51
G2 X-61.375 Y-18 I0 J10.375
G1 Y18
G2 X-51 Y28.375 I10.375 J0
G1 X7.341
X51
G2 X61.03 Y20.654 I0 J-10.375
X61.375 Y18 Z-40.094 I-10.03 J-2.654 F800
G1 Y-18 Z-41.351
G2 X51 Y-28.375 Z-41.92 I-10.375 J0
G1 X48.708 Z-42
X-51 F1600
G2 X-61.375 Y-18 I0 J10.375
G1 Y18
G2 X-51 Y28.375 I10.375 J0
G1 X51
G2 X61.375 Y18 I0 J-10.375
G1 Y-18
G2 X51 Y-28.375 I-10.375 J0
G1 X48.708
X-8.564 Z-44 F800
X-51 F1600
G2 X-61.375 Y-18 I0 J10.375
G1 Y18
G2 X-51 Y28.375 I10.375 J0
G1 X51
G2 X61.375 Y18 I0 J-10.375
G1 Y-18
G2 X51 Y-28.375 I-10.375 J0
G1 X-8.564
X-51 Z-45.482 F800
G2 X-61.272 Y-19.455 Z-46 I0 J10.375
X-61.375 Y-18 I10.272 J1.455 F1600
G1 Y18
G2 X-51 Y28.375 I10.375 J0
G1 X51
G2 X61.375 Y18 I0 J-10.375
G1 Y-18
G2 X51 Y-28.375 I-10.375 J0
G1 X-8.564
X-51
G2 X-61.272 Y-19.455 I0 J10.375
X-61.375 Y-18 Z-46.051 I10.272 J1.455 F800
G1 Y18 Z-47.308
G2 X-51 Y28.375 Z-47.877 I10.375 J0
G1 X-47.485 Z-48
X51 F1600
G2 X61.375 Y18 I0 J-10.375
G1 Y-18
G2 X51 Y-28.375 I-10.375 J0
G1 X-51
G2 X-61.375 Y-18 I0 J10.375
G1 Y18
G2 X-51 Y28.375 I10.375 J0
G1 X-47.485
X9.788 Z-50 F800
X51 F1600
G2 X61.375 Y18 I0 J-10.375
G1 Y-18
G2 X51 Y-28.375 I-10.375 J0
G1 X-51
G2 X-61.375 Y-18 I0 J10.375
G1 Y18
G2 X-51 Y28.375 I10.375 J0
G1 X9.788
X38.424 Z-51 F800
X51 F1600
G2 X61.375 Y18 I0 J-10.375
G1 Y-18
G2 X51 Y-28.375 I-10.375 J0
G1 X-51
G2 X-61.375 Y-18 I0 J10.375
G1 Y18
G2 X-51 Y28.375 I10.375 J0
G1 X9.788
X38.424
G3 X39.059 Y29.01 I0 J0.635
G1 Y29.645
G19 G3 Y30.28 Z-50.365 J0 K0.635
G0 Z5
G17

(2D Contour1 2)
G0 Z6
X44.492 Y-28.275
G1 Z2.5 F800
X-51 Z-0.835
G2 X-61.275 Y-18 Z-1.398 I0 J10.275
G1 Y18 Z-2.655
G2 X-51 Y28.275 Z-3.219 I10.275 J0
G1 X0 Z-5
X51 F1600
G2 X61.275 Y18 I0 J-10.275
G1 Y-18
G2 X51 Y-28.275 I-10.275 J0
G1 X-51
G2 X-61.275 Y-18 I0 J10.275
G1 Y18
G2 X-51 Y28.275 I10.275 J0
G1 X0
X51 Z-6.781 F800
G2 X61.275 Y18 Z-7.345 I0 J-10.275
G1 Y-18 Z-8.602
G2 X51 Y-28.275 Z-9.165 I-10.275 J0
G1 X27.099 Z-10
X-51 F1600
G2 X-61.275 Y-18 I0 J10.275
G1 Y18
G2 X-51 Y28.275 I10.275 J0
G1 X51
G2 X61.275 Y18 I0 J-10.275
G1 Y-18
G2 X51 Y-28.275 I-10.275 J0
G1 X27.099
X-51 Z-12.727 F800
G2 X-61.275 Y-18 Z-13.291 I0 J10.275
G1 Y18 Z-14.548
G2 X-54.146 Y27.782 Z-15 I10.275 J0
X-51 Y28.275 I3.146 J-9.782 F1600
G1 X51
G2 X61.275 Y18 I0 J-10.275
G1 Y-18
G2 X51 Y-28.275 I-10.275 J0
G1 X-51
G2 X-61.275 Y-18 I0 J10.275
G1 Y18
G2 X-54.146 Y27.782 I10.275 J0
X-51 Y28.275 Z-15.112 I3.146 J-9.782 F800
G1 X51 Z-18.674
G2 X61.275 Y18 Z-19.237 I0 J-10.275
G1 Y-3.844 Z-20
Y-18 F1600
G2 X51 Y-28.275 I-10.275 J0
G1 X-51
G2 X-61.275 Y-18 I0 J10.275
G1 Y18
G2 X-51 Y28.275 I10.275 J0
G1 X51
G2 X61.275 Y18 I0 J-10.275
G1 Y-3.844
Y-18 Z-20.494 F800
G2 X51 Y-28.275 Z-21.058 I-10.275 J0
G1 X-51 Z-24.62
G2 X-59.961 Y-23.028 Z-25 I0 J10.275
X-61.275 Y-18 I8.961 J5.028 F1600
G1 Y18
G2 X-51 Y28.275 I10.275 J0
G1 X51
G2 X61.275 Y18 I0 J-10.275
G1 Y-3.844
Y-18
G2 X51 Y-28.275 I-10.275 J0
G1 X-51
G2 X-59.961 Y-23.028 I0 J10.275
X-61.275 Y-18 Z-25.183 I8.961 J5.028 F800
G1 Y18 Z-26.441
G2 X-51 Y28.275 Z-27.004 I10.275 J0
G1 X34.787 Z-30
X51 F1600
G2 X61.275 Y18 I0 J-10.275
G1 Y-18
G2 X51 Y-28.275 I-10.275 J0
G1 X-51
G2 X-61.275 Y-18 I0 J10.275
G1 Y18
G2 X-51 Y28.275 I10.275 J0
G1 X34.787
X51 Z-30.566 F800
G2 X61.275 Y18 Z-31.13 I0 J-10.275
G1 Y-18 Z-32.387
G2 X51 Y-28.275 Z-32.951 I-10.275 J0
G1 X-7.688 Z-35
X-51 F1600
G2 X-61.275 Y-18 I0 J10.275
G1 Y18
G2 X-51 Y28.275 I10.275 J0
G1 X34.787
X51
G2 X61.275 Y18 I0 J-10.275
G1 Y-18
G2 X51 Y-28.275 I-10.275 J0
G1 X-7.688
X-51 Z-36.512 F800
G2 X-61.275 Y-18 Z-37.076 I0 J10.275
G1 Y18 Z-38.333
G2 X-51 Y28.275 Z-38.897 I10.275 J0
G1 X-19.41 Z-40
X51 F1600
G2 X61.275 Y18 I0 J-10.275
G1 Y-18
G2 X51 Y-28.275 I-10.275 J0
G1 X-7.688
X-51
G2 X-61.275 Y-18 I0 J10.275
G1 Y18
G2 X-51 Y28.275 I10.275 J0
G1 X-19.41
X51 Z-42.459 F800
G2 X61.275 Y18 Z-43.022 I0 J-10.275
G1 Y-18 Z-44.28
G2 X51 Y-28.275 Z-44.843 I-10.275 J0
G1 X46.509 Z-45
X-51 F1600
G2 X-61.275 Y-18 I0 J10.275
G1 Y18
G2 X-51 Y28.275 I10.275 J0
G1 X51
G2 X61.275 Y18 I0 J-10.275
G1 Y-18
G2 X51 Y-28.275 I-10.275 J0
G1 X46.509
X-39.4 Z-48 F800
X-51 F1600
G2 X-61.275 Y-18 I0 J10.275
G1 Y18
G2 X-51 Y28.275 I10.275 J0
G1 X51
G2 X61.275 Y18 I0 J-10.275
G1 Y-18
G2 X51 Y-28.275 I-10.275 J0
G1 X-39.4
X-51 Z-48.405 F800
G2 X-61.275 Y-18 Z-48.969 I0 J10.275
G1 Y18 Z-50.226
G2 X-51 Y28.275 Z-50.789 I10.275 J0
G1 X-44.971 Z-51
X51 F1600
G2 X61.275 Y18 I0 J-10.275
G1 Y-18
G2 X51 Y-28.275 I-10.275 J0
G1 X-39.4
X-51
G2 X-61.275 Y-18 I0 J10.275
G1 Y18
G2 X-51 Y28.275 I10.275 J0
G1 X-44.971
G3 X-44.336 Y28.91 I0 J0.635
G1 Y29.545
G19 G3 Y30.18 Z-50.365 J0 K0.635
G0 Z6
G17

(2D Contour1 3)
G0 X44.806 Y-28.175
G1 Z6 F800
Z2.5
X-51 Z-0.846
G2 X-61.175 Y-18 Z-1.404 I0 J10.175
G1 Y18 Z-2.661
G2 X-51 Y28.175 Z-3.219 I10.175 J0
G1 X0 Z-5
X51 F1600
G2 X61.175 Y18 I0 J-10.175
G1 Y-18
G2 X51 Y-28.175 I-10.175 J0
G1 X-51
G2 X-61.175 Y-18 I0 J10.175
G1 Y18
G2 X-51 Y28.175 I10.175 J0
G1 X0
X51 Z-6.781 F800
G2 X61.175 Y18 Z-7.339 I0 J-10.175
G1 Y-18 Z-8.596
G2 X51 Y-28.175 Z-9.154 I-10.175 J0
G1 X26.784 Z-10
X-51 F1600
G2 X-61.175 Y-18 I0 J10.175
G1 Y18
G2 X-51 Y28.175 I10.175 J0
G1 X51
G2 X61.175 Y18 I0 J-10.175
G1 Y-18
G2 X51 Y-28.175 I-10.175 J0
G1 X26.784
X-51 Z-12.716 F800
G2 X-61.175 Y-18 Z-13.274 I0 J10.175
G1 Y18 Z-14.532
G2 X-53.542 Y27.852 Z-15 I10.175 J0
X-51 Y28.175 I2.542 J-9.852 F1600
G1 X51
G2 X61.175 Y18 I0 J-10.175
G1 Y-18
G2 X51 Y-28.175 I-10.175 J0
G1 X-51
G2 X-61.175 Y-18 I0 J10.175
G1 Y18
G2 X-53.542 Y27.852 I10.175 J0
X-51 Y28.175 Z-15.09 I2.542 J-9.852 F800
G1 X51 Z-18.652
G2 X61.175 Y18 Z-19.21 I0 J-10.175
G1 Y-4.63 Z-20
Y-18 F1600
G2 X51 Y-28.175 I-10.175 J0
G1 X-51
G2 X-61.175 Y-18 I0 J10.175
G1 Y18
G2 X-51 Y28.175 I10.175 J0
G1 X51
G2 X61.175 Y18 I0 J-10.175
G1 Y-4.63
Y-18 Z-20.467 F800
G2 X51 Y-28.175 Z-21.025 I-10.175 J0
G1 X-51 Z-24.587
G2 X-60.338 Y-22.04 Z-25 I0 J10.175
X-61.174 Y-18 I9.338 J4.04 F1600
G1 X-61.175 Y18
G2 X-51 Y28.175 I10.175 J0
G1 X51
G2 X61.175 Y18 I0 J-10.175
G1 Y-4.63
Y-18
G2 X51 Y-28.175 I-10.175 J0
G1 X-51
G2 X-60.338 Y-22.04 I0 J10.175
X-61.174 Y-18 Z-25.145 I9.338 J4.04 F800
G1 X-61.175 Y18 Z-26.402
G2 X-51 Y28.175 Z-26.96 I10.175 J0
G1 X36.044 Z-30
X51 F1600
G2 X61.175 Y18 I0 J-10.175
G1 Y-18
G2 X51 Y-28.175 I-10.175 J0
G1 X-51
G2 X-61.175 Y-18 I0 J10.175
G1 Y18
G2 X-51 Y28.175 I10.175 J0
G1 X36.044
X51 Z-30.522 F800
G2 X61.175 Y18 Z-31.08 I0 J-10.175
G1 Y-18 Z-32.338
G2 X51 Y-28.175 Z-32.896 I-10.175 J0
G1 X-9.259 Z-35
X-51 F1600
G2 X-61.175 Y-18 I0 J10.175
G1 Y18
G2 X-51 Y28.175 I10.175 J0
G1 X36.044
X51
G2 X61.175 Y18 I0 J-10.175
G1 Y-18
G2 X51 Y-28.175 I-10.175 J0
G1 X-9.259
X-51 Z-36.458 F800
G2 X-61.175 Y-18 Z-37.016 I0 J10.175
G1 Y18 Z-38.273
G2 X-51 Y28.175 Z-38.831 I10.175 J0
G1 X-17.525 Z-40
X51 F1600
G2 X61.175 Y18 I0 J-10.175
G1 Y-18
G2 X51 Y-28.175 I-10.175 J0
G1 X-9.259
X-51
G2 X-61.175 Y-18 I0 J10.175
G1 Y18
G2 X-51 Y28.175 I10.175 J0
G1 X-17.525
X51 Z-42.393 F800
G2 X61.175 Y18 Z-42.951 I0 J-10.175
G1 Y-18 Z-44.208
G2 X51 Y-28.175 Z-44.766 I-10.175 J0
G1 X44.31 Z-45
X-51 F1600
G2 X-61.175 Y-18 I0 J10.175
G1 Y18
G2 X-51 Y28.175 I10.175 J0
G1 X51
G2 X61.175 Y18 I0 J-10.175
G1 Y-18
G2 X51 Y-28.175 I-10.175 J0
G1 X44.31
X-41.599 Z-48 F800
X-51 F1600
G2 X-61.175 Y-18 I0 J10.175
G1 Y18
G2 X-51 Y28.175 I10.175 J0
G1 X51
G2 X61.175 Y18 I0 J-10.175
G1 Y-18
G2 X51 Y-28.175 I-10.175 J0
G1 X-41.599
X-51 Z-48.328 F800
G2 X-61.175 Y-18 Z-48.886 I0 J10.175
G1 Y18 Z-50.144
G2 X-51 Y28.175 Z-50.702 I10.175 J0
G1 X-42.458 Z-51
X51 F1600
G2 X61.175 Y18 I0 J-10.175
G1 Y-18
G2 X51 Y-28.175 I-10.175 J0
G1 X-41.599
X-51
G2 X-61.175 Y-18 I0 J10.175
G1 Y18
G2 X-51 Y28.175 I10.175 J0
G1 X-42.458
G3 X-41.823 Y28.81 I0 J0.635
G1 Y29.445
G19 G3 Y30.08 Z-50.365 J0 K0.635
G0 Z6
G17
M9
G28 G91 Z0
G90
G28 G91 X0 Y0
G90
M30
%
