%
(back_panel_all_milling_3x)
(1/8" end mill. Starts 1mm above 1.6mm work piece and goes 1mm below.)
(T3  D=3.175 CR=0 - ZMIN=-2.6 - flat end mill)
G90
G17
G21
G28 G91 Z0
G90

(2D Pocket1)
T3 M6
S10000 M3
G54
M7
G0 X-41.229 Y-9.958
Z15
Z2.818
G1 Z2.817 F500
X-41.21 Y-9.971 Z2.698 F233.33
X-41.154 Y-10.005 Z2.597
X-41.066 Y-10.052 Z2.527
X-40.958 Y-10.1 Z2.5
G3 X-39.838 Y-7.3 Z2.335 I0.56 J1.4
X-40.958 Y-10.1 Z2.169 I-0.56 J-1.4
X-39.838 Y-7.3 Z2.004 I0.56 J1.4
X-40.958 Y-10.1 Z1.838 I-0.56 J-1.4
X-39.838 Y-7.3 Z1.673 I0.56 J1.4
X-40.958 Y-10.1 Z1.507 I-0.56 J-1.4
X-39.838 Y-7.3 Z1.342 I0.56 J1.4
X-40.958 Y-10.1 Z1.176 I-0.56 J-1.4
X-39.838 Y-7.3 Z1.011 I0.56 J1.4
X-40.958 Y-10.1 Z0.845 I-0.56 J-1.4
X-39.838 Y-7.3 Z0.68 I0.56 J1.4
X-40.958 Y-10.1 Z0.515 I-0.56 J-1.4
X-39.838 Y-7.3 Z0.349 I0.56 J1.4
X-40.958 Y-10.1 Z0.184 I-0.56 J-1.4
X-39.838 Y-7.3 Z0.018 I0.56 J1.4
X-40.958 Y-10.1 Z-0.147 I-0.56 J-1.4
X-38.89 Y-8.7 Z-0.25 I0.56 J1.4
X-40.746 I-0.928 J0
X-38.838 I0.954 J0 F500
X-43.762 I-2.462 J0
X-38.838 I2.462 J0
G1 X-38.844 Y-8.648
X-38.864 Y-8.6
X-38.896 Y-8.558
X-40.212 Y-7.251
X-40.251 Y-7.22
X-40.297 Y-7.201
X-40.346 Y-7.193
G3 X-40.45 Y-10.207 Z-0.415 I-0.052 J-1.507 F233.33
X-38.89 Y-8.7 Z-0.5 I0.052 J1.507
X-40.746 I-0.928 J0
X-38.838 I0.954 J0 F500
X-43.762 I-2.462 J0
X-38.838 I2.462 J0
G1 X-38.844 Y-8.648
X-38.864 Y-8.6
X-38.896 Y-8.558
X-40.212 Y-7.251
X-40.251 Y-7.22
X-40.297 Y-7.201
X-40.346 Y-7.193
G3 X-40.45 Y-10.207 Z-0.665 I-0.052 J-1.507 F233.33
X-38.89 Y-8.7 Z-0.75 I0.052 J1.507
X-40.746 I-0.928 J0
X-38.838 I0.954 J0 F500
X-43.762 I-2.462 J0
X-38.838 I2.462 J0
G1 X-38.844 Y-8.648
X-38.864 Y-8.6
X-38.896 Y-8.558
X-40.212 Y-7.251
X-40.251 Y-7.22
X-40.297 Y-7.201
X-40.346 Y-7.193
G3 X-40.45 Y-10.207 Z-0.915 I-0.052 J-1.507 F233.33
X-38.89 Y-8.7 Z-1 I0.052 J1.507
X-40.746 I-0.928 J0
X-38.838 I0.954 J0 F500
X-43.762 I-2.462 J0
X-38.838 I2.462 J0
G1 X-38.844 Y-8.648
X-38.864 Y-8.6
X-38.896 Y-8.558
X-40.212 Y-7.251
X-40.251 Y-7.22
X-40.297 Y-7.201
X-40.346 Y-7.193
G3 X-40.45 Y-10.207 Z-1.165 I-0.052 J-1.507 F233.33
X-38.89 Y-8.7 Z-1.25 I0.052 J1.507
X-40.746 I-0.928 J0
X-38.838 I0.954 J0 F500
X-43.762 I-2.462 J0
X-38.838 I2.462 J0
G1 X-38.844 Y-8.648
X-38.864 Y-8.6
X-38.896 Y-8.558
X-40.212 Y-7.251
X-40.251 Y-7.22
X-40.297 Y-7.201
X-40.346 Y-7.193
G3 X-40.45 Y-10.207 Z-1.415 I-0.052 J-1.507 F233.33
X-38.89 Y-8.7 Z-1.5 I0.052 J1.507
X-40.746 I-0.928 J0
X-38.838 I0.954 J0 F500
X-43.762 I-2.462 J0
X-38.838 I2.462 J0
G1 X-38.844 Y-8.648
X-38.864 Y-8.6
X-38.896 Y-8.558
X-40.212 Y-7.251
X-40.251 Y-7.22
X-40.297 Y-7.201
X-40.346 Y-7.193
G3 X-40.45 Y-10.207 Z-1.665 I-0.052 J-1.507 F233.33
X-38.89 Y-8.7 Z-1.75 I0.052 J1.507
X-40.746 I-0.928 J0
X-38.838 I0.954 J0 F500
X-43.762 I-2.462 J0
X-38.838 I2.462 J0
G1 X-38.844 Y-8.648
X-38.864 Y-8.6
X-38.896 Y-8.558
X-40.212 Y-7.251
X-40.251 Y-7.22
X-40.297 Y-7.201
X-40.346 Y-7.193
G3 X-40.45 Y-10.207 Z-1.915 I-0.052 J-1.507 F233.33
X-38.89 Y-8.7 Z-2 I0.052 J1.507
X-40.746 I-0.928 J0
X-38.838 I0.954 J0 F500
X-43.762 I-2.462 J0
X-38.838 I2.462 J0
G1 X-38.844 Y-8.648
X-38.864 Y-8.6
X-38.896 Y-8.558
X-40.212 Y-7.251
X-40.251 Y-7.22
X-40.297 Y-7.201
X-40.346 Y-7.193
G3 X-40.45 Y-10.207 Z-2.165 I-0.052 J-1.507 F233.33
X-38.89 Y-8.7 Z-2.25 I0.052 J1.507
X-40.746 I-0.928 J0
X-38.838 I0.954 J0 F500
X-43.762 I-2.462 J0
X-38.838 I2.462 J0
G1 X-38.844 Y-8.648
X-38.864 Y-8.6
X-38.896 Y-8.558
X-40.212 Y-7.251
X-40.251 Y-7.22
X-40.297 Y-7.201
X-40.346 Y-7.193
G3 X-40.45 Y-10.207 Z-2.415 I-0.052 J-1.507 F233.33
X-38.89 Y-8.7 Z-2.5 I0.052 J1.507
X-40.746 I-0.928 J0
X-38.838 I0.954 J0 F500
X-43.762 I-2.462 J0
X-38.838 I2.462 J0
X-39.069 Y-8.56 I-0.158 J0
G1 X-40.094 Y-9.088
X-40.94 Y-9.86
G3 X-40.884 Y-10.127 I0.107 J-0.117
X-38.891 Y-8.7 Z-2.6 I0.486 J1.427 F233.33
X-40.745 I-0.927 J0
X-38.839 I0.953 J0 F500
X-43.761 I-2.461 J0
X-38.839 I2.461 J0
G1 X-38.843 Y-8.64 Z-2.588
X-38.86 Y-8.581 Z-2.576
X-38.883 Y-8.535 Z-2.541
X-38.914 Y-8.494 Z-2.507
X-38.964 Y-8.447 Z-2.404
X-38.983 Y-8.433 Z-2.283
G0 Z5
X-41.229 Y40.042
Z2.818
G1 Z2.817 F500
X-41.21 Y40.029 Z2.698 F233.33
X-41.154 Y39.995 Z2.597
X-41.066 Y39.948 Z2.527
X-40.958 Y39.9 Z2.5
G3 X-39.838 Y42.7 Z2.335 I0.56 J1.4
X-40.958 Y39.9 Z2.169 I-0.56 J-1.4
X-39.838 Y42.7 Z2.004 I0.56 J1.4
X-40.958 Y39.9 Z1.838 I-0.56 J-1.4
X-39.838 Y42.7 Z1.673 I0.56 J1.4
X-40.958 Y39.9 Z1.507 I-0.56 J-1.4
X-39.838 Y42.7 Z1.342 I0.56 J1.4
X-40.958 Y39.9 Z1.176 I-0.56 J-1.4
X-39.838 Y42.7 Z1.011 I0.56 J1.4
X-40.958 Y39.9 Z0.845 I-0.56 J-1.4
X-39.838 Y42.7 Z0.68 I0.56 J1.4
X-40.958 Y39.9 Z0.515 I-0.56 J-1.4
X-39.838 Y42.7 Z0.349 I0.56 J1.4
X-40.958 Y39.9 Z0.184 I-0.56 J-1.4
X-39.838 Y42.7 Z0.018 I0.56 J1.4
X-40.958 Y39.9 Z-0.147 I-0.56 J-1.4
X-38.89 Y41.3 Z-0.25 I0.56 J1.4
X-40.746 I-0.928 J0
X-38.838 I0.954 J0 F500
X-43.762 I-2.462 J0
X-38.838 I2.462 J0
G1 X-38.844 Y41.352
X-38.864 Y41.4
X-38.896 Y41.442
X-40.212 Y42.749
X-40.251 Y42.78
X-40.297 Y42.799
X-40.346 Y42.807
G3 X-40.45 Y39.793 Z-0.415 I-0.052 J-1.507 F233.33
X-38.89 Y41.3 Z-0.5 I0.052 J1.507
X-40.746 I-0.928 J0
X-38.838 I0.954 J0 F500
X-43.762 I-2.462 J0
X-38.838 I2.462 J0
G1 X-38.844 Y41.352
X-38.864 Y41.4
X-38.896 Y41.442
X-40.212 Y42.749
X-40.251 Y42.78
X-40.297 Y42.799
X-40.346 Y42.807
G3 X-40.45 Y39.793 Z-0.665 I-0.052 J-1.507 F233.33
X-38.89 Y41.3 Z-0.75 I0.052 J1.507
X-40.746 I-0.928 J0
X-38.838 I0.954 J0 F500
X-43.762 I-2.462 J0
X-38.838 I2.462 J0
G1 X-38.844 Y41.352
X-38.864 Y41.4
X-38.896 Y41.442
X-40.212 Y42.749
X-40.251 Y42.78
X-40.297 Y42.799
X-40.346 Y42.807
G3 X-40.45 Y39.793 Z-0.915 I-0.052 J-1.507 F233.33
X-38.89 Y41.3 Z-1 I0.052 J1.507
X-40.746 I-0.928 J0
X-38.838 I0.954 J0 F500
X-43.762 I-2.462 J0
X-38.838 I2.462 J0
G1 X-38.844 Y41.352
X-38.864 Y41.4
X-38.896 Y41.442
X-40.212 Y42.749
X-40.251 Y42.78
X-40.297 Y42.799
X-40.346 Y42.807
G3 X-40.45 Y39.793 Z-1.165 I-0.052 J-1.507 F233.33
X-38.89 Y41.3 Z-1.25 I0.052 J1.507
X-40.746 I-0.928 J0
X-38.838 I0.954 J0 F500
X-43.762 I-2.462 J0
X-38.838 I2.462 J0
G1 X-38.844 Y41.352
X-38.864 Y41.4
X-38.896 Y41.442
X-40.212 Y42.749
X-40.251 Y42.78
X-40.297 Y42.799
X-40.346 Y42.807
G3 X-40.45 Y39.793 Z-1.415 I-0.052 J-1.507 F233.33
X-38.89 Y41.3 Z-1.5 I0.052 J1.507
X-40.746 I-0.928 J0
X-38.838 I0.954 J0 F500
X-43.762 I-2.462 J0
X-38.838 I2.462 J0
G1 X-38.844 Y41.352
X-38.864 Y41.4
X-38.896 Y41.442
X-40.212 Y42.749
X-40.251 Y42.78
X-40.297 Y42.799
X-40.346 Y42.807
G3 X-40.45 Y39.793 Z-1.665 I-0.052 J-1.507 F233.33
X-38.89 Y41.3 Z-1.75 I0.052 J1.507
X-40.746 I-0.928 J0
X-38.838 I0.954 J0 F500
X-43.762 I-2.462 J0
X-38.838 I2.462 J0
G1 X-38.844 Y41.352
X-38.864 Y41.4
X-38.896 Y41.442
X-40.212 Y42.749
X-40.251 Y42.78
X-40.297 Y42.799
X-40.346 Y42.807
G3 X-40.45 Y39.793 Z-1.915 I-0.052 J-1.507 F233.33
X-38.89 Y41.3 Z-2 I0.052 J1.507
X-40.746 I-0.928 J0
X-38.838 I0.954 J0 F500
X-43.762 I-2.462 J0
X-38.838 I2.462 J0
G1 X-38.844 Y41.352
X-38.864 Y41.4
X-38.896 Y41.442
X-40.212 Y42.749
X-40.251 Y42.78
X-40.297 Y42.799
X-40.346 Y42.807
G3 X-40.45 Y39.793 Z-2.165 I-0.052 J-1.507 F233.33
X-38.89 Y41.3 Z-2.25 I0.052 J1.507
X-40.746 I-0.928 J0
X-38.838 I0.954 J0 F500
X-43.762 I-2.462 J0
X-38.838 I2.462 J0
G1 X-38.844 Y41.352
X-38.864 Y41.4
X-38.896 Y41.442
X-40.212 Y42.749
X-40.251 Y42.78
X-40.297 Y42.799
X-40.346 Y42.807
G3 X-40.45 Y39.793 Z-2.415 I-0.052 J-1.507 F233.33
X-38.89 Y41.3 Z-2.5 I0.052 J1.507
X-40.746 I-0.928 J0
X-38.838 I0.954 J0 F500
X-43.762 I-2.462 J0
X-38.838 I2.462 J0
X-39.069 Y41.44 I-0.158 J0
G1 X-40.094 Y40.912
X-40.94 Y40.14
G3 X-40.884 Y39.873 I0.107 J-0.117
X-38.891 Y41.3 Z-2.6 I0.486 J1.427 F233.33
X-40.745 I-0.927 J0
X-38.839 I0.953 J0 F500
X-43.761 I-2.461 J0
X-38.839 I2.461 J0
G1 X-38.843 Y41.36 Z-2.588
X-38.86 Y41.419 Z-2.576
X-38.883 Y41.465 Z-2.541
X-38.914 Y41.506 Z-2.507
X-38.964 Y41.553 Z-2.404
X-38.983 Y41.567 Z-2.283
G0 Z5
X42.813 Y39.95
Z2.818
G1 Z2.5 F500
Z-0.25 F233.33
G3 X42.487 I-0.163 J0 F500
X42.813 I0.163 J0
G1 X42.812 Y39.962 F233.33
G3 X42.488 Y39.938 Z-0.268 I-0.162 J-0.012
X42.812 Y39.95 Z-0.286 I0.162 J0.012
G1 Y39.962
G3 X42.488 Y39.938 Z-0.304 I-0.162 J-0.012
X42.812 Y39.95 Z-0.321 I0.162 J0.012
G1 Y39.962 Z-0.322
G3 X42.488 Y39.938 Z-0.34 I-0.162 J-0.012
X42.812 Y39.95 Z-0.357 I0.162 J0.012
G1 Y39.962
G3 X42.488 Y39.938 Z-0.375 I-0.162 J-0.012
X42.812 Y39.95 Z-0.393 I0.162 J0.012
G1 Y39.962
G3 X42.488 Y39.938 Z-0.411 I-0.162 J-0.012
X42.812 Y39.95 Z-0.428 I0.162 J0.012
G1 Y39.962 Z-0.429
G3 X42.488 Y39.938 Z-0.447 I-0.162 J-0.012
X42.812 Y39.95 Z-0.464 I0.162 J0.012
G1 Y39.962
G3 X42.488 Y39.938 Z-0.482 I-0.162 J-0.012
X42.812 Y39.95 Z-0.5 I0.162 J0.012
G1 Y39.962
G3 X42.488 Y39.938 I-0.162 J-0.012 F500
X42.812 Y39.95 I0.162 J0.012
G1 Y39.962
X42.811 Y39.974 F233.33
G3 X42.489 Y39.926 Z-0.518 I-0.161 J-0.024
X42.813 Y39.95 Z-0.535 I0.161 J0.024
G1 X42.812 Y39.962 Z-0.536
X42.811 Y39.974
G3 X42.489 Y39.926 Z-0.554 I-0.161 J-0.024
X42.813 Y39.95 Z-0.571 I0.161 J0.024
G1 X42.812 Y39.962
X42.811 Y39.974 Z-0.572
G3 X42.489 Y39.926 Z-0.59 I-0.161 J-0.024
X42.813 Y39.95 Z-0.607 I0.161 J0.024
G1 X42.812 Y39.962
X42.811 Y39.974
G3 X42.489 Y39.926 Z-0.625 I-0.161 J-0.024
X42.813 Y39.95 Z-0.642 I0.161 J0.024
G1 X42.812 Y39.962 Z-0.643
X42.811 Y39.974
G3 X42.489 Y39.926 Z-0.661 I-0.161 J-0.024
X42.813 Y39.95 Z-0.678 I0.161 J0.024
G1 X42.812 Y39.962
X42.811 Y39.974 Z-0.679
G3 X42.489 Y39.926 Z-0.697 I-0.161 J-0.024
X42.813 Y39.95 Z-0.714 I0.161 J0.024
G1 X42.812 Y39.962
X42.811 Y39.974
G3 X42.489 Y39.926 Z-0.732 I-0.161 J-0.024
X42.813 Y39.95 Z-0.749 I0.161 J0.024
G1 X42.812 Y39.962 Z-0.75
X42.811 Y39.974
G3 X42.489 Y39.926 I-0.161 J-0.024 F500
X42.811 Y39.974 I0.161 J0.024
G1 X42.809 Y39.986 F233.33
G3 X42.491 Y39.914 Z-0.768 I-0.159 J-0.036
X42.811 Y39.974 Z-0.786 I0.159 J0.036
G1 X42.809 Y39.986
G3 X42.491 Y39.914 Z-0.804 I-0.159 J-0.036
X42.811 Y39.974 Z-0.821 I0.159 J0.036
G1 X42.809 Y39.986 Z-0.822
G3 X42.491 Y39.914 Z-0.84 I-0.159 J-0.036
X42.811 Y39.974 Z-0.857 I0.159 J0.036
G1 X42.809 Y39.986
G3 X42.491 Y39.914 Z-0.875 I-0.159 J-0.036
X42.811 Y39.974 Z-0.893 I0.159 J0.036
G1 X42.809 Y39.986
G3 X42.491 Y39.914 Z-0.911 I-0.159 J-0.036
X42.811 Y39.974 Z-0.928 I0.159 J0.036
G1 X42.809 Y39.986 Z-0.929
G3 X42.491 Y39.914 Z-0.947 I-0.159 J-0.036
X42.811 Y39.974 Z-0.964 I0.159 J0.036
G1 X42.809 Y39.986
G3 X42.491 Y39.914 Z-0.982 I-0.159 J-0.036
X42.811 Y39.974 Z-1 I0.159 J0.036
G1 X42.809 Y39.986
G3 X42.491 Y39.914 I-0.159 J-0.036 F500
X42.809 Y39.986 I0.159 J0.036
G1 X42.806 Y39.997 F233.33
G3 X42.494 Y39.903 Z-1.018 I-0.156 J-0.047
X42.809 Y39.986 Z-1.036 I0.156 J0.047
G1 X42.806 Y39.997
G3 X42.494 Y39.903 Z-1.054 I-0.156 J-0.047
X42.809 Y39.986 Z-1.071 I0.156 J0.047
G1 X42.806 Y39.997 Z-1.072
G3 X42.494 Y39.903 Z-1.09 I-0.156 J-0.047
X42.809 Y39.986 Z-1.107 I0.156 J0.047
G1 X42.806 Y39.997
G3 X42.494 Y39.903 Z-1.125 I-0.156 J-0.047
X42.809 Y39.986 Z-1.143 I0.156 J0.047
G1 X42.806 Y39.997
G3 X42.494 Y39.903 Z-1.161 I-0.156 J-0.047
X42.809 Y39.986 Z-1.178 I0.156 J0.047
G1 X42.806 Y39.997 Z-1.179
G3 X42.494 Y39.903 Z-1.197 I-0.156 J-0.047
X42.809 Y39.986 Z-1.214 I0.156 J0.047
G1 X42.806 Y39.997
G3 X42.494 Y39.903 Z-1.232 I-0.156 J-0.047
X42.809 Y39.986 Z-1.25 I0.156 J0.047
G1 X42.806 Y39.997
G3 X42.494 Y39.903 I-0.156 J-0.047 F500
X42.806 Y39.997 I0.156 J0.047
G1 X42.802 Y40.008 F233.33
G3 X42.498 Y39.892 Z-1.268 I-0.152 J-0.058
X42.806 Y39.997 Z-1.286 I0.152 J0.058
G1 X42.802 Y40.008
G3 X42.498 Y39.892 Z-1.304 I-0.152 J-0.058
X42.806 Y39.997 Z-1.321 I0.152 J0.058
G1 X42.802 Y40.008 Z-1.322
G3 X42.498 Y39.892 Z-1.34 I-0.152 J-0.058
X42.806 Y39.997 Z-1.357 I0.152 J0.058
G1 X42.802 Y40.008
G3 X42.498 Y39.892 Z-1.375 I-0.152 J-0.058
X42.806 Y39.997 Z-1.393 I0.152 J0.058
G1 X42.802 Y40.008
G3 X42.498 Y39.892 Z-1.411 I-0.152 J-0.058
X42.806 Y39.997 Z-1.428 I0.152 J0.058
G1 X42.802 Y40.008 Z-1.429
G3 X42.498 Y39.892 Z-1.447 I-0.152 J-0.058
X42.806 Y39.997 Z-1.464 I0.152 J0.058
G1 X42.802 Y40.008
G3 X42.498 Y39.892 Z-1.482 I-0.152 J-0.058
X42.806 Y39.997 Z-1.5 I0.152 J0.058
G1 X42.802 Y40.008
G3 X42.498 Y39.892 I-0.152 J-0.058 F500
X42.802 Y40.008 I0.152 J0.058
G1 X42.797 Y40.019 F233.33
G3 X42.503 Y39.881 Z-1.518 I-0.147 J-0.069
X42.802 Y40.008 Z-1.536 I0.147 J0.069
G1 X42.797 Y40.019
G3 X42.503 Y39.881 Z-1.554 I-0.147 J-0.069
X42.802 Y40.008 Z-1.571 I0.147 J0.069
G1 X42.797 Y40.019 Z-1.572
G3 X42.503 Y39.881 Z-1.59 I-0.147 J-0.069
X42.802 Y40.008 Z-1.607 I0.147 J0.069
G1 X42.797 Y40.019
G3 X42.503 Y39.881 Z-1.625 I-0.147 J-0.069
X42.802 Y40.008 Z-1.643 I0.147 J0.069
G1 X42.797 Y40.019
G3 X42.503 Y39.881 Z-1.661 I-0.147 J-0.069
X42.802 Y40.008 Z-1.678 I0.147 J0.069
G1 X42.797 Y40.019 Z-1.679
G3 X42.503 Y39.881 Z-1.697 I-0.147 J-0.069
X42.802 Y40.008 Z-1.714 I0.147 J0.069
G1 X42.797 Y40.019
G3 X42.503 Y39.881 Z-1.732 I-0.147 J-0.069
X42.802 Y40.008 Z-1.75 I0.147 J0.069
G1 X42.797 Y40.019
G3 X42.503 Y39.881 I-0.147 J-0.069 F500
X42.797 Y40.019 I0.147 J0.069
G1 X42.791 Y40.03 F233.33
G3 X42.509 Y39.87 Z-1.768 I-0.141 J-0.08
X42.797 Y40.019 Z-1.786 I0.141 J0.08
G1 X42.791 Y40.03
G3 X42.509 Y39.87 Z-1.804 I-0.141 J-0.08
X42.797 Y40.019 Z-1.821 I0.141 J0.08
G1 X42.791 Y40.03 Z-1.822
G3 X42.509 Y39.87 Z-1.84 I-0.141 J-0.08
X42.797 Y40.019 Z-1.857 I0.141 J0.08
G1 X42.791 Y40.03
G3 X42.509 Y39.87 Z-1.875 I-0.141 J-0.08
X42.797 Y40.019 Z-1.893 I0.141 J0.08
G1 X42.791 Y40.03
G3 X42.509 Y39.87 Z-1.911 I-0.141 J-0.08
X42.797 Y40.019 Z-1.928 I0.141 J0.08
G1 X42.791 Y40.03 Z-1.929
G3 X42.509 Y39.87 Z-1.947 I-0.141 J-0.08
X42.797 Y40.019 Z-1.964 I0.141 J0.08
G1 X42.791 Y40.03
G3 X42.509 Y39.87 Z-1.982 I-0.141 J-0.08
X42.797 Y40.019 Z-2 I0.141 J0.08
G1 X42.791 Y40.03
G3 X42.509 Y39.87 I-0.141 J-0.08 F500
X42.791 Y40.03 I0.141 J0.08
G1 X42.785 Y40.04 F233.33
G3 X42.515 Y39.86 Z-2.018 I-0.135 J-0.09
X42.791 Y40.03 Z-2.036 I0.135 J0.09
G1 X42.785 Y40.04
G3 X42.515 Y39.86 Z-2.054 I-0.135 J-0.09
X42.791 Y40.03 Z-2.071 I0.135 J0.09
G1 X42.785 Y40.04 Z-2.072
G3 X42.515 Y39.86 Z-2.09 I-0.135 J-0.09
X42.791 Y40.03 Z-2.107 I0.135 J0.09
G1 X42.785 Y40.04
G3 X42.515 Y39.86 Z-2.125 I-0.135 J-0.09
X42.791 Y40.03 Z-2.143 I0.135 J0.09
G1 X42.785 Y40.04
G3 X42.515 Y39.86 Z-2.161 I-0.135 J-0.09
X42.791 Y40.03 Z-2.178 I0.135 J0.09
G1 X42.785 Y40.04 Z-2.179
G3 X42.515 Y39.86 Z-2.197 I-0.135 J-0.09
X42.791 Y40.03 Z-2.214 I0.135 J0.09
G1 X42.785 Y40.04
G3 X42.515 Y39.86 Z-2.232 I-0.135 J-0.09
X42.791 Y40.03 Z-2.25 I0.135 J0.09
G1 X42.785 Y40.04
G3 X42.515 Y39.86 I-0.135 J-0.09 F500
X42.785 Y40.04 I0.135 J0.09
G1 X42.778 Y40.05 F233.33
G3 X42.522 Y39.85 Z-2.268 I-0.128 J-0.1
X42.785 Y40.04 Z-2.286 I0.128 J0.1
G1 X42.778 Y40.05
G3 X42.522 Y39.85 Z-2.304 I-0.128 J-0.1
X42.785 Y40.04 Z-2.321 I0.128 J0.1
G1 X42.778 Y40.05 Z-2.322
G3 X42.522 Y39.85 Z-2.34 I-0.128 J-0.1
X42.785 Y40.04 Z-2.357 I0.128 J0.1
G1 X42.778 Y40.05
G3 X42.522 Y39.85 Z-2.375 I-0.128 J-0.1
X42.785 Y40.04 Z-2.393 I0.128 J0.1
G1 X42.778 Y40.05
G3 X42.522 Y39.85 Z-2.411 I-0.128 J-0.1
X42.785 Y40.04 Z-2.428 I0.128 J0.1
G1 X42.778 Y40.05 Z-2.429
G3 X42.522 Y39.85 Z-2.447 I-0.128 J-0.1
X42.785 Y40.04 Z-2.464 I0.128 J0.1
G1 X42.778 Y40.05
G3 X42.522 Y39.85 Z-2.482 I-0.128 J-0.1
X42.785 Y40.04 Z-2.5 I0.128 J0.1
G1 X42.778 Y40.05
G3 X42.522 Y39.85 I-0.128 J-0.1 F500
X42.778 Y40.05 I0.128 J0.1
X42.522 Y39.85 Z-2.518 I-0.128 J-0.1 F233.33
X42.778 Y40.05 Z-2.536 I0.128 J0.1
X42.522 Y39.85 Z-2.553 I-0.128 J-0.1
X42.778 Y40.05 Z-2.571 I0.128 J0.1
X42.522 Y39.85 Z-2.589 I-0.128 J-0.1
X42.787 Y39.863 Z-2.6 I0.128 J0.1
X42.513 Y40.037 I-0.137 J0.087 F500
X42.787 Y39.863 I0.137 J-0.087
G1 X42.806 Y39.905 Z-2.593
X42.813 Y39.95 Z-2.586
X42.809 Y39.986 Z-2.567
X42.797 Y40.019 Z-2.548
X42.778 Y40.05 Z-2.53
X42.747 Y40.08 Z-2.474
X42.709 Y40.101 Z-2.419
X42.68 Y40.11 Z-2.283
G0 Z5
X42.487 Y49.95
Z2.818
G1 Z2.5 F500
Z-0.25 F233.33
G3 X42.813 I0.163 J0 F500
X42.487 I-0.163 J0
G1 X42.488 Y49.938 F233.33
G3 X42.812 Y49.962 Z-0.268 I0.162 J0.012
X42.488 Y49.95 Z-0.286 I-0.162 J-0.012
G1 Y49.938
G3 X42.812 Y49.962 Z-0.304 I0.162 J0.012
X42.488 Y49.95 Z-0.321 I-0.162 J-0.012
G1 Y49.938 Z-0.322
G3 X42.812 Y49.962 Z-0.34 I0.162 J0.012
X42.488 Y49.95 Z-0.357 I-0.162 J-0.012
G1 Y49.938
G3 X42.812 Y49.962 Z-0.375 I0.162 J0.012
X42.488 Y49.95 Z-0.393 I-0.162 J-0.012
G1 Y49.938
G3 X42.812 Y49.962 Z-0.411 I0.162 J0.012
X42.488 Y49.95 Z-0.428 I-0.162 J-0.012
G1 Y49.938 Z-0.429
G3 X42.812 Y49.962 Z-0.447 I0.162 J0.012
X42.488 Y49.95 Z-0.464 I-0.162 J-0.012
G1 Y49.938
G3 X42.812 Y49.962 Z-0.482 I0.162 J0.012
X42.488 Y49.95 Z-0.5 I-0.162 J-0.012
G1 Y49.938
G3 X42.812 Y49.962 I0.162 J0.012 F500
X42.488 Y49.95 I-0.162 J-0.012
G1 Y49.938
X42.489 Y49.926 F233.33
G3 X42.811 Y49.974 Z-0.518 I0.161 J0.024
X42.487 Y49.95 Z-0.535 I-0.161 J-0.024
G1 X42.488 Y49.938 Z-0.536
X42.489 Y49.926
G3 X42.811 Y49.974 Z-0.554 I0.161 J0.024
X42.487 Y49.95 Z-0.571 I-0.161 J-0.024
G1 X42.488 Y49.938
X42.489 Y49.926 Z-0.572
G3 X42.811 Y49.974 Z-0.59 I0.161 J0.024
X42.487 Y49.95 Z-0.607 I-0.161 J-0.024
G1 X42.488 Y49.938
X42.489 Y49.926
G3 X42.811 Y49.974 Z-0.625 I0.161 J0.024
X42.487 Y49.95 Z-0.642 I-0.161 J-0.024
G1 X42.488 Y49.938 Z-0.643
X42.489 Y49.926
G3 X42.811 Y49.974 Z-0.661 I0.161 J0.024
X42.487 Y49.95 Z-0.678 I-0.161 J-0.024
G1 X42.488 Y49.938
X42.489 Y49.926 Z-0.679
G3 X42.811 Y49.974 Z-0.697 I0.161 J0.024
X42.487 Y49.95 Z-0.714 I-0.161 J-0.024
G1 X42.488 Y49.938
X42.489 Y49.926
G3 X42.811 Y49.974 Z-0.732 I0.161 J0.024
X42.487 Y49.95 Z-0.749 I-0.161 J-0.024
G1 X42.488 Y49.938 Z-0.75
X42.489 Y49.926
G3 X42.811 Y49.974 I0.161 J0.024 F500
X42.489 Y49.926 I-0.161 J-0.024
X42.811 Y49.974 Z-0.768 I0.161 J0.024 F233.33
X42.489 Y49.926 Z-0.786 I-0.161 J-0.024
G1 X42.491 Y49.914
G3 X42.809 Y49.986 Z-0.804 I0.159 J0.036
X42.489 Y49.926 Z-0.821 I-0.159 J-0.036
G1 X42.491 Y49.914 Z-0.822
G3 X42.809 Y49.986 Z-0.84 I0.159 J0.036
X42.489 Y49.926 Z-0.857 I-0.159 J-0.036
G1 X42.491 Y49.914
G3 X42.809 Y49.986 Z-0.875 I0.159 J0.036
X42.489 Y49.926 Z-0.893 I-0.159 J-0.036
G1 X42.491 Y49.914
G3 X42.809 Y49.986 Z-0.911 I0.159 J0.036
X42.489 Y49.926 Z-0.928 I-0.159 J-0.036
G1 X42.491 Y49.914 Z-0.929
G3 X42.809 Y49.986 Z-0.947 I0.159 J0.036
X42.489 Y49.926 Z-0.964 I-0.159 J-0.036
G1 X42.491 Y49.914
G3 X42.809 Y49.986 Z-0.982 I0.159 J0.036
X42.489 Y49.926 Z-1 I-0.159 J-0.036
G1 X42.491 Y49.914
G3 X42.809 Y49.986 I0.159 J0.036 F500
X42.491 Y49.914 I-0.159 J-0.036
G1 X42.494 Y49.903 F233.33
G3 X42.806 Y49.997 Z-1.018 I0.156 J0.047
X42.491 Y49.914 Z-1.036 I-0.156 J-0.047
G1 X42.494 Y49.903
G3 X42.806 Y49.997 Z-1.054 I0.156 J0.047
X42.491 Y49.914 Z-1.071 I-0.156 J-0.047
G1 X42.494 Y49.903 Z-1.072
G3 X42.806 Y49.997 Z-1.09 I0.156 J0.047
X42.491 Y49.914 Z-1.107 I-0.156 J-0.047
G1 X42.494 Y49.903
G3 X42.806 Y49.997 Z-1.125 I0.156 J0.047
X42.491 Y49.914 Z-1.143 I-0.156 J-0.047
G1 X42.494 Y49.903
G3 X42.806 Y49.997 Z-1.161 I0.156 J0.047
X42.491 Y49.914 Z-1.178 I-0.156 J-0.047
G1 X42.494 Y49.903 Z-1.179
G3 X42.806 Y49.997 Z-1.197 I0.156 J0.047
X42.491 Y49.914 Z-1.214 I-0.156 J-0.047
G1 X42.494 Y49.903
G3 X42.806 Y49.997 Z-1.232 I0.156 J0.047
X42.491 Y49.914 Z-1.25 I-0.156 J-0.047
G1 X42.494 Y49.903
G3 X42.806 Y49.997 I0.156 J0.047 F500
X42.494 Y49.903 I-0.156 J-0.047
G1 X42.498 Y49.892 F233.33
G3 X42.802 Y50.008 Z-1.268 I0.152 J0.058
X42.494 Y49.903 Z-1.286 I-0.152 J-0.058
G1 X42.498 Y49.892
G3 X42.802 Y50.008 Z-1.304 I0.152 J0.058
X42.494 Y49.903 Z-1.321 I-0.152 J-0.058
G1 X42.498 Y49.892 Z-1.322
G3 X42.802 Y50.008 Z-1.34 I0.152 J0.058
X42.494 Y49.903 Z-1.357 I-0.152 J-0.058
G1 X42.498 Y49.892
G3 X42.802 Y50.008 Z-1.375 I0.152 J0.058
X42.494 Y49.903 Z-1.393 I-0.152 J-0.058
G1 X42.498 Y49.892
G3 X42.802 Y50.008 Z-1.411 I0.152 J0.058
X42.494 Y49.903 Z-1.428 I-0.152 J-0.058
G1 X42.498 Y49.892 Z-1.429
G3 X42.802 Y50.008 Z-1.447 I0.152 J0.058
X42.494 Y49.903 Z-1.464 I-0.152 J-0.058
G1 X42.498 Y49.892
G3 X42.802 Y50.008 Z-1.482 I0.152 J0.058
X42.494 Y49.903 Z-1.5 I-0.152 J-0.058
G1 X42.498 Y49.892
G3 X42.802 Y50.008 I0.152 J0.058 F500
X42.498 Y49.892 I-0.152 J-0.058
G1 X42.503 Y49.881 F233.33
G3 X42.797 Y50.019 Z-1.518 I0.147 J0.069
X42.498 Y49.892 Z-1.536 I-0.147 J-0.069
G1 X42.503 Y49.881
G3 X42.797 Y50.019 Z-1.554 I0.147 J0.069
X42.498 Y49.892 Z-1.571 I-0.147 J-0.069
G1 X42.503 Y49.881 Z-1.572
G3 X42.797 Y50.019 Z-1.59 I0.147 J0.069
X42.498 Y49.892 Z-1.607 I-0.147 J-0.069
G1 X42.503 Y49.881
G3 X42.797 Y50.019 Z-1.625 I0.147 J0.069
X42.498 Y49.892 Z-1.643 I-0.147 J-0.069
G1 X42.503 Y49.881
G3 X42.797 Y50.019 Z-1.661 I0.147 J0.069
X42.498 Y49.892 Z-1.678 I-0.147 J-0.069
G1 X42.503 Y49.881 Z-1.679
G3 X42.797 Y50.019 Z-1.697 I0.147 J0.069
X42.498 Y49.892 Z-1.714 I-0.147 J-0.069
G1 X42.503 Y49.881
G3 X42.797 Y50.019 Z-1.732 I0.147 J0.069
X42.498 Y49.892 Z-1.75 I-0.147 J-0.069
G1 X42.503 Y49.881
G3 X42.797 Y50.019 I0.147 J0.069 F500
X42.503 Y49.881 I-0.147 J-0.069
G1 X42.509 Y49.87 F233.33
G3 X42.791 Y50.03 Z-1.768 I0.141 J0.08
X42.503 Y49.881 Z-1.786 I-0.141 J-0.08
G1 X42.509 Y49.87
G3 X42.791 Y50.03 Z-1.804 I0.141 J0.08
X42.503 Y49.881 Z-1.821 I-0.141 J-0.08
G1 X42.509 Y49.87 Z-1.822
G3 X42.791 Y50.03 Z-1.84 I0.141 J0.08
X42.503 Y49.881 Z-1.857 I-0.141 J-0.08
G1 X42.509 Y49.87
G3 X42.791 Y50.03 Z-1.875 I0.141 J0.08
X42.503 Y49.881 Z-1.893 I-0.141 J-0.08
G1 X42.509 Y49.87
G3 X42.791 Y50.03 Z-1.911 I0.141 J0.08
X42.503 Y49.881 Z-1.928 I-0.141 J-0.08
G1 X42.509 Y49.87 Z-1.929
G3 X42.791 Y50.03 Z-1.947 I0.141 J0.08
X42.503 Y49.881 Z-1.964 I-0.141 J-0.08
G1 X42.509 Y49.87
G3 X42.791 Y50.03 Z-1.982 I0.141 J0.08
X42.503 Y49.881 Z-2 I-0.141 J-0.08
G1 X42.509 Y49.87
G3 X42.791 Y50.03 I0.141 J0.08 F500
X42.509 Y49.87 I-0.141 J-0.08
G1 X42.515 Y49.86 F233.33
G3 X42.785 Y50.04 Z-2.018 I0.135 J0.09
X42.509 Y49.87 Z-2.036 I-0.135 J-0.09
G1 X42.515 Y49.86
G3 X42.785 Y50.04 Z-2.054 I0.135 J0.09
X42.509 Y49.87 Z-2.071 I-0.135 J-0.09
G1 X42.515 Y49.86 Z-2.072
G3 X42.785 Y50.04 Z-2.09 I0.135 J0.09
X42.509 Y49.87 Z-2.107 I-0.135 J-0.09
G1 X42.515 Y49.86
G3 X42.785 Y50.04 Z-2.125 I0.135 J0.09
X42.509 Y49.87 Z-2.143 I-0.135 J-0.09
G1 X42.515 Y49.86
G3 X42.785 Y50.04 Z-2.161 I0.135 J0.09
X42.509 Y49.87 Z-2.178 I-0.135 J-0.09
G1 X42.515 Y49.86 Z-2.179
G3 X42.785 Y50.04 Z-2.197 I0.135 J0.09
X42.509 Y49.87 Z-2.214 I-0.135 J-0.09
G1 X42.515 Y49.86
G3 X42.785 Y50.04 Z-2.232 I0.135 J0.09
X42.509 Y49.87 Z-2.25 I-0.135 J-0.09
G1 X42.515 Y49.86
G3 X42.785 Y50.04 I0.135 J0.09 F500
X42.515 Y49.86 I-0.135 J-0.09
G1 X42.522 Y49.85 F233.33
G3 X42.778 Y50.05 Z-2.268 I0.128 J0.1
X42.515 Y49.86 Z-2.286 I-0.128 J-0.1
G1 X42.522 Y49.85
G3 X42.778 Y50.05 Z-2.304 I0.128 J0.1
X42.515 Y49.86 Z-2.321 I-0.128 J-0.1
G1 X42.522 Y49.85 Z-2.322
G3 X42.778 Y50.05 Z-2.34 I0.128 J0.1
X42.515 Y49.86 Z-2.357 I-0.128 J-0.1
G1 X42.522 Y49.85
G3 X42.778 Y50.05 Z-2.375 I0.128 J0.1
X42.515 Y49.86 Z-2.393 I-0.128 J-0.1
G1 X42.522 Y49.85
G3 X42.778 Y50.05 Z-2.411 I0.128 J0.1
X42.515 Y49.86 Z-2.428 I-0.128 J-0.1
G1 X42.522 Y49.85 Z-2.429
G3 X42.778 Y50.05 Z-2.447 I0.128 J0.1
X42.515 Y49.86 Z-2.464 I-0.128 J-0.1
G1 X42.522 Y49.85
G3 X42.778 Y50.05 Z-2.482 I0.128 J0.1
X42.515 Y49.86 Z-2.5 I-0.128 J-0.1
G1 X42.522 Y49.85
G3 X42.778 Y50.05 I0.128 J0.1 F500
X42.522 Y49.85 I-0.128 J-0.1
X42.778 Y50.05 Z-2.518 I0.128 J0.1 F233.33
X42.522 Y49.85 Z-2.536 I-0.128 J-0.1
X42.778 Y50.05 Z-2.553 I0.128 J0.1
X42.522 Y49.85 Z-2.571 I-0.128 J-0.1
X42.778 Y50.05 Z-2.589 I0.128 J0.1
X42.513 Y50.037 Z-2.6 I-0.128 J-0.1
X42.787 Y49.863 I0.137 J-0.087 F500
X42.513 Y50.037 I-0.137 J0.087
G1 X42.494 Y49.995 Z-2.593
X42.487 Y49.95 Z-2.586
X42.491 Y49.914 Z-2.567
X42.503 Y49.881 Z-2.548
X42.522 Y49.85 Z-2.53
X42.553 Y49.82 Z-2.474
X42.591 Y49.799 Z-2.419
X42.62 Y49.79 Z-2.283
G0 Z5
X42.65 Y-0.213
Z2.818
G1 Z2.5 F500
Z-0.25 F233.33
G3 Y0.113 I0 J0.163 F500
Y-0.213 I0 J-0.163
G1 X42.662 Y-0.212 F233.33
G3 X42.638 Y0.112 Z-0.268 I-0.012 J0.162
X42.65 Y-0.212 Z-0.286 I0.012 J-0.162
G1 X42.662
G3 X42.638 Y0.112 Z-0.304 I-0.012 J0.162
X42.65 Y-0.212 Z-0.321 I0.012 J-0.162
G1 X42.662 Z-0.322
G3 X42.638 Y0.112 Z-0.34 I-0.012 J0.162
X42.65 Y-0.212 Z-0.357 I0.012 J-0.162
G1 X42.662
G3 X42.638 Y0.112 Z-0.375 I-0.012 J0.162
X42.65 Y-0.212 Z-0.393 I0.012 J-0.162
G1 X42.662
G3 X42.638 Y0.112 Z-0.411 I-0.012 J0.162
X42.65 Y-0.212 Z-0.428 I0.012 J-0.162
G1 X42.662 Z-0.429
G3 X42.638 Y0.112 Z-0.447 I-0.012 J0.162
X42.65 Y-0.212 Z-0.464 I0.012 J-0.162
G1 X42.662
G3 X42.638 Y0.112 Z-0.482 I-0.012 J0.162
X42.65 Y-0.212 Z-0.5 I0.012 J-0.162
G1 X42.662
G3 X42.638 Y0.112 I-0.012 J0.162 F500
X42.65 Y-0.212 I0.012 J-0.162
G1 X42.662
X42.674 Y-0.211 F233.33
G3 X42.626 Y0.111 Z-0.518 I-0.024 J0.161
X42.65 Y-0.213 Z-0.535 I0.024 J-0.161
G1 X42.662 Y-0.212 Z-0.536
X42.674 Y-0.211
G3 X42.626 Y0.111 Z-0.554 I-0.024 J0.161
X42.65 Y-0.213 Z-0.571 I0.024 J-0.161
G1 X42.662 Y-0.212
X42.674 Y-0.211 Z-0.572
G3 X42.626 Y0.111 Z-0.59 I-0.024 J0.161
X42.65 Y-0.213 Z-0.607 I0.024 J-0.161
G1 X42.662 Y-0.212
X42.674 Y-0.211
G3 X42.626 Y0.111 Z-0.625 I-0.024 J0.161
X42.65 Y-0.213 Z-0.642 I0.024 J-0.161
G1 X42.662 Y-0.212 Z-0.643
X42.674 Y-0.211
G3 X42.626 Y0.111 Z-0.661 I-0.024 J0.161
X42.65 Y-0.213 Z-0.678 I0.024 J-0.161
G1 X42.662 Y-0.212
X42.674 Y-0.211 Z-0.679
G3 X42.626 Y0.111 Z-0.697 I-0.024 J0.161
X42.65 Y-0.213 Z-0.714 I0.024 J-0.161
G1 X42.662 Y-0.212
X42.674 Y-0.211
G3 X42.626 Y0.111 Z-0.732 I-0.024 J0.161
X42.65 Y-0.213 Z-0.749 I0.024 J-0.161
G1 X42.662 Y-0.212 Z-0.75
X42.674 Y-0.211
G3 X42.626 Y0.111 I-0.024 J0.161 F500
X42.674 Y-0.211 I0.024 J-0.161
G1 X42.686 Y-0.209 F233.33
G3 X42.614 Y0.109 Z-0.768 I-0.036 J0.159
X42.674 Y-0.211 Z-0.786 I0.036 J-0.159
G1 X42.686 Y-0.209
G3 X42.614 Y0.109 Z-0.804 I-0.036 J0.159
X42.674 Y-0.211 Z-0.821 I0.036 J-0.159
G1 X42.686 Y-0.209 Z-0.822
G3 X42.614 Y0.109 Z-0.84 I-0.036 J0.159
X42.674 Y-0.211 Z-0.857 I0.036 J-0.159
G1 X42.686 Y-0.209
G3 X42.614 Y0.109 Z-0.875 I-0.036 J0.159
X42.674 Y-0.211 Z-0.893 I0.036 J-0.159
G1 X42.686 Y-0.209
G3 X42.614 Y0.109 Z-0.911 I-0.036 J0.159
X42.674 Y-0.211 Z-0.928 I0.036 J-0.159
G1 X42.686 Y-0.209 Z-0.929
G3 X42.614 Y0.109 Z-0.947 I-0.036 J0.159
X42.674 Y-0.211 Z-0.964 I0.036 J-0.159
G1 X42.686 Y-0.209
G3 X42.614 Y0.109 Z-0.982 I-0.036 J0.159
X42.674 Y-0.211 Z-1 I0.036 J-0.159
G1 X42.686 Y-0.209
G3 X42.614 Y0.109 I-0.036 J0.159 F500
X42.686 Y-0.209 I0.036 J-0.159
G1 X42.697 Y-0.206 F233.33
G3 X42.603 Y0.106 Z-1.018 I-0.047 J0.156
X42.686 Y-0.209 Z-1.036 I0.047 J-0.156
G1 X42.697 Y-0.206
G3 X42.603 Y0.106 Z-1.054 I-0.047 J0.156
X42.686 Y-0.209 Z-1.071 I0.047 J-0.156
G1 X42.697 Y-0.206 Z-1.072
G3 X42.603 Y0.106 Z-1.09 I-0.047 J0.156
X42.686 Y-0.209 Z-1.107 I0.047 J-0.156
G1 X42.697 Y-0.206
G3 X42.603 Y0.106 Z-1.125 I-0.047 J0.156
X42.686 Y-0.209 Z-1.143 I0.047 J-0.156
G1 X42.697 Y-0.206
G3 X42.603 Y0.106 Z-1.161 I-0.047 J0.156
X42.686 Y-0.209 Z-1.178 I0.047 J-0.156
G1 X42.697 Y-0.206 Z-1.179
G3 X42.603 Y0.106 Z-1.197 I-0.047 J0.156
X42.686 Y-0.209 Z-1.214 I0.047 J-0.156
G1 X42.697 Y-0.206
G3 X42.603 Y0.106 Z-1.232 I-0.047 J0.156
X42.686 Y-0.209 Z-1.25 I0.047 J-0.156
G1 X42.697 Y-0.206
G3 X42.603 Y0.106 I-0.047 J0.156 F500
X42.697 Y-0.206 I0.047 J-0.156
G1 X42.708 Y-0.202 F233.33
G3 X42.592 Y0.102 Z-1.268 I-0.058 J0.152
X42.697 Y-0.206 Z-1.286 I0.058 J-0.152
G1 X42.708 Y-0.202
G3 X42.592 Y0.102 Z-1.304 I-0.058 J0.152
X42.697 Y-0.206 Z-1.321 I0.058 J-0.152
G1 X42.708 Y-0.202 Z-1.322
G3 X42.592 Y0.102 Z-1.34 I-0.058 J0.152
X42.697 Y-0.206 Z-1.357 I0.058 J-0.152
G1 X42.708 Y-0.202
G3 X42.592 Y0.102 Z-1.375 I-0.058 J0.152
X42.697 Y-0.206 Z-1.393 I0.058 J-0.152
G1 X42.708 Y-0.202
G3 X42.592 Y0.102 Z-1.411 I-0.058 J0.152
X42.697 Y-0.206 Z-1.428 I0.058 J-0.152
G1 X42.708 Y-0.202 Z-1.429
G3 X42.592 Y0.102 Z-1.447 I-0.058 J0.152
X42.697 Y-0.206 Z-1.464 I0.058 J-0.152
G1 X42.708 Y-0.202
G3 X42.592 Y0.102 Z-1.482 I-0.058 J0.152
X42.697 Y-0.206 Z-1.5 I0.058 J-0.152
G1 X42.708 Y-0.202
G3 X42.592 Y0.102 I-0.058 J0.152 F500
X42.708 Y-0.202 I0.058 J-0.152
G1 X42.719 Y-0.197 F233.33
G3 X42.581 Y0.097 Z-1.518 I-0.069 J0.147
X42.708 Y-0.202 Z-1.536 I0.069 J-0.147
G1 X42.719 Y-0.197
G3 X42.581 Y0.097 Z-1.554 I-0.069 J0.147
X42.708 Y-0.202 Z-1.571 I0.069 J-0.147
G1 X42.719 Y-0.197 Z-1.572
G3 X42.581 Y0.097 Z-1.59 I-0.069 J0.147
X42.708 Y-0.202 Z-1.607 I0.069 J-0.147
G1 X42.719 Y-0.197
G3 X42.581 Y0.097 Z-1.625 I-0.069 J0.147
X42.708 Y-0.202 Z-1.643 I0.069 J-0.147
G1 X42.719 Y-0.197
G3 X42.581 Y0.097 Z-1.661 I-0.069 J0.147
X42.708 Y-0.202 Z-1.678 I0.069 J-0.147
G1 X42.719 Y-0.197 Z-1.679
G3 X42.581 Y0.097 Z-1.697 I-0.069 J0.147
X42.708 Y-0.202 Z-1.714 I0.069 J-0.147
G1 X42.719 Y-0.197
G3 X42.581 Y0.097 Z-1.732 I-0.069 J0.147
X42.708 Y-0.202 Z-1.75 I0.069 J-0.147
G1 X42.719 Y-0.197
G3 X42.581 Y0.097 I-0.069 J0.147 F500
X42.719 Y-0.197 I0.069 J-0.147
G1 X42.73 Y-0.191 F233.33
G3 X42.57 Y0.091 Z-1.768 I-0.08 J0.141
X42.719 Y-0.197 Z-1.786 I0.08 J-0.141
G1 X42.73 Y-0.191
G3 X42.57 Y0.091 Z-1.804 I-0.08 J0.141
X42.719 Y-0.197 Z-1.821 I0.08 J-0.141
G1 X42.73 Y-0.191 Z-1.822
G3 X42.57 Y0.091 Z-1.84 I-0.08 J0.141
X42.719 Y-0.197 Z-1.857 I0.08 J-0.141
G1 X42.73 Y-0.191
G3 X42.57 Y0.091 Z-1.875 I-0.08 J0.141
X42.719 Y-0.197 Z-1.893 I0.08 J-0.141
G1 X42.73 Y-0.191
G3 X42.57 Y0.091 Z-1.911 I-0.08 J0.141
X42.719 Y-0.197 Z-1.928 I0.08 J-0.141
G1 X42.73 Y-0.191 Z-1.929
G3 X42.57 Y0.091 Z-1.947 I-0.08 J0.141
X42.719 Y-0.197 Z-1.964 I0.08 J-0.141
G1 X42.73 Y-0.191
G3 X42.57 Y0.091 Z-1.982 I-0.08 J0.141
X42.719 Y-0.197 Z-2 I0.08 J-0.141
G1 X42.73 Y-0.191
G3 X42.57 Y0.091 I-0.08 J0.141 F500
X42.73 Y-0.191 I0.08 J-0.141
G1 X42.74 Y-0.185 F233.33
G3 X42.56 Y0.085 Z-2.018 I-0.09 J0.135
X42.73 Y-0.191 Z-2.036 I0.09 J-0.135
G1 X42.74 Y-0.185
G3 X42.56 Y0.085 Z-2.054 I-0.09 J0.135
X42.73 Y-0.191 Z-2.071 I0.09 J-0.135
G1 X42.74 Y-0.185 Z-2.072
G3 X42.56 Y0.085 Z-2.09 I-0.09 J0.135
X42.73 Y-0.191 Z-2.107 I0.09 J-0.135
G1 X42.74 Y-0.185
G3 X42.56 Y0.085 Z-2.125 I-0.09 J0.135
X42.73 Y-0.191 Z-2.143 I0.09 J-0.135
G1 X42.74 Y-0.185
G3 X42.56 Y0.085 Z-2.161 I-0.09 J0.135
X42.73 Y-0.191 Z-2.178 I0.09 J-0.135
G1 X42.74 Y-0.185 Z-2.179
G3 X42.56 Y0.085 Z-2.197 I-0.09 J0.135
X42.73 Y-0.191 Z-2.214 I0.09 J-0.135
G1 X42.74 Y-0.185
G3 X42.56 Y0.085 Z-2.232 I-0.09 J0.135
X42.73 Y-0.191 Z-2.25 I0.09 J-0.135
G1 X42.74 Y-0.185
G3 X42.56 Y0.085 I-0.09 J0.135 F500
X42.74 Y-0.185 I0.09 J-0.135
G1 X42.75 Y-0.178 F233.33
G3 X42.55 Y0.078 Z-2.268 I-0.1 J0.128
X42.74 Y-0.185 Z-2.286 I0.1 J-0.128
G1 X42.75 Y-0.178
G3 X42.55 Y0.078 Z-2.304 I-0.1 J0.128
X42.74 Y-0.185 Z-2.321 I0.1 J-0.128
G1 X42.75 Y-0.178 Z-2.322
G3 X42.55 Y0.078 Z-2.34 I-0.1 J0.128
X42.74 Y-0.185 Z-2.357 I0.1 J-0.128
G1 X42.75 Y-0.178
G3 X42.55 Y0.078 Z-2.375 I-0.1 J0.128
X42.74 Y-0.185 Z-2.393 I0.1 J-0.128
G1 X42.75 Y-0.178
G3 X42.55 Y0.078 Z-2.411 I-0.1 J0.128
X42.74 Y-0.185 Z-2.428 I0.1 J-0.128
G1 X42.75 Y-0.178 Z-2.429
G3 X42.55 Y0.078 Z-2.447 I-0.1 J0.128
X42.74 Y-0.185 Z-2.464 I0.1 J-0.128
G1 X42.75 Y-0.178
G3 X42.55 Y0.078 Z-2.482 I-0.1 J0.128
X42.74 Y-0.185 Z-2.5 I0.1 J-0.128
G1 X42.75 Y-0.178
G3 X42.55 Y0.078 I-0.1 J0.128 F500
X42.75 Y-0.178 I0.1 J-0.128
X42.55 Y0.078 Z-2.518 I-0.1 J0.128 F233.33
X42.75 Y-0.178 Z-2.536 I0.1 J-0.128
X42.55 Y0.078 Z-2.553 I-0.1 J0.128
X42.75 Y-0.178 Z-2.571 I0.1 J-0.128
X42.55 Y0.078 Z-2.589 I-0.1 J0.128
X42.563 Y-0.187 Z-2.6 I0.1 J-0.128
X42.737 Y0.087 I0.087 J0.137 F500
X42.563 Y-0.187 I-0.087 J-0.137
G1 X42.605 Y-0.206 Z-2.593
X42.65 Y-0.213 Z-2.586
X42.686 Y-0.209 Z-2.567
X42.719 Y-0.197 Z-2.548
X42.75 Y-0.178 Z-2.53
X42.78 Y-0.147 Z-2.474
X42.801 Y-0.109 Z-2.419
X42.81 Y-0.08 Z-2.283
G0 Z5
X42.813 Y-10.05
Z2.818
G1 Z2.5 F500
Z-0.25 F233.33
G3 X42.487 I-0.163 J0 F500
X42.813 I0.163 J0
G1 X42.812 Y-10.038 F233.33
G3 X42.488 Y-10.062 Z-0.268 I-0.162 J-0.012
X42.812 Y-10.05 Z-0.286 I0.162 J0.012
G1 Y-10.038
G3 X42.488 Y-10.062 Z-0.304 I-0.162 J-0.012
X42.812 Y-10.05 Z-0.321 I0.162 J0.012
G1 Y-10.038 Z-0.322
G3 X42.488 Y-10.062 Z-0.34 I-0.162 J-0.012
X42.812 Y-10.05 Z-0.357 I0.162 J0.012
G1 Y-10.038
G3 X42.488 Y-10.062 Z-0.375 I-0.162 J-0.012
X42.812 Y-10.05 Z-0.393 I0.162 J0.012
G1 Y-10.038
G3 X42.488 Y-10.062 Z-0.411 I-0.162 J-0.012
X42.812 Y-10.05 Z-0.428 I0.162 J0.012
G1 Y-10.038 Z-0.429
G3 X42.488 Y-10.062 Z-0.447 I-0.162 J-0.012
X42.812 Y-10.05 Z-0.464 I0.162 J0.012
G1 Y-10.038
G3 X42.488 Y-10.062 Z-0.482 I-0.162 J-0.012
X42.812 Y-10.05 Z-0.5 I0.162 J0.012
G1 Y-10.038
G3 X42.488 Y-10.062 I-0.162 J-0.012 F500
X42.812 Y-10.05 I0.162 J0.012
G1 Y-10.038
X42.811 Y-10.026 F233.33
G3 X42.489 Y-10.074 Z-0.518 I-0.161 J-0.024
X42.813 Y-10.05 Z-0.535 I0.161 J0.024
G1 X42.812 Y-10.038 Z-0.536
X42.811 Y-10.026
G3 X42.489 Y-10.074 Z-0.554 I-0.161 J-0.024
X42.813 Y-10.05 Z-0.571 I0.161 J0.024
G1 X42.812 Y-10.038
X42.811 Y-10.026 Z-0.572
G3 X42.489 Y-10.074 Z-0.59 I-0.161 J-0.024
X42.813 Y-10.05 Z-0.607 I0.161 J0.024
G1 X42.812 Y-10.038
X42.811 Y-10.026
G3 X42.489 Y-10.074 Z-0.625 I-0.161 J-0.024
X42.813 Y-10.05 Z-0.642 I0.161 J0.024
G1 X42.812 Y-10.038 Z-0.643
X42.811 Y-10.026
G3 X42.489 Y-10.074 Z-0.661 I-0.161 J-0.024
X42.813 Y-10.05 Z-0.678 I0.161 J0.024
G1 X42.812 Y-10.038
X42.811 Y-10.026 Z-0.679
G3 X42.489 Y-10.074 Z-0.697 I-0.161 J-0.024
X42.813 Y-10.05 Z-0.714 I0.161 J0.024
G1 X42.812 Y-10.038
X42.811 Y-10.026
G3 X42.489 Y-10.074 Z-0.732 I-0.161 J-0.024
X42.813 Y-10.05 Z-0.749 I0.161 J0.024
G1 X42.812 Y-10.038 Z-0.75
X42.811 Y-10.026
G3 X42.489 Y-10.074 I-0.161 J-0.024 F500
X42.811 Y-10.026 I0.161 J0.024
G1 X42.809 Y-10.014 F233.33
G3 X42.491 Y-10.086 Z-0.768 I-0.159 J-0.036
X42.811 Y-10.026 Z-0.786 I0.159 J0.036
G1 X42.809 Y-10.014
G3 X42.491 Y-10.086 Z-0.804 I-0.159 J-0.036
X42.811 Y-10.026 Z-0.821 I0.159 J0.036
G1 X42.809 Y-10.014 Z-0.822
G3 X42.491 Y-10.086 Z-0.84 I-0.159 J-0.036
X42.811 Y-10.026 Z-0.857 I0.159 J0.036
G1 X42.809 Y-10.014
G3 X42.491 Y-10.086 Z-0.875 I-0.159 J-0.036
X42.811 Y-10.026 Z-0.893 I0.159 J0.036
G1 X42.809 Y-10.014
G3 X42.491 Y-10.086 Z-0.911 I-0.159 J-0.036
X42.811 Y-10.026 Z-0.928 I0.159 J0.036
G1 X42.809 Y-10.014 Z-0.929
G3 X42.491 Y-10.086 Z-0.947 I-0.159 J-0.036
X42.811 Y-10.026 Z-0.964 I0.159 J0.036
G1 X42.809 Y-10.014
G3 X42.491 Y-10.086 Z-0.982 I-0.159 J-0.036
X42.811 Y-10.026 Z-1 I0.159 J0.036
G1 X42.809 Y-10.014
G3 X42.491 Y-10.086 I-0.159 J-0.036 F500
X42.809 Y-10.014 I0.159 J0.036
G1 X42.806 Y-10.003 F233.33
G3 X42.494 Y-10.097 Z-1.018 I-0.156 J-0.047
X42.809 Y-10.014 Z-1.036 I0.156 J0.047
G1 X42.806 Y-10.003
G3 X42.494 Y-10.097 Z-1.054 I-0.156 J-0.047
X42.809 Y-10.014 Z-1.071 I0.156 J0.047
G1 X42.806 Y-10.003 Z-1.072
G3 X42.494 Y-10.097 Z-1.09 I-0.156 J-0.047
X42.809 Y-10.014 Z-1.107 I0.156 J0.047
G1 X42.806 Y-10.003
G3 X42.494 Y-10.097 Z-1.125 I-0.156 J-0.047
X42.809 Y-10.014 Z-1.143 I0.156 J0.047
G1 X42.806 Y-10.003
G3 X42.494 Y-10.097 Z-1.161 I-0.156 J-0.047
X42.809 Y-10.014 Z-1.178 I0.156 J0.047
G1 X42.806 Y-10.003 Z-1.179
G3 X42.494 Y-10.097 Z-1.197 I-0.156 J-0.047
X42.809 Y-10.014 Z-1.214 I0.156 J0.047
G1 X42.806 Y-10.003
G3 X42.494 Y-10.097 Z-1.232 I-0.156 J-0.047
X42.809 Y-10.014 Z-1.25 I0.156 J0.047
G1 X42.806 Y-10.003
G3 X42.494 Y-10.097 I-0.156 J-0.047 F500
X42.806 Y-10.003 I0.156 J0.047
G1 X42.802 Y-9.992 F233.33
G3 X42.498 Y-10.108 Z-1.268 I-0.152 J-0.058
X42.806 Y-10.003 Z-1.286 I0.152 J0.058
G1 X42.802 Y-9.992
G3 X42.498 Y-10.108 Z-1.304 I-0.152 J-0.058
X42.806 Y-10.003 Z-1.321 I0.152 J0.058
G1 X42.802 Y-9.992 Z-1.322
G3 X42.498 Y-10.108 Z-1.34 I-0.152 J-0.058
X42.806 Y-10.003 Z-1.357 I0.152 J0.058
G1 X42.802 Y-9.992
G3 X42.498 Y-10.108 Z-1.375 I-0.152 J-0.058
X42.806 Y-10.003 Z-1.393 I0.152 J0.058
G1 X42.802 Y-9.992
G3 X42.498 Y-10.108 Z-1.411 I-0.152 J-0.058
X42.806 Y-10.003 Z-1.428 I0.152 J0.058
G1 X42.802 Y-9.992 Z-1.429
G3 X42.498 Y-10.108 Z-1.447 I-0.152 J-0.058
X42.806 Y-10.003 Z-1.464 I0.152 J0.058
G1 X42.802 Y-9.992
G3 X42.498 Y-10.108 Z-1.482 I-0.152 J-0.058
X42.806 Y-10.003 Z-1.5 I0.152 J0.058
G1 X42.802 Y-9.992
G3 X42.498 Y-10.108 I-0.152 J-0.058 F500
X42.802 Y-9.992 I0.152 J0.058
G1 X42.797 Y-9.981 F233.33
G3 X42.503 Y-10.119 Z-1.518 I-0.147 J-0.069
X42.802 Y-9.992 Z-1.536 I0.147 J0.069
G1 X42.797 Y-9.981
G3 X42.503 Y-10.119 Z-1.554 I-0.147 J-0.069
X42.802 Y-9.992 Z-1.571 I0.147 J0.069
G1 X42.797 Y-9.981 Z-1.572
G3 X42.503 Y-10.119 Z-1.59 I-0.147 J-0.069
X42.802 Y-9.992 Z-1.607 I0.147 J0.069
G1 X42.797 Y-9.981
G3 X42.503 Y-10.119 Z-1.625 I-0.147 J-0.069
X42.802 Y-9.992 Z-1.643 I0.147 J0.069
G1 X42.797 Y-9.981
G3 X42.503 Y-10.119 Z-1.661 I-0.147 J-0.069
X42.802 Y-9.992 Z-1.678 I0.147 J0.069
G1 X42.797 Y-9.981 Z-1.679
G3 X42.503 Y-10.119 Z-1.697 I-0.147 J-0.069
X42.802 Y-9.992 Z-1.714 I0.147 J0.069
G1 X42.797 Y-9.981
G3 X42.503 Y-10.119 Z-1.732 I-0.147 J-0.069
X42.802 Y-9.992 Z-1.75 I0.147 J0.069
G1 X42.797 Y-9.981
G3 X42.503 Y-10.119 I-0.147 J-0.069 F500
X42.797 Y-9.981 I0.147 J0.069
G1 X42.791 Y-9.97 F233.33
G3 X42.509 Y-10.13 Z-1.768 I-0.141 J-0.08
X42.797 Y-9.981 Z-1.786 I0.141 J0.08
G1 X42.791 Y-9.97
G3 X42.509 Y-10.13 Z-1.804 I-0.141 J-0.08
X42.797 Y-9.981 Z-1.821 I0.141 J0.08
G1 X42.791 Y-9.97 Z-1.822
G3 X42.509 Y-10.13 Z-1.84 I-0.141 J-0.08
X42.797 Y-9.981 Z-1.857 I0.141 J0.08
G1 X42.791 Y-9.97
G3 X42.509 Y-10.13 Z-1.875 I-0.141 J-0.08
X42.797 Y-9.981 Z-1.893 I0.141 J0.08
G1 X42.791 Y-9.97
G3 X42.509 Y-10.13 Z-1.911 I-0.141 J-0.08
X42.797 Y-9.981 Z-1.928 I0.141 J0.08
G1 X42.791 Y-9.97 Z-1.929
G3 X42.509 Y-10.13 Z-1.947 I-0.141 J-0.08
X42.797 Y-9.981 Z-1.964 I0.141 J0.08
G1 X42.791 Y-9.97
G3 X42.509 Y-10.13 Z-1.982 I-0.141 J-0.08
X42.797 Y-9.981 Z-2 I0.141 J0.08
G1 X42.791 Y-9.97
G3 X42.509 Y-10.13 I-0.141 J-0.08 F500
X42.791 Y-9.97 I0.141 J0.08
G1 X42.785 Y-9.96 F233.33
G3 X42.515 Y-10.14 Z-2.018 I-0.135 J-0.09
X42.791 Y-9.97 Z-2.036 I0.135 J0.09
G1 X42.785 Y-9.96
G3 X42.515 Y-10.14 Z-2.054 I-0.135 J-0.09
X42.791 Y-9.97 Z-2.071 I0.135 J0.09
G1 X42.785 Y-9.96 Z-2.072
G3 X42.515 Y-10.14 Z-2.09 I-0.135 J-0.09
X42.791 Y-9.97 Z-2.107 I0.135 J0.09
G1 X42.785 Y-9.96
G3 X42.515 Y-10.14 Z-2.125 I-0.135 J-0.09
X42.791 Y-9.97 Z-2.143 I0.135 J0.09
G1 X42.785 Y-9.96
G3 X42.515 Y-10.14 Z-2.161 I-0.135 J-0.09
X42.791 Y-9.97 Z-2.178 I0.135 J0.09
G1 X42.785 Y-9.96 Z-2.179
G3 X42.515 Y-10.14 Z-2.197 I-0.135 J-0.09
X42.791 Y-9.97 Z-2.214 I0.135 J0.09
G1 X42.785 Y-9.96
G3 X42.515 Y-10.14 Z-2.232 I-0.135 J-0.09
X42.791 Y-9.97 Z-2.25 I0.135 J0.09
G1 X42.785 Y-9.96
G3 X42.515 Y-10.14 I-0.135 J-0.09 F500
X42.785 Y-9.96 I0.135 J0.09
G1 X42.778 Y-9.95 F233.33
G3 X42.522 Y-10.15 Z-2.268 I-0.128 J-0.1
X42.785 Y-9.96 Z-2.286 I0.128 J0.1
G1 X42.778 Y-9.95
G3 X42.522 Y-10.15 Z-2.304 I-0.128 J-0.1
X42.785 Y-9.96 Z-2.321 I0.128 J0.1
G1 X42.778 Y-9.95 Z-2.322
G3 X42.522 Y-10.15 Z-2.34 I-0.128 J-0.1
X42.785 Y-9.96 Z-2.357 I0.128 J0.1
G1 X42.778 Y-9.95
G3 X42.522 Y-10.15 Z-2.375 I-0.128 J-0.1
X42.785 Y-9.96 Z-2.393 I0.128 J0.1
G1 X42.778 Y-9.95
G3 X42.522 Y-10.15 Z-2.411 I-0.128 J-0.1
X42.785 Y-9.96 Z-2.428 I0.128 J0.1
G1 X42.778 Y-9.95 Z-2.429
G3 X42.522 Y-10.15 Z-2.447 I-0.128 J-0.1
X42.785 Y-9.96 Z-2.464 I0.128 J0.1
G1 X42.778 Y-9.95
G3 X42.522 Y-10.15 Z-2.482 I-0.128 J-0.1
X42.785 Y-9.96 Z-2.5 I0.128 J0.1
G1 X42.778 Y-9.95
G3 X42.522 Y-10.15 I-0.128 J-0.1 F500
X42.778 Y-9.95 I0.128 J0.1
X42.522 Y-10.15 Z-2.518 I-0.128 J-0.1 F233.33
X42.778 Y-9.95 Z-2.536 I0.128 J0.1
X42.522 Y-10.15 Z-2.553 I-0.128 J-0.1
X42.778 Y-9.95 Z-2.571 I0.128 J0.1
X42.522 Y-10.15 Z-2.589 I-0.128 J-0.1
X42.787 Y-10.137 Z-2.6 I0.128 J0.1
X42.513 Y-9.963 I-0.137 J0.087 F500
X42.787 Y-10.137 I0.137 J-0.087
G1 X42.806 Y-10.095 Z-2.593
X42.813 Y-10.05 Z-2.586
X42.809 Y-10.014 Z-2.567
X42.797 Y-9.981 Z-2.548
X42.778 Y-9.95 Z-2.53
X42.747 Y-9.92 Z-2.474
X42.709 Y-9.899 Z-2.419
X42.68 Y-9.89 Z-2.283
G0 Z5
X42.487 Y-50.05
Z2.818
G1 Z2.5 F500
Z-0.25 F233.33
G3 X42.813 I0.163 J0 F500
X42.487 I-0.163 J0
G1 X42.488 Y-50.062 F233.33
G3 X42.812 Y-50.038 Z-0.268 I0.162 J0.012
X42.488 Y-50.05 Z-0.286 I-0.162 J-0.012
G1 Y-50.062
G3 X42.812 Y-50.038 Z-0.304 I0.162 J0.012
X42.488 Y-50.05 Z-0.321 I-0.162 J-0.012
G1 Y-50.062 Z-0.322
G3 X42.812 Y-50.038 Z-0.34 I0.162 J0.012
X42.488 Y-50.05 Z-0.357 I-0.162 J-0.012
G1 Y-50.062
G3 X42.812 Y-50.038 Z-0.375 I0.162 J0.012
X42.488 Y-50.05 Z-0.393 I-0.162 J-0.012
G1 Y-50.062
G3 X42.812 Y-50.038 Z-0.411 I0.162 J0.012
X42.488 Y-50.05 Z-0.428 I-0.162 J-0.012
G1 Y-50.062 Z-0.429
G3 X42.812 Y-50.038 Z-0.447 I0.162 J0.012
X42.488 Y-50.05 Z-0.464 I-0.162 J-0.012
G1 Y-50.062
G3 X42.812 Y-50.038 Z-0.482 I0.162 J0.012
X42.488 Y-50.05 Z-0.5 I-0.162 J-0.012
G1 Y-50.062
G3 X42.812 Y-50.038 I0.162 J0.012 F500
X42.488 Y-50.05 I-0.162 J-0.012
G1 Y-50.062
X42.489 Y-50.074 F233.33
G3 X42.811 Y-50.026 Z-0.518 I0.161 J0.024
X42.487 Y-50.05 Z-0.535 I-0.161 J-0.024
G1 X42.488 Y-50.062 Z-0.536
X42.489 Y-50.074
G3 X42.811 Y-50.026 Z-0.554 I0.161 J0.024
X42.487 Y-50.05 Z-0.571 I-0.161 J-0.024
G1 X42.488 Y-50.062
X42.489 Y-50.074 Z-0.572
G3 X42.811 Y-50.026 Z-0.59 I0.161 J0.024
X42.487 Y-50.05 Z-0.607 I-0.161 J-0.024
G1 X42.488 Y-50.062
X42.489 Y-50.074
G3 X42.811 Y-50.026 Z-0.625 I0.161 J0.024
X42.487 Y-50.05 Z-0.642 I-0.161 J-0.024
G1 X42.488 Y-50.062 Z-0.643
X42.489 Y-50.074
G3 X42.811 Y-50.026 Z-0.661 I0.161 J0.024
X42.487 Y-50.05 Z-0.678 I-0.161 J-0.024
G1 X42.488 Y-50.062
X42.489 Y-50.074 Z-0.679
G3 X42.811 Y-50.026 Z-0.697 I0.161 J0.024
X42.487 Y-50.05 Z-0.714 I-0.161 J-0.024
G1 X42.488 Y-50.062
X42.489 Y-50.074
G3 X42.811 Y-50.026 Z-0.732 I0.161 J0.024
X42.487 Y-50.05 Z-0.749 I-0.161 J-0.024
G1 X42.488 Y-50.062 Z-0.75
X42.489 Y-50.074
G3 X42.811 Y-50.026 I0.161 J0.024 F500
X42.489 Y-50.074 I-0.161 J-0.024
G1 X42.491 Y-50.086 F233.33
G3 X42.809 Y-50.014 Z-0.768 I0.159 J0.036
X42.489 Y-50.074 Z-0.786 I-0.159 J-0.036
G1 X42.491 Y-50.086
G3 X42.809 Y-50.014 Z-0.804 I0.159 J0.036
X42.489 Y-50.074 Z-0.821 I-0.159 J-0.036
G1 X42.491 Y-50.086 Z-0.822
G3 X42.809 Y-50.014 Z-0.84 I0.159 J0.036
X42.489 Y-50.074 Z-0.857 I-0.159 J-0.036
G1 X42.491 Y-50.086
G3 X42.809 Y-50.014 Z-0.875 I0.159 J0.036
X42.489 Y-50.074 Z-0.893 I-0.159 J-0.036
G1 X42.491 Y-50.086
G3 X42.809 Y-50.014 Z-0.911 I0.159 J0.036
X42.489 Y-50.074 Z-0.928 I-0.159 J-0.036
G1 X42.491 Y-50.086 Z-0.929
G3 X42.809 Y-50.014 Z-0.947 I0.159 J0.036
X42.489 Y-50.074 Z-0.964 I-0.159 J-0.036
G1 X42.491 Y-50.086
G3 X42.809 Y-50.014 Z-0.982 I0.159 J0.036
X42.489 Y-50.074 Z-1 I-0.159 J-0.036
G1 X42.491 Y-50.086
G3 X42.809 Y-50.014 I0.159 J0.036 F500
X42.491 Y-50.086 I-0.159 J-0.036
G1 X42.494 Y-50.097 F233.33
G3 X42.806 Y-50.003 Z-1.018 I0.156 J0.047
X42.491 Y-50.086 Z-1.036 I-0.156 J-0.047
G1 X42.494 Y-50.097
G3 X42.806 Y-50.003 Z-1.054 I0.156 J0.047
X42.491 Y-50.086 Z-1.071 I-0.156 J-0.047
G1 X42.494 Y-50.097 Z-1.072
G3 X42.806 Y-50.003 Z-1.09 I0.156 J0.047
X42.491 Y-50.086 Z-1.107 I-0.156 J-0.047
G1 X42.494 Y-50.097
G3 X42.806 Y-50.003 Z-1.125 I0.156 J0.047
X42.491 Y-50.086 Z-1.143 I-0.156 J-0.047
G1 X42.494 Y-50.097
G3 X42.806 Y-50.003 Z-1.161 I0.156 J0.047
X42.491 Y-50.086 Z-1.178 I-0.156 J-0.047
G1 X42.494 Y-50.097 Z-1.179
G3 X42.806 Y-50.003 Z-1.197 I0.156 J0.047
X42.491 Y-50.086 Z-1.214 I-0.156 J-0.047
G1 X42.494 Y-50.097
G3 X42.806 Y-50.003 Z-1.232 I0.156 J0.047
X42.491 Y-50.086 Z-1.25 I-0.156 J-0.047
G1 X42.494 Y-50.097
G3 X42.806 Y-50.003 I0.156 J0.047 F500
X42.494 Y-50.097 I-0.156 J-0.047
G1 X42.498 Y-50.108 F233.33
G3 X42.802 Y-49.992 Z-1.268 I0.152 J0.058
X42.494 Y-50.097 Z-1.286 I-0.152 J-0.058
G1 X42.498 Y-50.108
G3 X42.802 Y-49.992 Z-1.304 I0.152 J0.058
X42.494 Y-50.097 Z-1.321 I-0.152 J-0.058
G1 X42.498 Y-50.108 Z-1.322
G3 X42.802 Y-49.992 Z-1.34 I0.152 J0.058
X42.494 Y-50.097 Z-1.357 I-0.152 J-0.058
G1 X42.498 Y-50.108
G3 X42.802 Y-49.992 Z-1.375 I0.152 J0.058
X42.494 Y-50.097 Z-1.393 I-0.152 J-0.058
G1 X42.498 Y-50.108
G3 X42.802 Y-49.992 Z-1.411 I0.152 J0.058
X42.494 Y-50.097 Z-1.428 I-0.152 J-0.058
G1 X42.498 Y-50.108 Z-1.429
G3 X42.802 Y-49.992 Z-1.447 I0.152 J0.058
X42.494 Y-50.097 Z-1.464 I-0.152 J-0.058
G1 X42.498 Y-50.108
G3 X42.802 Y-49.992 Z-1.482 I0.152 J0.058
X42.494 Y-50.097 Z-1.5 I-0.152 J-0.058
G1 X42.498 Y-50.108
G3 X42.802 Y-49.992 I0.152 J0.058 F500
X42.498 Y-50.108 I-0.152 J-0.058
G1 X42.503 Y-50.119 F233.33
G3 X42.797 Y-49.981 Z-1.518 I0.147 J0.069
X42.498 Y-50.108 Z-1.536 I-0.147 J-0.069
G1 X42.503 Y-50.119
G3 X42.797 Y-49.981 Z-1.554 I0.147 J0.069
X42.498 Y-50.108 Z-1.571 I-0.147 J-0.069
G1 X42.503 Y-50.119 Z-1.572
G3 X42.797 Y-49.981 Z-1.59 I0.147 J0.069
X42.498 Y-50.108 Z-1.607 I-0.147 J-0.069
G1 X42.503 Y-50.119
G3 X42.797 Y-49.981 Z-1.625 I0.147 J0.069
X42.498 Y-50.108 Z-1.643 I-0.147 J-0.069
G1 X42.503 Y-50.119
G3 X42.797 Y-49.981 Z-1.661 I0.147 J0.069
X42.498 Y-50.108 Z-1.678 I-0.147 J-0.069
G1 X42.503 Y-50.119 Z-1.679
G3 X42.797 Y-49.981 Z-1.697 I0.147 J0.069
X42.498 Y-50.108 Z-1.714 I-0.147 J-0.069
G1 X42.503 Y-50.119
G3 X42.797 Y-49.981 Z-1.732 I0.147 J0.069
X42.498 Y-50.108 Z-1.75 I-0.147 J-0.069
G1 X42.503 Y-50.119
G3 X42.797 Y-49.981 I0.147 J0.069 F500
X42.503 Y-50.119 I-0.147 J-0.069
G1 X42.509 Y-50.13 F233.33
G3 X42.791 Y-49.97 Z-1.768 I0.141 J0.08
X42.503 Y-50.119 Z-1.786 I-0.141 J-0.08
G1 X42.509 Y-50.13
G3 X42.791 Y-49.97 Z-1.804 I0.141 J0.08
X42.503 Y-50.119 Z-1.821 I-0.141 J-0.08
G1 X42.509 Y-50.13 Z-1.822
G3 X42.791 Y-49.97 Z-1.84 I0.141 J0.08
X42.503 Y-50.119 Z-1.857 I-0.141 J-0.08
G1 X42.509 Y-50.13
G3 X42.791 Y-49.97 Z-1.875 I0.141 J0.08
X42.503 Y-50.119 Z-1.893 I-0.141 J-0.08
G1 X42.509 Y-50.13
G3 X42.791 Y-49.97 Z-1.911 I0.141 J0.08
X42.503 Y-50.119 Z-1.928 I-0.141 J-0.08
G1 X42.509 Y-50.13 Z-1.929
G3 X42.791 Y-49.97 Z-1.947 I0.141 J0.08
X42.503 Y-50.119 Z-1.964 I-0.141 J-0.08
G1 X42.509 Y-50.13
G3 X42.791 Y-49.97 Z-1.982 I0.141 J0.08
X42.503 Y-50.119 Z-2 I-0.141 J-0.08
G1 X42.509 Y-50.13
G3 X42.791 Y-49.97 I0.141 J0.08 F500
X42.509 Y-50.13 I-0.141 J-0.08
G1 X42.515 Y-50.14 F233.33
G3 X42.785 Y-49.96 Z-2.018 I0.135 J0.09
X42.509 Y-50.13 Z-2.036 I-0.135 J-0.09
G1 X42.515 Y-50.14
G3 X42.785 Y-49.96 Z-2.054 I0.135 J0.09
X42.509 Y-50.13 Z-2.071 I-0.135 J-0.09
G1 X42.515 Y-50.14 Z-2.072
G3 X42.785 Y-49.96 Z-2.09 I0.135 J0.09
X42.509 Y-50.13 Z-2.107 I-0.135 J-0.09
G1 X42.515 Y-50.14
G3 X42.785 Y-49.96 Z-2.125 I0.135 J0.09
X42.509 Y-50.13 Z-2.143 I-0.135 J-0.09
G1 X42.515 Y-50.14
G3 X42.785 Y-49.96 Z-2.161 I0.135 J0.09
X42.509 Y-50.13 Z-2.178 I-0.135 J-0.09
G1 X42.515 Y-50.14 Z-2.179
G3 X42.785 Y-49.96 Z-2.197 I0.135 J0.09
X42.509 Y-50.13 Z-2.214 I-0.135 J-0.09
G1 X42.515 Y-50.14
G3 X42.785 Y-49.96 Z-2.232 I0.135 J0.09
X42.509 Y-50.13 Z-2.25 I-0.135 J-0.09
G1 X42.515 Y-50.14
G3 X42.785 Y-49.96 I0.135 J0.09 F500
X42.515 Y-50.14 I-0.135 J-0.09
G1 X42.522 Y-50.15 F233.33
G3 X42.778 Y-49.95 Z-2.268 I0.128 J0.1
X42.515 Y-50.14 Z-2.286 I-0.128 J-0.1
G1 X42.522 Y-50.15
G3 X42.778 Y-49.95 Z-2.304 I0.128 J0.1
X42.515 Y-50.14 Z-2.321 I-0.128 J-0.1
G1 X42.522 Y-50.15 Z-2.322
G3 X42.778 Y-49.95 Z-2.34 I0.128 J0.1
X42.515 Y-50.14 Z-2.357 I-0.128 J-0.1
G1 X42.522 Y-50.15
G3 X42.778 Y-49.95 Z-2.375 I0.128 J0.1
X42.515 Y-50.14 Z-2.393 I-0.128 J-0.1
G1 X42.522 Y-50.15
G3 X42.778 Y-49.95 Z-2.411 I0.128 J0.1
X42.515 Y-50.14 Z-2.428 I-0.128 J-0.1
G1 X42.522 Y-50.15 Z-2.429
G3 X42.778 Y-49.95 Z-2.447 I0.128 J0.1
X42.515 Y-50.14 Z-2.464 I-0.128 J-0.1
G1 X42.522 Y-50.15
G3 X42.778 Y-49.95 Z-2.482 I0.128 J0.1
X42.515 Y-50.14 Z-2.5 I-0.128 J-0.1
G1 X42.522 Y-50.15
G3 X42.778 Y-49.95 I0.128 J0.1 F500
X42.522 Y-50.15 I-0.128 J-0.1
X42.778 Y-49.95 Z-2.518 I0.128 J0.1 F233.33
X42.522 Y-50.15 Z-2.536 I-0.128 J-0.1
X42.778 Y-49.95 Z-2.553 I0.128 J0.1
X42.522 Y-50.15 Z-2.571 I-0.128 J-0.1
X42.778 Y-49.95 Z-2.589 I0.128 J0.1
X42.513 Y-49.963 Z-2.6 I-0.128 J-0.1
X42.787 Y-50.137 I0.137 J-0.087 F500
X42.513 Y-49.963 I-0.137 J0.087
G1 X42.494 Y-50.005 Z-2.593
X42.487 Y-50.05 Z-2.586
X42.491 Y-50.086 Z-2.567
X42.503 Y-50.119 Z-2.548
X42.522 Y-50.15 Z-2.53
X42.553 Y-50.18 Z-2.474
X42.591 Y-50.201 Z-2.419
X42.62 Y-50.21 Z-2.283
G0 Z5
X42.487 Y-60.05
Z2.818
G1 Z2.5 F500
Z-0.25 F233.33
G3 X42.813 I0.163 J0 F500
X42.487 I-0.163 J0
X42.813 Z-0.268 I0.163 J0 F233.33
X42.487 Z-0.286 I-0.163 J0
G1 X42.488 Y-60.062
G3 X42.812 Y-60.038 Z-0.304 I0.162 J0.012
X42.488 Y-60.05 Z-0.321 I-0.162 J-0.012
G1 Y-60.062 Z-0.322
G3 X42.812 Y-60.038 Z-0.34 I0.162 J0.012
X42.488 Y-60.05 Z-0.357 I-0.162 J-0.012
G1 Y-60.062
G3 X42.812 Y-60.038 Z-0.375 I0.162 J0.012
X42.488 Y-60.05 Z-0.393 I-0.162 J-0.012
G1 Y-60.062
G3 X42.812 Y-60.038 Z-0.411 I0.162 J0.012
X42.488 Y-60.05 Z-0.428 I-0.162 J-0.012
G1 Y-60.062 Z-0.429
G3 X42.812 Y-60.038 Z-0.447 I0.162 J0.012
X42.488 Y-60.05 Z-0.464 I-0.162 J-0.012
G1 Y-60.062
G3 X42.812 Y-60.038 Z-0.482 I0.162 J0.012
X42.488 Y-60.05 Z-0.5 I-0.162 J-0.012
G1 Y-60.062
G3 X42.812 Y-60.038 I0.162 J0.012 F500
X42.488 Y-60.062 I-0.162 J-0.012
G1 X42.489 Y-60.074 F233.33
G3 X42.811 Y-60.026 Z-0.518 I0.161 J0.024
X42.487 Y-60.05 Z-0.535 I-0.161 J-0.024
G1 X42.488 Y-60.062 Z-0.536
X42.489 Y-60.074
G3 X42.811 Y-60.026 Z-0.554 I0.161 J0.024
X42.487 Y-60.05 Z-0.571 I-0.161 J-0.024
G1 X42.488 Y-60.062
X42.489 Y-60.074 Z-0.572
G3 X42.811 Y-60.026 Z-0.59 I0.161 J0.024
X42.487 Y-60.05 Z-0.607 I-0.161 J-0.024
G1 X42.488 Y-60.062
X42.489 Y-60.074
G3 X42.811 Y-60.026 Z-0.625 I0.161 J0.024
X42.487 Y-60.05 Z-0.642 I-0.161 J-0.024
G1 X42.488 Y-60.062 Z-0.643
X42.489 Y-60.074
G3 X42.811 Y-60.026 Z-0.661 I0.161 J0.024
X42.487 Y-60.05 Z-0.678 I-0.161 J-0.024
G1 X42.488 Y-60.062
X42.489 Y-60.074 Z-0.679
G3 X42.811 Y-60.026 Z-0.697 I0.161 J0.024
X42.487 Y-60.05 Z-0.714 I-0.161 J-0.024
G1 X42.488 Y-60.062
X42.489 Y-60.074
G3 X42.811 Y-60.026 Z-0.732 I0.161 J0.024
X42.487 Y-60.05 Z-0.749 I-0.161 J-0.024
G1 X42.488 Y-60.062 Z-0.75
X42.489 Y-60.074
G3 X42.811 Y-60.026 I0.161 J0.024 F500
X42.489 Y-60.074 I-0.161 J-0.024
G1 X42.491 Y-60.086 F233.33
G3 X42.809 Y-60.014 Z-0.768 I0.159 J0.036
X42.489 Y-60.074 Z-0.786 I-0.159 J-0.036
G1 X42.491 Y-60.086
G3 X42.809 Y-60.014 Z-0.804 I0.159 J0.036
X42.489 Y-60.074 Z-0.821 I-0.159 J-0.036
G1 X42.491 Y-60.086 Z-0.822
G3 X42.809 Y-60.014 Z-0.84 I0.159 J0.036
X42.489 Y-60.074 Z-0.857 I-0.159 J-0.036
G1 X42.491 Y-60.086
G3 X42.809 Y-60.014 Z-0.875 I0.159 J0.036
X42.489 Y-60.074 Z-0.893 I-0.159 J-0.036
G1 X42.491 Y-60.086
G3 X42.809 Y-60.014 Z-0.911 I0.159 J0.036
X42.489 Y-60.074 Z-0.928 I-0.159 J-0.036
G1 X42.491 Y-60.086 Z-0.929
G3 X42.809 Y-60.014 Z-0.947 I0.159 J0.036
X42.489 Y-60.074 Z-0.964 I-0.159 J-0.036
G1 X42.491 Y-60.086
G3 X42.809 Y-60.014 Z-0.982 I0.159 J0.036
X42.489 Y-60.074 Z-1 I-0.159 J-0.036
G1 X42.491 Y-60.086
G3 X42.809 Y-60.014 I0.159 J0.036 F500
X42.491 Y-60.086 I-0.159 J-0.036
G1 X42.494 Y-60.097 F233.33
G3 X42.806 Y-60.003 Z-1.018 I0.156 J0.047
X42.491 Y-60.086 Z-1.036 I-0.156 J-0.047
G1 X42.494 Y-60.097
G3 X42.806 Y-60.003 Z-1.054 I0.156 J0.047
X42.491 Y-60.086 Z-1.071 I-0.156 J-0.047
G1 X42.494 Y-60.097 Z-1.072
G3 X42.806 Y-60.003 Z-1.09 I0.156 J0.047
X42.491 Y-60.086 Z-1.107 I-0.156 J-0.047
G1 X42.494 Y-60.097
G3 X42.806 Y-60.003 Z-1.125 I0.156 J0.047
X42.491 Y-60.086 Z-1.143 I-0.156 J-0.047
G1 X42.494 Y-60.097
G3 X42.806 Y-60.003 Z-1.161 I0.156 J0.047
X42.491 Y-60.086 Z-1.178 I-0.156 J-0.047
G1 X42.494 Y-60.097 Z-1.179
G3 X42.806 Y-60.003 Z-1.197 I0.156 J0.047
X42.491 Y-60.086 Z-1.214 I-0.156 J-0.047
G1 X42.494 Y-60.097
G3 X42.806 Y-60.003 Z-1.232 I0.156 J0.047
X42.491 Y-60.086 Z-1.25 I-0.156 J-0.047
G1 X42.494 Y-60.097
G3 X42.806 Y-60.003 I0.156 J0.047 F500
X42.494 Y-60.097 I-0.156 J-0.047
G1 X42.498 Y-60.108 F233.33
G3 X42.802 Y-59.992 Z-1.268 I0.152 J0.058
X42.494 Y-60.097 Z-1.286 I-0.152 J-0.058
G1 X42.498 Y-60.108
G3 X42.802 Y-59.992 Z-1.304 I0.152 J0.058
X42.494 Y-60.097 Z-1.321 I-0.152 J-0.058
G1 X42.498 Y-60.108 Z-1.322
G3 X42.802 Y-59.992 Z-1.34 I0.152 J0.058
X42.494 Y-60.097 Z-1.357 I-0.152 J-0.058
G1 X42.498 Y-60.108
G3 X42.802 Y-59.992 Z-1.375 I0.152 J0.058
X42.494 Y-60.097 Z-1.393 I-0.152 J-0.058
G1 X42.498 Y-60.108
G3 X42.802 Y-59.992 Z-1.411 I0.152 J0.058
X42.494 Y-60.097 Z-1.428 I-0.152 J-0.058
G1 X42.498 Y-60.108 Z-1.429
G3 X42.802 Y-59.992 Z-1.447 I0.152 J0.058
X42.494 Y-60.097 Z-1.464 I-0.152 J-0.058
G1 X42.498 Y-60.108
G3 X42.802 Y-59.992 Z-1.482 I0.152 J0.058
X42.494 Y-60.097 Z-1.5 I-0.152 J-0.058
G1 X42.498 Y-60.108
G3 X42.802 Y-59.992 I0.152 J0.058 F500
X42.498 Y-60.108 I-0.152 J-0.058
G1 X42.503 Y-60.119 F233.33
G3 X42.797 Y-59.981 Z-1.518 I0.147 J0.069
X42.498 Y-60.108 Z-1.536 I-0.147 J-0.069
G1 X42.503 Y-60.119
G3 X42.797 Y-59.981 Z-1.554 I0.147 J0.069
X42.498 Y-60.108 Z-1.571 I-0.147 J-0.069
G1 X42.503 Y-60.119 Z-1.572
G3 X42.797 Y-59.981 Z-1.59 I0.147 J0.069
X42.498 Y-60.108 Z-1.607 I-0.147 J-0.069
G1 X42.503 Y-60.119
G3 X42.797 Y-59.981 Z-1.625 I0.147 J0.069
X42.498 Y-60.108 Z-1.643 I-0.147 J-0.069
G1 X42.503 Y-60.119
G3 X42.797 Y-59.981 Z-1.661 I0.147 J0.069
X42.498 Y-60.108 Z-1.678 I-0.147 J-0.069
G1 X42.503 Y-60.119 Z-1.679
G3 X42.797 Y-59.981 Z-1.697 I0.147 J0.069
X42.498 Y-60.108 Z-1.714 I-0.147 J-0.069
G1 X42.503 Y-60.119
G3 X42.797 Y-59.981 Z-1.732 I0.147 J0.069
X42.498 Y-60.108 Z-1.75 I-0.147 J-0.069
G1 X42.503 Y-60.119
G3 X42.797 Y-59.981 I0.147 J0.069 F500
X42.503 Y-60.119 I-0.147 J-0.069
G1 X42.509 Y-60.13 F233.33
G3 X42.791 Y-59.97 Z-1.768 I0.141 J0.08
X42.503 Y-60.119 Z-1.786 I-0.141 J-0.08
G1 X42.509 Y-60.13
G3 X42.791 Y-59.97 Z-1.804 I0.141 J0.08
X42.503 Y-60.119 Z-1.821 I-0.141 J-0.08
G1 X42.509 Y-60.13 Z-1.822
G3 X42.791 Y-59.97 Z-1.84 I0.141 J0.08
X42.503 Y-60.119 Z-1.857 I-0.141 J-0.08
G1 X42.509 Y-60.13
G3 X42.791 Y-59.97 Z-1.875 I0.141 J0.08
X42.503 Y-60.119 Z-1.893 I-0.141 J-0.08
G1 X42.509 Y-60.13
G3 X42.791 Y-59.97 Z-1.911 I0.141 J0.08
X42.503 Y-60.119 Z-1.928 I-0.141 J-0.08
G1 X42.509 Y-60.13 Z-1.929
G3 X42.791 Y-59.97 Z-1.947 I0.141 J0.08
X42.503 Y-60.119 Z-1.964 I-0.141 J-0.08
G1 X42.509 Y-60.13
G3 X42.791 Y-59.97 Z-1.982 I0.141 J0.08
X42.503 Y-60.119 Z-2 I-0.141 J-0.08
G1 X42.509 Y-60.13
G3 X42.791 Y-59.97 I0.141 J0.08 F500
X42.509 Y-60.13 I-0.141 J-0.08
G1 X42.515 Y-60.14 F233.33
G3 X42.785 Y-59.96 Z-2.018 I0.135 J0.09
X42.509 Y-60.13 Z-2.036 I-0.135 J-0.09
G1 X42.515 Y-60.14
G3 X42.785 Y-59.96 Z-2.054 I0.135 J0.09
X42.509 Y-60.13 Z-2.071 I-0.135 J-0.09
G1 X42.515 Y-60.14 Z-2.072
G3 X42.785 Y-59.96 Z-2.09 I0.135 J0.09
X42.509 Y-60.13 Z-2.107 I-0.135 J-0.09
G1 X42.515 Y-60.14
G3 X42.785 Y-59.96 Z-2.125 I0.135 J0.09
X42.509 Y-60.13 Z-2.143 I-0.135 J-0.09
G1 X42.515 Y-60.14
G3 X42.785 Y-59.96 Z-2.161 I0.135 J0.09
X42.509 Y-60.13 Z-2.178 I-0.135 J-0.09
G1 X42.515 Y-60.14 Z-2.179
G3 X42.785 Y-59.96 Z-2.197 I0.135 J0.09
X42.509 Y-60.13 Z-2.214 I-0.135 J-0.09
G1 X42.515 Y-60.14
G3 X42.785 Y-59.96 Z-2.232 I0.135 J0.09
X42.509 Y-60.13 Z-2.25 I-0.135 J-0.09
G1 X42.515 Y-60.14
G3 X42.785 Y-59.96 I0.135 J0.09 F500
X42.515 Y-60.14 I-0.135 J-0.09
G1 X42.522 Y-60.15 F233.33
G3 X42.778 Y-59.95 Z-2.268 I0.128 J0.1
X42.515 Y-60.14 Z-2.286 I-0.128 J-0.1
G1 X42.522 Y-60.15
G3 X42.778 Y-59.95 Z-2.304 I0.128 J0.1
X42.515 Y-60.14 Z-2.321 I-0.128 J-0.1
G1 X42.522 Y-60.15 Z-2.322
G3 X42.778 Y-59.95 Z-2.34 I0.128 J0.1
X42.515 Y-60.14 Z-2.357 I-0.128 J-0.1
G1 X42.522 Y-60.15
G3 X42.778 Y-59.95 Z-2.375 I0.128 J0.1
X42.515 Y-60.14 Z-2.393 I-0.128 J-0.1
G1 X42.522 Y-60.15
G3 X42.778 Y-59.95 Z-2.411 I0.128 J0.1
X42.515 Y-60.14 Z-2.428 I-0.128 J-0.1
G1 X42.522 Y-60.15 Z-2.429
G3 X42.778 Y-59.95 Z-2.447 I0.128 J0.1
X42.515 Y-60.14 Z-2.464 I-0.128 J-0.1
G1 X42.522 Y-60.15
G3 X42.778 Y-59.95 Z-2.482 I0.128 J0.1
X42.515 Y-60.14 Z-2.5 I-0.128 J-0.1
G1 X42.522 Y-60.15
G3 X42.778 Y-59.95 I0.128 J0.1 F500
X42.522 Y-60.15 I-0.128 J-0.1
X42.778 Y-59.95 Z-2.518 I0.128 J0.1 F233.33
X42.522 Y-60.15 Z-2.536 I-0.128 J-0.1
X42.778 Y-59.95 Z-2.553 I0.128 J0.1
X42.522 Y-60.15 Z-2.571 I-0.128 J-0.1
X42.778 Y-59.95 Z-2.589 I0.128 J0.1
X42.513 Y-59.963 Z-2.6 I-0.128 J-0.1
X42.787 Y-60.137 I0.137 J-0.087 F500
X42.513 Y-59.963 I-0.137 J0.087
G1 X42.494 Y-60.005 Z-2.593
X42.487 Y-60.05 Z-2.586
X42.491 Y-60.086 Z-2.567
X42.503 Y-60.119 Z-2.548
X42.522 Y-60.15 Z-2.53
X42.553 Y-60.18 Z-2.474
X42.591 Y-60.201 Z-2.419
X42.62 Y-60.21 Z-2.283
G0 Z5
X-41.229 Y-59.958
Z2.818
G1 Z2.817 F500
X-41.21 Y-59.971 Z2.698 F233.33
X-41.154 Y-60.005 Z2.597
X-41.066 Y-60.052 Z2.527
X-40.958 Y-60.1 Z2.5
G3 X-39.838 Y-57.3 Z2.335 I0.56 J1.4
X-40.958 Y-60.1 Z2.169 I-0.56 J-1.4
X-39.838 Y-57.3 Z2.004 I0.56 J1.4
X-40.958 Y-60.1 Z1.838 I-0.56 J-1.4
X-39.838 Y-57.3 Z1.673 I0.56 J1.4
X-40.958 Y-60.1 Z1.507 I-0.56 J-1.4
X-39.838 Y-57.3 Z1.342 I0.56 J1.4
X-40.958 Y-60.1 Z1.176 I-0.56 J-1.4
X-39.838 Y-57.3 Z1.011 I0.56 J1.4
X-40.958 Y-60.1 Z0.845 I-0.56 J-1.4
X-39.838 Y-57.3 Z0.68 I0.56 J1.4
X-40.958 Y-60.1 Z0.515 I-0.56 J-1.4
X-39.838 Y-57.3 Z0.349 I0.56 J1.4
X-40.958 Y-60.1 Z0.184 I-0.56 J-1.4
X-39.838 Y-57.3 Z0.018 I0.56 J1.4
X-40.958 Y-60.1 Z-0.147 I-0.56 J-1.4
X-38.89 Y-58.7 Z-0.25 I0.56 J1.4
X-40.746 I-0.928 J0
X-38.838 I0.954 J0 F500
X-43.762 I-2.462 J0
X-38.838 I2.462 J0
G1 X-38.844 Y-58.648
X-38.864 Y-58.6
X-38.896 Y-58.558
X-40.212 Y-57.251
X-40.251 Y-57.22
X-40.297 Y-57.201
X-40.346 Y-57.193
G3 X-40.45 Y-60.207 Z-0.415 I-0.052 J-1.507 F233.33
X-38.89 Y-58.7 Z-0.5 I0.052 J1.507
X-40.746 I-0.928 J0
X-38.838 I0.954 J0 F500
X-43.762 I-2.462 J0
X-38.838 I2.462 J0
G1 X-38.844 Y-58.648
X-38.864 Y-58.6
X-38.896 Y-58.558
X-40.212 Y-57.251
X-40.251 Y-57.22
X-40.297 Y-57.201
X-40.346 Y-57.193
G3 X-40.45 Y-60.207 Z-0.665 I-0.052 J-1.507 F233.33
X-38.89 Y-58.7 Z-0.75 I0.052 J1.507
X-40.746 I-0.928 J0
X-38.838 I0.954 J0 F500
X-43.762 I-2.462 J0
X-38.838 I2.462 J0
G1 X-38.844 Y-58.648
X-38.864 Y-58.6
X-38.896 Y-58.558
X-40.212 Y-57.251
X-40.251 Y-57.22
X-40.297 Y-57.201
X-40.346 Y-57.193
G3 X-40.45 Y-60.207 Z-0.915 I-0.052 J-1.507 F233.33
X-38.89 Y-58.7 Z-1 I0.052 J1.507
X-40.746 I-0.928 J0
X-38.838 I0.954 J0 F500
X-43.762 I-2.462 J0
X-38.838 I2.462 J0
G1 X-38.844 Y-58.648
X-38.864 Y-58.6
X-38.896 Y-58.558
X-40.212 Y-57.251
X-40.251 Y-57.22
X-40.297 Y-57.201
X-40.346 Y-57.193
G3 X-40.45 Y-60.207 Z-1.165 I-0.052 J-1.507 F233.33
X-38.89 Y-58.7 Z-1.25 I0.052 J1.507
X-40.746 I-0.928 J0
X-38.838 I0.954 J0 F500
X-43.762 I-2.462 J0
X-38.838 I2.462 J0
G1 X-38.844 Y-58.648
X-38.864 Y-58.6
X-38.896 Y-58.558
X-40.212 Y-57.251
X-40.251 Y-57.22
X-40.297 Y-57.201
X-40.346 Y-57.193
G3 X-40.45 Y-60.207 Z-1.415 I-0.052 J-1.507 F233.33
X-38.89 Y-58.7 Z-1.5 I0.052 J1.507
X-40.746 I-0.928 J0
X-38.838 I0.954 J0 F500
X-43.762 I-2.462 J0
X-38.838 I2.462 J0
G1 X-38.844 Y-58.648
X-38.864 Y-58.6
X-38.896 Y-58.558
X-40.212 Y-57.251
X-40.251 Y-57.22
X-40.297 Y-57.201
X-40.346 Y-57.193
G3 X-40.45 Y-60.207 Z-1.665 I-0.052 J-1.507 F233.33
X-38.89 Y-58.7 Z-1.75 I0.052 J1.507
X-40.746 I-0.928 J0
X-38.838 I0.954 J0 F500
X-43.762 I-2.462 J0
X-38.838 I2.462 J0
G1 X-38.844 Y-58.648
X-38.864 Y-58.6
X-38.896 Y-58.558
X-40.212 Y-57.251
X-40.251 Y-57.22
X-40.297 Y-57.201
X-40.346 Y-57.193
G3 X-40.45 Y-60.207 Z-1.915 I-0.052 J-1.507 F233.33
X-38.89 Y-58.7 Z-2 I0.052 J1.507
X-40.746 I-0.928 J0
X-38.838 I0.954 J0 F500
X-43.762 I-2.462 J0
X-38.838 I2.462 J0
G1 X-38.844 Y-58.648
X-38.864 Y-58.6
X-38.896 Y-58.558
X-40.212 Y-57.251
X-40.251 Y-57.22
X-40.297 Y-57.201
X-40.346 Y-57.193
G3 X-40.45 Y-60.207 Z-2.165 I-0.052 J-1.507 F233.33
X-38.89 Y-58.7 Z-2.25 I0.052 J1.507
X-40.746 I-0.928 J0
X-38.838 I0.954 J0 F500
X-43.762 I-2.462 J0
X-38.838 I2.462 J0
G1 X-38.844 Y-58.648
X-38.864 Y-58.6
X-38.896 Y-58.558
X-40.212 Y-57.251
X-40.251 Y-57.22
X-40.297 Y-57.201
X-40.346 Y-57.193
G3 X-40.45 Y-60.207 Z-2.415 I-0.052 J-1.507 F233.33
X-38.89 Y-58.7 Z-2.5 I0.052 J1.507
X-40.746 I-0.928 J0
X-38.838 I0.954 J0 F500
X-43.762 I-2.462 J0
X-38.838 I2.462 J0
X-39.069 Y-58.56 I-0.158 J0
G1 X-40.094 Y-59.088
X-40.94 Y-59.86
G3 X-40.884 Y-60.127 I0.107 J-0.117
X-38.891 Y-58.7 Z-2.6 I0.486 J1.427 F233.33
X-40.745 I-0.927 J0
X-38.839 I0.953 J0 F500
X-43.761 I-2.461 J0
X-38.839 I2.461 J0
G1 X-38.843 Y-58.64 Z-2.588
X-38.86 Y-58.581 Z-2.576
X-38.883 Y-58.535 Z-2.541
X-38.914 Y-58.494 Z-2.507
X-38.964 Y-58.447 Z-2.404
X-38.983 Y-58.433 Z-2.283
G0 Z15

(2D Contour2)
X56.088 Y10.263
Z15
Z3
G1 Z2.5 F233.33
Y0 Z-0.25
Y-17.5 F500
G2 X50.5 Y-23.088 I-5.588 J0
G1 X-50.5 Y-23.087
G2 X-56.087 Y-17.5 I0 J5.587
G1 X-56.088 Y17.5
G2 X-50.5 Y23.088 I5.588 J0
G1 X50.5 Y23.087
G2 X56.087 Y17.5 I0 J-5.587
G1 X56.088 Y0
Y-12.091 Z-0.5 F233.33
Y-17.5 F500
G2 X50.5 Y-23.088 I-5.588 J0
G1 X-50.5 Y-23.087
G2 X-56.087 Y-17.5 I0 J5.587
G1 X-56.088 Y17.5
G2 X-50.5 Y23.088 I5.588 J0
G1 X50.5 Y23.087
G2 X56.087 Y17.5 I0 J-5.587
G1 X56.088 Y0
Y-12.091
Y-17.5 Z-0.612 F233.33
G2 X52.547 Y-22.7 Z-0.75 I-5.588 J0
X50.5 Y-23.088 I-2.047 J5.2 F500
G1 X-50.5 Y-23.087
G2 X-56.087 Y-17.5 I0 J5.587
G1 X-56.088 Y17.5
G2 X-50.5 Y23.088 I5.588 J0
G1 X50.5 Y23.087
G2 X56.087 Y17.5 I0 J-5.587
G1 X56.088 Y-12.091
Y-17.5
G2 X52.547 Y-22.7 I-5.588 J0
X50.5 Y-23.088 Z-0.793 I-2.047 J5.2 F233.33
G1 X40.504 Y-23.087 Z-1
X-50.5 F500
G2 X-56.087 Y-17.5 I0 J5.587
G1 X-56.088 Y17.5
G2 X-50.5 Y23.088 I5.588 J0
G1 X50.5 Y23.087
G2 X56.087 Y17.5 I0 J-5.587
G1 X56.088 Y-17.5
G2 X50.5 Y-23.088 I-5.588 J0
G1 X40.504 Y-23.087
X28.413 Z-1.25 F233.33
X-50.5 F500
G2 X-56.087 Y-17.5 I0 J5.587
G1 X-56.088 Y17.5
G2 X-50.5 Y23.088 I5.588 J0
G1 X50.5 Y23.087
G2 X56.087 Y17.5 I0 J-5.587
G1 X56.088 Y-17.5
G2 X50.5 Y-23.088 I-5.588 J0
G1 X28.413 Y-23.087
X16.323 Z-1.5 F233.33
X-50.5 F500
G2 X-56.087 Y-17.5 I0 J5.587
G1 X-56.088 Y17.5
G2 X-50.5 Y23.088 I5.588 J0
G1 X50.5 Y23.087
G2 X56.087 Y17.5 I0 J-5.587
G1 X56.088 Y-17.5
G2 X50.5 Y-23.088 I-5.588 J0
G1 X28.413 Y-23.087
X16.323
X4.232 Z-1.75 F233.33
X-50.5 F500
G2 X-56.087 Y-17.5 I0 J5.587
G1 X-56.088 Y17.5
G2 X-50.5 Y23.088 I5.588 J0
G1 X50.5 Y23.087
G2 X56.087 Y17.5 I0 J-5.587
G1 X56.088 Y-17.5
G2 X50.5 Y-23.088 I-5.588 J0
G1 X16.323 Y-23.087
X4.232
X-7.859 Z-2 F233.33
X-50.5 F500
G2 X-56.087 Y-17.5 I0 J5.587
G1 X-56.088 Y17.5
G2 X-50.5 Y23.088 I5.588 J0
G1 X50.5 Y23.087
G2 X56.087 Y17.5 I0 J-5.587
G1 X56.088 Y-17.5
G2 X50.5 Y-23.088 I-5.588 J0
G1 X4.232 Y-23.087
X-7.859
X-19.95 Z-2.25 F233.33
X-50.5 F500
G2 X-56.087 Y-17.5 I0 J5.587
G1 X-56.088 Y17.5
G2 X-50.5 Y23.088 I5.588 J0
G1 X50.5 Y23.087
G2 X56.087 Y17.5 I0 J-5.587
G1 X56.088 Y-17.5
G2 X50.5 Y-23.088 I-5.588 J0
G1 X-7.859 Y-23.087
X-19.95
X-32.041 Z-2.5 F233.33
X-50.5 F500
G2 X-56.087 Y-17.5 I0 J5.587
G1 X-56.088 Y17.5
G2 X-50.5 Y23.088 I5.588 J0
G1 X50.5 Y23.087
G2 X56.087 Y17.5 I0 J-5.587
G1 X56.088 Y-17.5
G2 X50.5 Y-23.088 I-5.588 J0
G1 X-19.95 Y-23.087
X-32.041
X-36.877 Z-2.6 F233.33
X-50.5 F500
G2 X-56.087 Y-17.5 I0 J5.587
G1 X-56.088 Y17.5
G2 X-50.5 Y23.088 I5.588 J0
G1 X50.5 Y23.087
G2 X56.087 Y17.5 I0 J-5.587
G1 X56.088 Y-17.5
G2 X50.5 Y-23.088 I-5.588 J0
G1 X-32.041 Y-23.087
X-36.877
G0 Z5
X48.827 Y-26.913
Z3
G1 Z2.5 F233.33
X50.5 Z2.052
G2 X56.084 Y-32.313 Z-0.25 I0 J-5.587
G1 X56.088 Y-32.5 F500
Y-67.5
G2 X50.5 Y-73.088 I-5.588 J0
G1 X-50.5
G2 X-56.088 Y-67.5 I0 J5.588
G1 Y-32.5
G2 X-50.5 Y-26.912 I5.588 J0
G1 X50.5 Y-26.913
G2 X56.084 Y-32.313 I0 J-5.587
G1 X56.088 Y-32.5 Z-0.254 F233.33
Y-44.404 Z-0.5
Y-67.5 F500
G2 X50.5 Y-73.088 I-5.588 J0
G1 X-50.5
G2 X-56.088 Y-67.5 I0 J5.588
G1 Y-32.5
G2 X-50.5 Y-26.912 I5.588 J0
G1 X50.5 Y-26.913
G2 X56.087 Y-32.5 I0 J-5.587
G1 X56.088 Y-44.404
Y-56.495 Z-0.75 F233.33
Y-67.5 F500
G2 X50.5 Y-73.088 I-5.588 J0
G1 X-50.5
G2 X-56.088 Y-67.5 I0 J5.588
G1 Y-32.5
G2 X-50.5 Y-26.912 I5.588 J0
G1 X50.5 Y-26.913
G2 X56.087 Y-32.5 I0 J-5.587
G1 X56.088 Y-56.495
Y-67.5 Z-0.978 F233.33
G2 X55.983 Y-68.579 Z-1 I-5.588 J0
X50.5 Y-73.088 I-5.483 J1.079 F500
G1 X-50.5
G2 X-56.088 Y-67.5 I0 J5.588
G1 Y-32.5
G2 X-50.5 Y-26.912 I5.588 J0
G1 X50.5 Y-26.913
G2 X56.087 Y-32.5 I0 J-5.587
G1 X56.088 Y-56.495
Y-67.5
G2 X55.983 Y-68.579 I-5.588 J0
X50.5 Y-73.088 Z-1.159 I-5.483 J1.079 F233.33
G1 X46.1 Z-1.25
X-50.5 F500
G2 X-56.088 Y-67.5 I0 J5.588
G1 Y-32.5
G2 X-50.5 Y-26.912 I5.588 J0
G1 X50.5 Y-26.913
G2 X56.087 Y-32.5 I0 J-5.587
G1 X56.088 Y-67.5
G2 X50.5 Y-73.088 I-5.588 J0
G1 X46.1
X34.009 Z-1.5 F233.33
X-50.5 F500
G2 X-56.088 Y-67.5 I0 J5.588
G1 Y-32.5
G2 X-50.5 Y-26.912 I5.588 J0
G1 X50.5 Y-26.913
G2 X56.087 Y-32.5 I0 J-5.587
G1 X56.088 Y-67.5
G2 X50.5 Y-73.088 I-5.588 J0
G1 X34.009
X21.919 Z-1.75 F233.33
X-50.5 F500
G2 X-56.088 Y-67.5 I0 J5.588
G1 Y-32.5
G2 X-50.5 Y-26.912 I5.588 J0
G1 X50.5 Y-26.913
G2 X56.087 Y-32.5 I0 J-5.587
G1 X56.088 Y-67.5
G2 X50.5 Y-73.088 I-5.588 J0
G1 X34.009
X21.919
X9.828 Z-2 F233.33
X-50.5 F500
G2 X-56.088 Y-67.5 I0 J5.588
G1 Y-32.5
G2 X-50.5 Y-26.912 I5.588 J0
G1 X50.5 Y-26.913
G2 X56.087 Y-32.5 I0 J-5.587
G1 X56.088 Y-67.5
G2 X50.5 Y-73.088 I-5.588 J0
G1 X21.919
X9.828
X-2.263 Z-2.25 F233.33
X-50.5 F500
G2 X-56.088 Y-67.5 I0 J5.588
G1 Y-32.5
G2 X-50.5 Y-26.912 I5.588 J0
G1 X50.5 Y-26.913
G2 X56.087 Y-32.5 I0 J-5.587
G1 X56.088 Y-67.5
G2 X50.5 Y-73.088 I-5.588 J0
G1 X9.828
X-2.263
X-14.354 Z-2.5 F233.33
X-50.5 F500
G2 X-56.088 Y-67.5 I0 J5.588
G1 Y-32.5
G2 X-50.5 Y-26.912 I5.588 J0
G1 X50.5 Y-26.913
G2 X56.087 Y-32.5 I0 J-5.587
G1 X56.088 Y-67.5
G2 X50.5 Y-73.088 I-5.588 J0
G1 X-2.263
X-14.354
X-19.19 Z-2.6 F233.33
X-50.5 F500
G2 X-56.088 Y-67.5 I0 J5.588
G1 Y-32.5
G2 X-50.5 Y-26.912 I5.588 J0
G1 X50.5 Y-26.913
G2 X56.087 Y-32.5 I0 J-5.587
G1 X56.088 Y-67.5
G2 X50.5 Y-73.088 I-5.588 J0
G1 X-14.354
X-19.19
G0 Z5
X56.088 Y42.576
Z3
G1 Z2.5 F233.33
Y32.5 Z-0.2
X56.087 Y32.438 Z-0.217
X56.086 Y32.376 Z-0.233
X56.084 Y32.313 Z-0.25
G2 X50.5 Y26.913 I-5.584 J0.187 F500
G1 X-50.5
G2 X-56.087 Y32.5 I0 J5.587
G1 X-56.088 Y67.5
G2 X-50.5 Y73.088 I5.588 J0
G1 X50.5
G2 X56.088 Y67.5 I0 J-5.588
G1 Y32.5
X56.087 Y32.438
X56.086 Y32.376
X56.084 Y32.313
G2 X50.5 Y26.913 Z-0.428 I-5.584 J0.187 F233.33
G1 X46.999 Z-0.5
X-50.5 F500
G2 X-56.087 Y32.5 I0 J5.587
G1 X-56.088 Y67.5
G2 X-50.5 Y73.088 I5.588 J0
G1 X50.5
G2 X56.088 Y67.5 I0 J-5.588
G1 Y32.5
G2 X50.5 Y26.912 I-5.588 J0
G1 X46.999 Y26.913
X34.908 Z-0.75 F233.33
X-50.5 F500
G2 X-56.087 Y32.5 I0 J5.587
G1 X-56.088 Y67.5
G2 X-50.5 Y73.088 I5.588 J0
G1 X50.5
G2 X56.088 Y67.5 I0 J-5.588
G1 Y32.5
G2 X50.5 Y26.912 I-5.588 J0
G1 X34.908 Y26.913
X22.818 Z-1 F233.33
X-50.5 F500
G2 X-56.087 Y32.5 I0 J5.587
G1 X-56.088 Y67.5
G2 X-50.5 Y73.088 I5.588 J0
G1 X50.5
G2 X56.088 Y67.5 I0 J-5.588
G1 Y32.5
G2 X50.5 Y26.912 I-5.588 J0
G1 X34.908 Y26.913
X22.818
X10.727 Z-1.25 F233.33
X-50.5 F500
G2 X-56.087 Y32.5 I0 J5.587
G1 X-56.088 Y67.5
G2 X-50.5 Y73.088 I5.588 J0
G1 X50.5
G2 X56.088 Y67.5 I0 J-5.588
G1 Y32.5
G2 X50.5 Y26.912 I-5.588 J0
G1 X22.818 Y26.913
X10.727
X-1.364 Z-1.5 F233.33
X-50.5 F500
G2 X-56.087 Y32.5 I0 J5.587
G1 X-56.088 Y67.5
G2 X-50.5 Y73.088 I5.588 J0
G1 X50.5
G2 X56.088 Y67.5 I0 J-5.588
G1 Y32.5
G2 X50.5 Y26.912 I-5.588 J0
G1 X10.727 Y26.913
X-1.364
X-13.455 Z-1.75 F233.33
X-50.5 F500
G2 X-56.087 Y32.5 I0 J5.587
G1 X-56.088 Y67.5
G2 X-50.5 Y73.088 I5.588 J0
G1 X50.5
G2 X56.088 Y67.5 I0 J-5.588
G1 Y32.5
G2 X50.5 Y26.912 I-5.588 J0
G1 X-1.364 Y26.913
X-13.455
X-25.546 Z-2 F233.33
X-50.5 F500
G2 X-56.087 Y32.5 I0 J5.587
G1 X-56.088 Y67.5
G2 X-50.5 Y73.088 I5.588 J0
G1 X50.5
G2 X56.088 Y67.5 I0 J-5.588
G1 Y32.5
G2 X50.5 Y26.912 I-5.588 J0
G1 X-13.455 Y26.913
X-25.546
X-37.637 Z-2.25 F233.33
X-50.5 F500
G2 X-56.087 Y32.5 I0 J5.587
G1 X-56.088 Y67.5
G2 X-50.5 Y73.088 I5.588 J0
G1 X50.5
G2 X56.088 Y67.5 I0 J-5.588
G1 Y32.5
G2 X50.5 Y26.912 I-5.588 J0
G1 X-25.546 Y26.913
X-37.637
X-49.727 Z-2.5 F233.33
X-50.5 F500
G2 X-56.087 Y32.5 I0 J5.587
G1 X-56.088 Y67.5
G2 X-50.5 Y73.088 I5.588 J0
G1 X50.5
G2 X56.088 Y67.5 I0 J-5.588
G1 Y32.5
G2 X50.5 Y26.912 I-5.588 J0
G1 X-37.637 Y26.913
X-49.727
X-50.5 Z-2.516 F233.33
G2 X-54.215 Y28.327 Z-2.6 I0 J5.587
X-56.087 Y32.5 I3.715 J4.173 F500
G1 X-56.088 Y67.5
G2 X-50.5 Y73.088 I5.588 J0
G1 X50.5
G2 X56.088 Y67.5 I0 J-5.588
G1 Y32.5
G2 X50.5 Y26.912 I-5.588 J0
G1 X-49.727 Y26.913
X-50.5
G2 X-54.215 Y28.327 I0 J5.587
G0 Y28.326 Z15
M9
G28 G91 Z0
G90
G28 G91 X0 Y0
G90
M30
%
