%
(back_plate_outline)
(1/8" endmill. Centered. Starts 1mm above 1.6mm part and ends 1mm below part.)
(T3  D=3.175 CR=0 - ZMIN=-2.6 - flat end mill)
G90
G17
G21
G28 G91 Z0
G90

(2D Contour2)
T3 M6
S10000 M3
G54
M7
G0 X10.263 Y-23.087
Z15
Z3
G1 Z2.5 F233.33
X0 Z-0.25
X-50.5 F500
G2 X-56.087 Y-17.5 I0 J5.587
G1 X-56.088 Y17.5
G2 X-50.5 Y23.088 I5.588 J0
G1 X50.5 Y23.087
G2 X56.087 Y17.5 I0 J-5.587
G1 X56.088 Y-17.5
G2 X50.5 Y-23.088 I-5.588 J0
G1 X0 Y-23.087
X-12.091 Z-0.5 F233.33
X-50.5 F500
G2 X-56.087 Y-17.5 I0 J5.587
G1 X-56.088 Y17.5
G2 X-50.5 Y23.088 I5.588 J0
G1 X50.5 Y23.087
G2 X56.087 Y17.5 I0 J-5.587
G1 X56.088 Y-17.5
G2 X50.5 Y-23.088 I-5.588 J0
G1 X0 Y-23.087
X-12.091
X-24.182 Z-0.75 F233.33
X-50.5 F500
G2 X-56.087 Y-17.5 I0 J5.587
G1 X-56.088 Y17.5
G2 X-50.5 Y23.088 I5.588 J0
G1 X50.5 Y23.087
G2 X56.087 Y17.5 I0 J-5.587
G1 X56.088 Y-17.5
G2 X50.5 Y-23.088 I-5.588 J0
G1 X-12.091 Y-23.087
X-24.182
X-36.273 Z-1 F233.33
X-50.5 F500
G2 X-56.087 Y-17.5 I0 J5.587
G1 X-56.088 Y17.5
G2 X-50.5 Y23.088 I5.588 J0
G1 X50.5 Y23.087
G2 X56.087 Y17.5 I0 J-5.587
G1 X56.088 Y-17.5
G2 X50.5 Y-23.088 I-5.588 J0
G1 X-24.182 Y-23.087
X-36.273
X-48.363 Z-1.25 F233.33
X-50.5 F500
G2 X-56.087 Y-17.5 I0 J5.587
G1 X-56.088 Y17.5
G2 X-50.5 Y23.088 I5.588 J0
G1 X50.5 Y23.087
G2 X56.087 Y17.5 I0 J-5.587
G1 X56.088 Y-17.5
G2 X50.5 Y-23.088 I-5.588 J0
G1 X-36.273 Y-23.087
X-48.363
X-50.5 Z-1.294 F233.33
G2 X-56.087 Y-17.5 Z-1.476 I0 J5.587
G1 X-56.088 Y-16.323 Z-1.5
Y17.5 F500
G2 X-50.5 Y23.088 I5.588 J0
G1 X50.5 Y23.087
G2 X56.087 Y17.5 I0 J-5.587
G1 X56.088 Y-17.5
G2 X50.5 Y-23.088 I-5.588 J0
G1 X-48.363 Y-23.087
X-50.5
G2 X-56.087 Y-17.5 I0 J5.587
G1 X-56.088 Y-16.323
Y-4.232 Z-1.75 F233.33
Y17.5 F500
G2 X-50.5 Y23.088 I5.588 J0
G1 X50.5 Y23.087
G2 X56.087 Y17.5 I0 J-5.587
G1 X56.088 Y-17.5
G2 X50.5 Y-23.088 I-5.588 J0
G1 X-50.5 Y-23.087
G2 X-56.087 Y-17.5 I0 J5.587
G1 X-56.088 Y-4.232
Y7.859 Z-2 F233.33
Y17.5 F500
G2 X-50.5 Y23.088 I5.588 J0
G1 X50.5 Y23.087
G2 X56.087 Y17.5 I0 J-5.587
G1 X56.088 Y-17.5
G2 X50.5 Y-23.088 I-5.588 J0
G1 X-50.5 Y-23.087
G2 X-56.087 Y-17.5 I0 J5.587
G1 X-56.088 Y-4.232
Y7.859
Y17.5 Z-2.199 F233.33
G2 X-55.559 Y19.872 Z-2.25 I5.588 J0
X-50.5 Y23.087 I5.059 J-2.372 F500
G1 X50.5
G2 X56.087 Y17.5 I0 J-5.587
G1 X56.088 Y-17.5
G2 X50.5 Y-23.088 I-5.588 J0
G1 X-50.5 Y-23.087
G2 X-56.087 Y-17.5 I0 J5.587
G1 X-56.088 Y7.859
Y17.5
G2 X-55.559 Y19.872 I5.588 J0
X-50.5 Y23.087 Z-2.381 I5.059 J-2.372 F233.33
G1 X-44.736 Z-2.5
X50.5 F500
G2 X56.087 Y17.5 I0 J-5.587
G1 X56.088 Y-17.5
G2 X50.5 Y-23.088 I-5.588 J0
G1 X-50.5 Y-23.087
G2 X-56.087 Y-17.5 I0 J5.587
G1 X-56.088 Y17.5
G2 X-50.5 Y23.088 I5.588 J0
G1 X-44.736 Y23.087
X-39.9 Z-2.6 F233.33
X50.5 F500
G2 X56.087 Y17.5 I0 J-5.587
G1 X56.088 Y-17.5
G2 X50.5 Y-23.088 I-5.588 J0
G1 X-50.5 Y-23.087
G2 X-56.087 Y-17.5 I0 J5.587
G1 X-56.088 Y17.5
G2 X-50.5 Y23.088 I5.588 J0
G1 X-44.736 Y23.087
X-39.9
G0 Z15
M9
G28 G91 Z0
G90
G28 G91 X0 Y0
G90
M30
%
