%
(power_button_holes)
(1/8" end mill. Starts 1mm above 1.6mm work piece and goes 1mm below.)
(T3  D=3.175 CR=0 - ZMIN=-2.6 - flat end mill)
G90
G17
G21
G28 G91 Z0
G90

(2D Pocket1)
T3 M6
S10000 M3
G54
M7
G0 X-41.229 Y-9.958
Z15
Z2.818
G1 Z2.817 F500
X-41.21 Y-9.971 Z2.698 F233.33
X-41.154 Y-10.005 Z2.597
X-41.066 Y-10.052 Z2.527
X-40.958 Y-10.1 Z2.5
G3 X-39.838 Y-7.3 Z2.335 I0.56 J1.4
X-40.958 Y-10.1 Z2.169 I-0.56 J-1.4
X-39.838 Y-7.3 Z2.004 I0.56 J1.4
X-40.958 Y-10.1 Z1.838 I-0.56 J-1.4
X-39.838 Y-7.3 Z1.673 I0.56 J1.4
X-40.958 Y-10.1 Z1.507 I-0.56 J-1.4
X-39.838 Y-7.3 Z1.342 I0.56 J1.4
X-40.958 Y-10.1 Z1.176 I-0.56 J-1.4
X-39.838 Y-7.3 Z1.011 I0.56 J1.4
X-40.958 Y-10.1 Z0.845 I-0.56 J-1.4
X-39.838 Y-7.3 Z0.68 I0.56 J1.4
X-40.958 Y-10.1 Z0.515 I-0.56 J-1.4
X-39.838 Y-7.3 Z0.349 I0.56 J1.4
X-40.958 Y-10.1 Z0.184 I-0.56 J-1.4
X-39.838 Y-7.3 Z0.018 I0.56 J1.4
X-40.958 Y-10.1 Z-0.147 I-0.56 J-1.4
X-38.89 Y-8.7 Z-0.25 I0.56 J1.4
X-40.746 I-0.928 J0
X-38.838 I0.954 J0 F500
X-43.762 I-2.462 J0
X-38.838 I2.462 J0
G1 X-38.844 Y-8.648
X-38.864 Y-8.6
X-38.896 Y-8.558
X-40.212 Y-7.251
X-40.251 Y-7.22
X-40.297 Y-7.201
X-40.346 Y-7.193
G3 X-40.45 Y-10.207 Z-0.415 I-0.052 J-1.507 F233.33
X-38.89 Y-8.7 Z-0.5 I0.052 J1.507
X-40.746 I-0.928 J0
X-38.838 I0.954 J0 F500
X-43.762 I-2.462 J0
X-38.838 I2.462 J0
G1 X-38.844 Y-8.648
X-38.864 Y-8.6
X-38.896 Y-8.558
X-40.212 Y-7.251
X-40.251 Y-7.22
X-40.297 Y-7.201
X-40.346 Y-7.193
G3 X-40.45 Y-10.207 Z-0.665 I-0.052 J-1.507 F233.33
X-38.89 Y-8.7 Z-0.75 I0.052 J1.507
X-40.746 I-0.928 J0
X-38.838 I0.954 J0 F500
X-43.762 I-2.462 J0
X-38.838 I2.462 J0
G1 X-38.844 Y-8.648
X-38.864 Y-8.6
X-38.896 Y-8.558
X-40.212 Y-7.251
X-40.251 Y-7.22
X-40.297 Y-7.201
X-40.346 Y-7.193
G3 X-40.45 Y-10.207 Z-0.915 I-0.052 J-1.507 F233.33
X-38.89 Y-8.7 Z-1 I0.052 J1.507
X-40.746 I-0.928 J0
X-38.838 I0.954 J0 F500
X-43.762 I-2.462 J0
X-38.838 I2.462 J0
G1 X-38.844 Y-8.648
X-38.864 Y-8.6
X-38.896 Y-8.558
X-40.212 Y-7.251
X-40.251 Y-7.22
X-40.297 Y-7.201
X-40.346 Y-7.193
G3 X-40.45 Y-10.207 Z-1.165 I-0.052 J-1.507 F233.33
X-38.89 Y-8.7 Z-1.25 I0.052 J1.507
X-40.746 I-0.928 J0
X-38.838 I0.954 J0 F500
X-43.762 I-2.462 J0
X-38.838 I2.462 J0
G1 X-38.844 Y-8.648
X-38.864 Y-8.6
X-38.896 Y-8.558
X-40.212 Y-7.251
X-40.251 Y-7.22
X-40.297 Y-7.201
X-40.346 Y-7.193
G3 X-40.45 Y-10.207 Z-1.415 I-0.052 J-1.507 F233.33
X-38.89 Y-8.7 Z-1.5 I0.052 J1.507
X-40.746 I-0.928 J0
X-38.838 I0.954 J0 F500
X-43.762 I-2.462 J0
X-38.838 I2.462 J0
G1 X-38.844 Y-8.648
X-38.864 Y-8.6
X-38.896 Y-8.558
X-40.212 Y-7.251
X-40.251 Y-7.22
X-40.297 Y-7.201
X-40.346 Y-7.193
G3 X-40.45 Y-10.207 Z-1.665 I-0.052 J-1.507 F233.33
X-38.89 Y-8.7 Z-1.75 I0.052 J1.507
X-40.746 I-0.928 J0
X-38.838 I0.954 J0 F500
X-43.762 I-2.462 J0
X-38.838 I2.462 J0
G1 X-38.844 Y-8.648
X-38.864 Y-8.6
X-38.896 Y-8.558
X-40.212 Y-7.251
X-40.251 Y-7.22
X-40.297 Y-7.201
X-40.346 Y-7.193
G3 X-40.45 Y-10.207 Z-1.915 I-0.052 J-1.507 F233.33
X-38.89 Y-8.7 Z-2 I0.052 J1.507
X-40.746 I-0.928 J0
X-38.838 I0.954 J0 F500
X-43.762 I-2.462 J0
X-38.838 I2.462 J0
G1 X-38.844 Y-8.648
X-38.864 Y-8.6
X-38.896 Y-8.558
X-40.212 Y-7.251
X-40.251 Y-7.22
X-40.297 Y-7.201
X-40.346 Y-7.193
G3 X-40.45 Y-10.207 Z-2.165 I-0.052 J-1.507 F233.33
X-38.89 Y-8.7 Z-2.25 I0.052 J1.507
X-40.746 I-0.928 J0
X-38.838 I0.954 J0 F500
X-43.762 I-2.462 J0
X-38.838 I2.462 J0
G1 X-38.844 Y-8.648
X-38.864 Y-8.6
X-38.896 Y-8.558
X-40.212 Y-7.251
X-40.251 Y-7.22
X-40.297 Y-7.201
X-40.346 Y-7.193
G3 X-40.45 Y-10.207 Z-2.415 I-0.052 J-1.507 F233.33
X-38.89 Y-8.7 Z-2.5 I0.052 J1.507
X-40.746 I-0.928 J0
X-38.838 I0.954 J0 F500
X-43.762 I-2.462 J0
X-38.838 I2.462 J0
X-39.069 Y-8.56 I-0.158 J0
G1 X-40.094 Y-9.088
X-40.94 Y-9.86
G3 X-40.884 Y-10.127 I0.107 J-0.117
X-38.891 Y-8.7 Z-2.6 I0.486 J1.427 F233.33
X-40.745 I-0.927 J0
X-38.839 I0.953 J0 F500
X-43.761 I-2.461 J0
X-38.839 I2.461 J0
G1 X-38.843 Y-8.64 Z-2.588
X-38.86 Y-8.581 Z-2.576
X-38.883 Y-8.535 Z-2.541
X-38.914 Y-8.494 Z-2.507
X-38.964 Y-8.447 Z-2.404
X-38.983 Y-8.433 Z-2.283
G0 Z5
X42.813 Y-10.05
Z2.818
G1 Z2.5 F500
Z-0.25 F233.33
G3 X42.487 I-0.163 J0 F500
X42.813 I0.163 J0
G1 X42.812 Y-10.038 F233.33
G3 X42.488 Y-10.062 Z-0.268 I-0.162 J-0.012
X42.812 Y-10.05 Z-0.286 I0.162 J0.012
G1 Y-10.038
G3 X42.488 Y-10.062 Z-0.304 I-0.162 J-0.012
X42.812 Y-10.05 Z-0.321 I0.162 J0.012
G1 Y-10.038 Z-0.322
G3 X42.488 Y-10.062 Z-0.34 I-0.162 J-0.012
X42.812 Y-10.05 Z-0.357 I0.162 J0.012
G1 Y-10.038
G3 X42.488 Y-10.062 Z-0.375 I-0.162 J-0.012
X42.812 Y-10.05 Z-0.393 I0.162 J0.012
G1 Y-10.038
G3 X42.488 Y-10.062 Z-0.411 I-0.162 J-0.012
X42.812 Y-10.05 Z-0.428 I0.162 J0.012
G1 Y-10.038 Z-0.429
G3 X42.488 Y-10.062 Z-0.447 I-0.162 J-0.012
X42.812 Y-10.05 Z-0.464 I0.162 J0.012
G1 Y-10.038
G3 X42.488 Y-10.062 Z-0.482 I-0.162 J-0.012
X42.812 Y-10.05 Z-0.5 I0.162 J0.012
G1 Y-10.038
G3 X42.488 Y-10.062 I-0.162 J-0.012 F500
X42.812 Y-10.05 I0.162 J0.012
G1 Y-10.038
X42.811 Y-10.026 F233.33
G3 X42.489 Y-10.074 Z-0.518 I-0.161 J-0.024
X42.813 Y-10.05 Z-0.535 I0.161 J0.024
G1 X42.812 Y-10.038 Z-0.536
X42.811 Y-10.026
G3 X42.489 Y-10.074 Z-0.554 I-0.161 J-0.024
X42.813 Y-10.05 Z-0.571 I0.161 J0.024
G1 X42.812 Y-10.038
X42.811 Y-10.026 Z-0.572
G3 X42.489 Y-10.074 Z-0.59 I-0.161 J-0.024
X42.813 Y-10.05 Z-0.607 I0.161 J0.024
G1 X42.812 Y-10.038
X42.811 Y-10.026
G3 X42.489 Y-10.074 Z-0.625 I-0.161 J-0.024
X42.813 Y-10.05 Z-0.642 I0.161 J0.024
G1 X42.812 Y-10.038 Z-0.643
X42.811 Y-10.026
G3 X42.489 Y-10.074 Z-0.661 I-0.161 J-0.024
X42.813 Y-10.05 Z-0.678 I0.161 J0.024
G1 X42.812 Y-10.038
X42.811 Y-10.026 Z-0.679
G3 X42.489 Y-10.074 Z-0.697 I-0.161 J-0.024
X42.813 Y-10.05 Z-0.714 I0.161 J0.024
G1 X42.812 Y-10.038
X42.811 Y-10.026
G3 X42.489 Y-10.074 Z-0.732 I-0.161 J-0.024
X42.813 Y-10.05 Z-0.749 I0.161 J0.024
G1 X42.812 Y-10.038 Z-0.75
X42.811 Y-10.026
G3 X42.489 Y-10.074 I-0.161 J-0.024 F500
X42.811 Y-10.026 I0.161 J0.024
G1 X42.809 Y-10.014 F233.33
G3 X42.491 Y-10.086 Z-0.768 I-0.159 J-0.036
X42.811 Y-10.026 Z-0.786 I0.159 J0.036
G1 X42.809 Y-10.014
G3 X42.491 Y-10.086 Z-0.804 I-0.159 J-0.036
X42.811 Y-10.026 Z-0.821 I0.159 J0.036
G1 X42.809 Y-10.014 Z-0.822
G3 X42.491 Y-10.086 Z-0.84 I-0.159 J-0.036
X42.811 Y-10.026 Z-0.857 I0.159 J0.036
G1 X42.809 Y-10.014
G3 X42.491 Y-10.086 Z-0.875 I-0.159 J-0.036
X42.811 Y-10.026 Z-0.893 I0.159 J0.036
G1 X42.809 Y-10.014
G3 X42.491 Y-10.086 Z-0.911 I-0.159 J-0.036
X42.811 Y-10.026 Z-0.928 I0.159 J0.036
G1 X42.809 Y-10.014 Z-0.929
G3 X42.491 Y-10.086 Z-0.947 I-0.159 J-0.036
X42.811 Y-10.026 Z-0.964 I0.159 J0.036
G1 X42.809 Y-10.014
G3 X42.491 Y-10.086 Z-0.982 I-0.159 J-0.036
X42.811 Y-10.026 Z-1 I0.159 J0.036
G1 X42.809 Y-10.014
G3 X42.491 Y-10.086 I-0.159 J-0.036 F500
X42.809 Y-10.014 I0.159 J0.036
G1 X42.806 Y-10.003 F233.33
G3 X42.494 Y-10.097 Z-1.018 I-0.156 J-0.047
X42.809 Y-10.014 Z-1.036 I0.156 J0.047
G1 X42.806 Y-10.003
G3 X42.494 Y-10.097 Z-1.054 I-0.156 J-0.047
X42.809 Y-10.014 Z-1.071 I0.156 J0.047
G1 X42.806 Y-10.003 Z-1.072
G3 X42.494 Y-10.097 Z-1.09 I-0.156 J-0.047
X42.809 Y-10.014 Z-1.107 I0.156 J0.047
G1 X42.806 Y-10.003
G3 X42.494 Y-10.097 Z-1.125 I-0.156 J-0.047
X42.809 Y-10.014 Z-1.143 I0.156 J0.047
G1 X42.806 Y-10.003
G3 X42.494 Y-10.097 Z-1.161 I-0.156 J-0.047
X42.809 Y-10.014 Z-1.178 I0.156 J0.047
G1 X42.806 Y-10.003 Z-1.179
G3 X42.494 Y-10.097 Z-1.197 I-0.156 J-0.047
X42.809 Y-10.014 Z-1.214 I0.156 J0.047
G1 X42.806 Y-10.003
G3 X42.494 Y-10.097 Z-1.232 I-0.156 J-0.047
X42.809 Y-10.014 Z-1.25 I0.156 J0.047
G1 X42.806 Y-10.003
G3 X42.494 Y-10.097 I-0.156 J-0.047 F500
X42.806 Y-10.003 I0.156 J0.047
G1 X42.802 Y-9.992 F233.33
G3 X42.498 Y-10.108 Z-1.268 I-0.152 J-0.058
X42.806 Y-10.003 Z-1.286 I0.152 J0.058
G1 X42.802 Y-9.992
G3 X42.498 Y-10.108 Z-1.304 I-0.152 J-0.058
X42.806 Y-10.003 Z-1.321 I0.152 J0.058
G1 X42.802 Y-9.992 Z-1.322
G3 X42.498 Y-10.108 Z-1.34 I-0.152 J-0.058
X42.806 Y-10.003 Z-1.357 I0.152 J0.058
G1 X42.802 Y-9.992
G3 X42.498 Y-10.108 Z-1.375 I-0.152 J-0.058
X42.806 Y-10.003 Z-1.393 I0.152 J0.058
G1 X42.802 Y-9.992
G3 X42.498 Y-10.108 Z-1.411 I-0.152 J-0.058
X42.806 Y-10.003 Z-1.428 I0.152 J0.058
G1 X42.802 Y-9.992 Z-1.429
G3 X42.498 Y-10.108 Z-1.447 I-0.152 J-0.058
X42.806 Y-10.003 Z-1.464 I0.152 J0.058
G1 X42.802 Y-9.992
G3 X42.498 Y-10.108 Z-1.482 I-0.152 J-0.058
X42.806 Y-10.003 Z-1.5 I0.152 J0.058
G1 X42.802 Y-9.992
G3 X42.498 Y-10.108 I-0.152 J-0.058 F500
X42.802 Y-9.992 I0.152 J0.058
G1 X42.797 Y-9.981 F233.33
G3 X42.503 Y-10.119 Z-1.518 I-0.147 J-0.069
X42.802 Y-9.992 Z-1.536 I0.147 J0.069
G1 X42.797 Y-9.981
G3 X42.503 Y-10.119 Z-1.554 I-0.147 J-0.069
X42.802 Y-9.992 Z-1.571 I0.147 J0.069
G1 X42.797 Y-9.981 Z-1.572
G3 X42.503 Y-10.119 Z-1.59 I-0.147 J-0.069
X42.802 Y-9.992 Z-1.607 I0.147 J0.069
G1 X42.797 Y-9.981
G3 X42.503 Y-10.119 Z-1.625 I-0.147 J-0.069
X42.802 Y-9.992 Z-1.643 I0.147 J0.069
G1 X42.797 Y-9.981
G3 X42.503 Y-10.119 Z-1.661 I-0.147 J-0.069
X42.802 Y-9.992 Z-1.678 I0.147 J0.069
G1 X42.797 Y-9.981 Z-1.679
G3 X42.503 Y-10.119 Z-1.697 I-0.147 J-0.069
X42.802 Y-9.992 Z-1.714 I0.147 J0.069
G1 X42.797 Y-9.981
G3 X42.503 Y-10.119 Z-1.732 I-0.147 J-0.069
X42.802 Y-9.992 Z-1.75 I0.147 J0.069
G1 X42.797 Y-9.981
G3 X42.503 Y-10.119 I-0.147 J-0.069 F500
X42.797 Y-9.981 I0.147 J0.069
G1 X42.791 Y-9.97 F233.33
G3 X42.509 Y-10.13 Z-1.768 I-0.141 J-0.08
X42.797 Y-9.981 Z-1.786 I0.141 J0.08
G1 X42.791 Y-9.97
G3 X42.509 Y-10.13 Z-1.804 I-0.141 J-0.08
X42.797 Y-9.981 Z-1.821 I0.141 J0.08
G1 X42.791 Y-9.97 Z-1.822
G3 X42.509 Y-10.13 Z-1.84 I-0.141 J-0.08
X42.797 Y-9.981 Z-1.857 I0.141 J0.08
G1 X42.791 Y-9.97
G3 X42.509 Y-10.13 Z-1.875 I-0.141 J-0.08
X42.797 Y-9.981 Z-1.893 I0.141 J0.08
G1 X42.791 Y-9.97
G3 X42.509 Y-10.13 Z-1.911 I-0.141 J-0.08
X42.797 Y-9.981 Z-1.928 I0.141 J0.08
G1 X42.791 Y-9.97 Z-1.929
G3 X42.509 Y-10.13 Z-1.947 I-0.141 J-0.08
X42.797 Y-9.981 Z-1.964 I0.141 J0.08
G1 X42.791 Y-9.97
G3 X42.509 Y-10.13 Z-1.982 I-0.141 J-0.08
X42.797 Y-9.981 Z-2 I0.141 J0.08
G1 X42.791 Y-9.97
G3 X42.509 Y-10.13 I-0.141 J-0.08 F500
X42.791 Y-9.97 I0.141 J0.08
G1 X42.785 Y-9.96 F233.33
G3 X42.515 Y-10.14 Z-2.018 I-0.135 J-0.09
X42.791 Y-9.97 Z-2.036 I0.135 J0.09
G1 X42.785 Y-9.96
G3 X42.515 Y-10.14 Z-2.054 I-0.135 J-0.09
X42.791 Y-9.97 Z-2.071 I0.135 J0.09
G1 X42.785 Y-9.96 Z-2.072
G3 X42.515 Y-10.14 Z-2.09 I-0.135 J-0.09
X42.791 Y-9.97 Z-2.107 I0.135 J0.09
G1 X42.785 Y-9.96
G3 X42.515 Y-10.14 Z-2.125 I-0.135 J-0.09
X42.791 Y-9.97 Z-2.143 I0.135 J0.09
G1 X42.785 Y-9.96
G3 X42.515 Y-10.14 Z-2.161 I-0.135 J-0.09
X42.791 Y-9.97 Z-2.178 I0.135 J0.09
G1 X42.785 Y-9.96 Z-2.179
G3 X42.515 Y-10.14 Z-2.197 I-0.135 J-0.09
X42.791 Y-9.97 Z-2.214 I0.135 J0.09
G1 X42.785 Y-9.96
G3 X42.515 Y-10.14 Z-2.232 I-0.135 J-0.09
X42.791 Y-9.97 Z-2.25 I0.135 J0.09
G1 X42.785 Y-9.96
G3 X42.515 Y-10.14 I-0.135 J-0.09 F500
X42.785 Y-9.96 I0.135 J0.09
G1 X42.778 Y-9.95 F233.33
G3 X42.522 Y-10.15 Z-2.268 I-0.128 J-0.1
X42.785 Y-9.96 Z-2.286 I0.128 J0.1
G1 X42.778 Y-9.95
G3 X42.522 Y-10.15 Z-2.304 I-0.128 J-0.1
X42.785 Y-9.96 Z-2.321 I0.128 J0.1
G1 X42.778 Y-9.95 Z-2.322
G3 X42.522 Y-10.15 Z-2.34 I-0.128 J-0.1
X42.785 Y-9.96 Z-2.357 I0.128 J0.1
G1 X42.778 Y-9.95
G3 X42.522 Y-10.15 Z-2.375 I-0.128 J-0.1
X42.785 Y-9.96 Z-2.393 I0.128 J0.1
G1 X42.778 Y-9.95
G3 X42.522 Y-10.15 Z-2.411 I-0.128 J-0.1
X42.785 Y-9.96 Z-2.428 I0.128 J0.1
G1 X42.778 Y-9.95 Z-2.429
G3 X42.522 Y-10.15 Z-2.447 I-0.128 J-0.1
X42.785 Y-9.96 Z-2.464 I0.128 J0.1
G1 X42.778 Y-9.95
G3 X42.522 Y-10.15 Z-2.482 I-0.128 J-0.1
X42.785 Y-9.96 Z-2.5 I0.128 J0.1
G1 X42.778 Y-9.95
G3 X42.522 Y-10.15 I-0.128 J-0.1 F500
X42.778 Y-9.95 I0.128 J0.1
X42.522 Y-10.15 Z-2.518 I-0.128 J-0.1 F233.33
X42.778 Y-9.95 Z-2.536 I0.128 J0.1
X42.522 Y-10.15 Z-2.553 I-0.128 J-0.1
X42.778 Y-9.95 Z-2.571 I0.128 J0.1
X42.522 Y-10.15 Z-2.589 I-0.128 J-0.1
X42.787 Y-10.137 Z-2.6 I0.128 J0.1
X42.513 Y-9.963 I-0.137 J0.087 F500
X42.787 Y-10.137 I0.137 J-0.087
G1 X42.806 Y-10.095 Z-2.593
X42.813 Y-10.05 Z-2.586
X42.809 Y-10.014 Z-2.567
X42.797 Y-9.981 Z-2.548
X42.778 Y-9.95 Z-2.53
X42.747 Y-9.92 Z-2.474
X42.709 Y-9.899 Z-2.419
X42.68 Y-9.89 Z-2.283
G0 Z5
X42.487 Y-0.05
Z2.818
G1 Z2.5 F500
Z-0.25 F233.33
G3 X42.813 I0.163 J0 F500
X42.487 I-0.163 J0
G1 X42.488 Y-0.062 F233.33
G3 X42.812 Y-0.038 Z-0.268 I0.162 J0.012
X42.488 Y-0.05 Z-0.286 I-0.162 J-0.012
G1 Y-0.062
G3 X42.812 Y-0.038 Z-0.304 I0.162 J0.012
X42.488 Y-0.05 Z-0.321 I-0.162 J-0.012
G1 Y-0.062 Z-0.322
G3 X42.812 Y-0.038 Z-0.34 I0.162 J0.012
X42.488 Y-0.05 Z-0.357 I-0.162 J-0.012
G1 Y-0.062
G3 X42.812 Y-0.038 Z-0.375 I0.162 J0.012
X42.488 Y-0.05 Z-0.393 I-0.162 J-0.012
G1 Y-0.062
G3 X42.812 Y-0.038 Z-0.411 I0.162 J0.012
X42.488 Y-0.05 Z-0.428 I-0.162 J-0.012
G1 Y-0.062 Z-0.429
G3 X42.812 Y-0.038 Z-0.447 I0.162 J0.012
X42.488 Y-0.05 Z-0.464 I-0.162 J-0.012
G1 Y-0.062
G3 X42.812 Y-0.038 Z-0.482 I0.162 J0.012
X42.488 Y-0.05 Z-0.5 I-0.162 J-0.012
G1 Y-0.062
G3 X42.812 Y-0.038 I0.162 J0.012 F500
X42.488 Y-0.05 I-0.162 J-0.012
G1 Y-0.062
X42.489 Y-0.074 F233.33
G3 X42.811 Y-0.026 Z-0.518 I0.161 J0.024
X42.487 Y-0.05 Z-0.535 I-0.161 J-0.024
G1 X42.488 Y-0.062 Z-0.536
X42.489 Y-0.074
G3 X42.811 Y-0.026 Z-0.554 I0.161 J0.024
X42.487 Y-0.05 Z-0.571 I-0.161 J-0.024
G1 X42.488 Y-0.062
X42.489 Y-0.074 Z-0.572
G3 X42.811 Y-0.026 Z-0.59 I0.161 J0.024
X42.487 Y-0.05 Z-0.607 I-0.161 J-0.024
G1 X42.488 Y-0.062
X42.489 Y-0.074
G3 X42.811 Y-0.026 Z-0.625 I0.161 J0.024
X42.487 Y-0.05 Z-0.642 I-0.161 J-0.024
G1 X42.488 Y-0.062 Z-0.643
X42.489 Y-0.074
G3 X42.811 Y-0.026 Z-0.661 I0.161 J0.024
X42.487 Y-0.05 Z-0.678 I-0.161 J-0.024
G1 X42.488 Y-0.062
X42.489 Y-0.074 Z-0.679
G3 X42.811 Y-0.026 Z-0.697 I0.161 J0.024
X42.487 Y-0.05 Z-0.714 I-0.161 J-0.024
G1 X42.488 Y-0.062
X42.489 Y-0.074
G3 X42.811 Y-0.026 Z-0.732 I0.161 J0.024
X42.487 Y-0.05 Z-0.749 I-0.161 J-0.024
G1 X42.488 Y-0.062 Z-0.75
X42.489 Y-0.074
G3 X42.811 Y-0.026 I0.161 J0.024 F500
X42.489 Y-0.074 I-0.161 J-0.024
G1 X42.491 Y-0.086 F233.33
G3 X42.809 Y-0.014 Z-0.768 I0.159 J0.036
X42.489 Y-0.074 Z-0.786 I-0.159 J-0.036
G1 X42.491 Y-0.086
G3 X42.809 Y-0.014 Z-0.804 I0.159 J0.036
X42.489 Y-0.074 Z-0.821 I-0.159 J-0.036
G1 X42.491 Y-0.086 Z-0.822
G3 X42.809 Y-0.014 Z-0.84 I0.159 J0.036
X42.489 Y-0.074 Z-0.857 I-0.159 J-0.036
G1 X42.491 Y-0.086
G3 X42.809 Y-0.014 Z-0.875 I0.159 J0.036
X42.489 Y-0.074 Z-0.893 I-0.159 J-0.036
G1 X42.491 Y-0.086
G3 X42.809 Y-0.014 Z-0.911 I0.159 J0.036
X42.489 Y-0.074 Z-0.928 I-0.159 J-0.036
G1 X42.491 Y-0.086 Z-0.929
G3 X42.809 Y-0.014 Z-0.947 I0.159 J0.036
X42.489 Y-0.074 Z-0.964 I-0.159 J-0.036
G1 X42.491 Y-0.086
G3 X42.809 Y-0.014 Z-0.982 I0.159 J0.036
X42.489 Y-0.074 Z-1 I-0.159 J-0.036
G1 X42.491 Y-0.086
G3 X42.809 Y-0.014 I0.159 J0.036 F500
X42.491 Y-0.086 I-0.159 J-0.036
G1 X42.494 Y-0.097 F233.33
G3 X42.806 Y-0.003 Z-1.018 I0.156 J0.047
X42.491 Y-0.086 Z-1.036 I-0.156 J-0.047
G1 X42.494 Y-0.097
G3 X42.806 Y-0.003 Z-1.054 I0.156 J0.047
X42.491 Y-0.086 Z-1.071 I-0.156 J-0.047
G1 X42.494 Y-0.097 Z-1.072
G3 X42.806 Y-0.003 Z-1.09 I0.156 J0.047
X42.491 Y-0.086 Z-1.107 I-0.156 J-0.047
G1 X42.494 Y-0.097
G3 X42.806 Y-0.003 Z-1.125 I0.156 J0.047
X42.491 Y-0.086 Z-1.143 I-0.156 J-0.047
G1 X42.494 Y-0.097
G3 X42.806 Y-0.003 Z-1.161 I0.156 J0.047
X42.491 Y-0.086 Z-1.178 I-0.156 J-0.047
G1 X42.494 Y-0.097 Z-1.179
G3 X42.806 Y-0.003 Z-1.197 I0.156 J0.047
X42.491 Y-0.086 Z-1.214 I-0.156 J-0.047
G1 X42.494 Y-0.097
G3 X42.806 Y-0.003 Z-1.232 I0.156 J0.047
X42.491 Y-0.086 Z-1.25 I-0.156 J-0.047
G1 X42.494 Y-0.097
G3 X42.806 Y-0.003 I0.156 J0.047 F500
X42.494 Y-0.097 I-0.156 J-0.047
G1 X42.498 Y-0.108 F233.33
G3 X42.802 Y0.008 Z-1.268 I0.152 J0.058
X42.494 Y-0.097 Z-1.286 I-0.152 J-0.058
G1 X42.498 Y-0.108
G3 X42.802 Y0.008 Z-1.304 I0.152 J0.058
X42.494 Y-0.097 Z-1.321 I-0.152 J-0.058
G1 X42.498 Y-0.108 Z-1.322
G3 X42.802 Y0.008 Z-1.34 I0.152 J0.058
X42.494 Y-0.097 Z-1.357 I-0.152 J-0.058
G1 X42.498 Y-0.108
G3 X42.802 Y0.008 Z-1.375 I0.152 J0.058
X42.494 Y-0.097 Z-1.393 I-0.152 J-0.058
G1 X42.498 Y-0.108
G3 X42.802 Y0.008 Z-1.411 I0.152 J0.058
X42.494 Y-0.097 Z-1.428 I-0.152 J-0.058
G1 X42.498 Y-0.108 Z-1.429
G3 X42.802 Y0.008 Z-1.447 I0.152 J0.058
X42.494 Y-0.097 Z-1.464 I-0.152 J-0.058
G1 X42.498 Y-0.108
G3 X42.802 Y0.008 Z-1.482 I0.152 J0.058
X42.494 Y-0.097 Z-1.5 I-0.152 J-0.058
G1 X42.498 Y-0.108
G3 X42.802 Y0.008 I0.152 J0.058 F500
X42.498 Y-0.108 I-0.152 J-0.058
G1 X42.503 Y-0.119 F233.33
G3 X42.797 Y0.019 Z-1.518 I0.147 J0.069
X42.498 Y-0.108 Z-1.536 I-0.147 J-0.069
G1 X42.503 Y-0.119
G3 X42.797 Y0.019 Z-1.554 I0.147 J0.069
X42.498 Y-0.108 Z-1.571 I-0.147 J-0.069
G1 X42.503 Y-0.119 Z-1.572
G3 X42.797 Y0.019 Z-1.59 I0.147 J0.069
X42.498 Y-0.108 Z-1.607 I-0.147 J-0.069
G1 X42.503 Y-0.119
G3 X42.797 Y0.019 Z-1.625 I0.147 J0.069
X42.498 Y-0.108 Z-1.643 I-0.147 J-0.069
G1 X42.503 Y-0.119
G3 X42.797 Y0.019 Z-1.661 I0.147 J0.069
X42.498 Y-0.108 Z-1.678 I-0.147 J-0.069
G1 X42.503 Y-0.119 Z-1.679
G3 X42.797 Y0.019 Z-1.697 I0.147 J0.069
X42.498 Y-0.108 Z-1.714 I-0.147 J-0.069
G1 X42.503 Y-0.119
G3 X42.797 Y0.019 Z-1.732 I0.147 J0.069
X42.498 Y-0.108 Z-1.75 I-0.147 J-0.069
G1 X42.503 Y-0.119
G3 X42.797 Y0.019 I0.147 J0.069 F500
X42.503 Y-0.119 I-0.147 J-0.069
G1 X42.509 Y-0.13 F233.33
G3 X42.791 Y0.03 Z-1.768 I0.141 J0.08
X42.503 Y-0.119 Z-1.786 I-0.141 J-0.08
G1 X42.509 Y-0.13
G3 X42.791 Y0.03 Z-1.804 I0.141 J0.08
X42.503 Y-0.119 Z-1.821 I-0.141 J-0.08
G1 X42.509 Y-0.13 Z-1.822
G3 X42.791 Y0.03 Z-1.84 I0.141 J0.08
X42.503 Y-0.119 Z-1.857 I-0.141 J-0.08
G1 X42.509 Y-0.13
G3 X42.791 Y0.03 Z-1.875 I0.141 J0.08
X42.503 Y-0.119 Z-1.893 I-0.141 J-0.08
G1 X42.509 Y-0.13
G3 X42.791 Y0.03 Z-1.911 I0.141 J0.08
X42.503 Y-0.119 Z-1.928 I-0.141 J-0.08
G1 X42.509 Y-0.13 Z-1.929
G3 X42.791 Y0.03 Z-1.947 I0.141 J0.08
X42.503 Y-0.119 Z-1.964 I-0.141 J-0.08
G1 X42.509 Y-0.13
G3 X42.791 Y0.03 Z-1.982 I0.141 J0.08
X42.503 Y-0.119 Z-2 I-0.141 J-0.08
G1 X42.509 Y-0.13
G3 X42.791 Y0.03 I0.141 J0.08 F500
X42.509 Y-0.13 I-0.141 J-0.08
G1 X42.515 Y-0.14 F233.33
G3 X42.785 Y0.04 Z-2.018 I0.135 J0.09
X42.509 Y-0.13 Z-2.036 I-0.135 J-0.09
G1 X42.515 Y-0.14
G3 X42.785 Y0.04 Z-2.054 I0.135 J0.09
X42.509 Y-0.13 Z-2.071 I-0.135 J-0.09
G1 X42.515 Y-0.14 Z-2.072
G3 X42.785 Y0.04 Z-2.09 I0.135 J0.09
X42.509 Y-0.13 Z-2.107 I-0.135 J-0.09
G1 X42.515 Y-0.14
G3 X42.785 Y0.04 Z-2.125 I0.135 J0.09
X42.509 Y-0.13 Z-2.143 I-0.135 J-0.09
G1 X42.515 Y-0.14
G3 X42.785 Y0.04 Z-2.161 I0.135 J0.09
X42.509 Y-0.13 Z-2.178 I-0.135 J-0.09
G1 X42.515 Y-0.14 Z-2.179
G3 X42.785 Y0.04 Z-2.197 I0.135 J0.09
X42.509 Y-0.13 Z-2.214 I-0.135 J-0.09
G1 X42.515 Y-0.14
G3 X42.785 Y0.04 Z-2.232 I0.135 J0.09
X42.509 Y-0.13 Z-2.25 I-0.135 J-0.09
G1 X42.515 Y-0.14
G3 X42.785 Y0.04 I0.135 J0.09 F500
X42.515 Y-0.14 I-0.135 J-0.09
G1 X42.522 Y-0.15 F233.33
G3 X42.778 Y0.05 Z-2.268 I0.128 J0.1
X42.515 Y-0.14 Z-2.286 I-0.128 J-0.1
G1 X42.522 Y-0.15
G3 X42.778 Y0.05 Z-2.304 I0.128 J0.1
X42.515 Y-0.14 Z-2.321 I-0.128 J-0.1
G1 X42.522 Y-0.15 Z-2.322
G3 X42.778 Y0.05 Z-2.34 I0.128 J0.1
X42.515 Y-0.14 Z-2.357 I-0.128 J-0.1
G1 X42.522 Y-0.15
G3 X42.778 Y0.05 Z-2.375 I0.128 J0.1
X42.515 Y-0.14 Z-2.393 I-0.128 J-0.1
G1 X42.522 Y-0.15
G3 X42.778 Y0.05 Z-2.411 I0.128 J0.1
X42.515 Y-0.14 Z-2.428 I-0.128 J-0.1
G1 X42.522 Y-0.15 Z-2.429
G3 X42.778 Y0.05 Z-2.447 I0.128 J0.1
X42.515 Y-0.14 Z-2.464 I-0.128 J-0.1
G1 X42.522 Y-0.15
G3 X42.778 Y0.05 Z-2.482 I0.128 J0.1
X42.515 Y-0.14 Z-2.5 I-0.128 J-0.1
G1 X42.522 Y-0.15
G3 X42.778 Y0.05 I0.128 J0.1 F500
X42.522 Y-0.15 I-0.128 J-0.1
X42.778 Y0.05 Z-2.518 I0.128 J0.1 F233.33
X42.522 Y-0.15 Z-2.536 I-0.128 J-0.1
X42.778 Y0.05 Z-2.553 I0.128 J0.1
X42.522 Y-0.15 Z-2.571 I-0.128 J-0.1
X42.778 Y0.05 Z-2.589 I0.128 J0.1
X42.513 Y0.037 Z-2.6 I-0.128 J-0.1
X42.787 Y-0.137 I0.137 J-0.087 F500
X42.513 Y0.037 I-0.137 J0.087
G1 X42.494 Y-0.005 Z-2.593
X42.487 Y-0.05 Z-2.586
X42.491 Y-0.086 Z-2.567
X42.503 Y-0.119 Z-2.548
X42.522 Y-0.15 Z-2.53
X42.553 Y-0.18 Z-2.474
X42.591 Y-0.201 Z-2.419
X42.62 Y-0.21 Z-2.283
G0 Z15
M9
G28 G91 Z0
G90
G28 G91 X0 Y0
G90
M30
%
